<?xml version="1.0" encoding="UTF-8"?>
<map version="1.11" tiledversion="1.12.2" orientation="orthogonal" renderorder="right-down" width="20" height="40" tilewidth="40" tileheight="40" infinite="0" nextlayerid="8" nextobjectid="111">
 <editorsettings>
  <export target="room1.lua" format="lua"/>
 </editorsettings>
 <properties>
  <property name="name" value="Test Map - Room 1"/>
 </properties>
 <tileset firstgid="1" source="../tilesets/castle.tsx"/>
 <tileset firstgid="41" source="../tilesets/rural_buildings.tsx"/>
 <tileset firstgid="73" source="../tilesets/farm_world_extras.tsx"/>
 <tileset firstgid="100" source="../tilesets/GONER.tsx"/>
 <tileset firstgid="125" source="../tilesets/intro.tsx"/>
 <tileset firstgid="128" source="../tilesets/farm_world.tsx"/>
 <tileset firstgid="228" source="../tilesets/garden.tsx"/>
 <layer id="1" name="tiles" width="20" height="40">
  <data encoding="csv">
0,129,0,0,0,0,129,0,0,0,0,0,0,0,139,0,0,0,0,0,
0,0,0,0,139,0,0,0,0,139,0,141,0,0,0,0,140,0,0,0,
0,0,129,0,130,0,0,0,0,0,0,0,0,141,0,0,0,0,0,0,
0,0,0,0,129,0,0,0,0,0,0,0,0,0,136,136,135,135,0,129,
0,0,0,0,0,0,0,0,139,130,130,129,0,136,134,134,134,134,135,0,
0,0,248,233,233,233,232,234,232,149,148,149,135,134,134,134,134,134,134,0,
0,0,233,232,233,232,232,232,233,232,232,233,132,144,144,144,145,144,145,133,
0,0,232,232,233,234,233,232,234,232,232,132,132,132,132,133,132,133,133,132,
0,0,232,232,234,233,232,232,233,232,149,132,134,134,134,134,134,134,134,0,
0,0,234,232,232,232,246,246,246,246,0,0,0,134,134,134,134,134,134,0,
248,232,232,234,232,232,232,232,256,256,0,0,0,0,0,0,0,0,0,0,
232,234,232,233,233,232,232,232,266,266,0,0,0,0,0,0,0,0,0,0,
236,236,236,236,236,236,236,236,276,276,0,0,0,0,0,0,0,0,0,0,
246,246,246,246,246,246,246,246,286,286,0,0,0,0,0,0,130,0,0,0,
256,256,256,256,256,256,256,256,0,0,0,0,0,0,0,0,0,0,0,0,
0,17,9,17,17,9,17,0,0,0,0,0,0,0,0,0,0,0,0,0,
0,22,13,23,23,13,23,23,23,13,23,23,13,24,0,0,0,0,0,0,
0,22,23,23,23,23,23,21,23,23,23,23,23,24,0,0,0,0,0,0,
0,26,27,27,27,27,27,27,27,27,27,27,27,28,0,0,0,0,0,0,
0,6,7,7,7,7,7,7,7,7,7,7,7,8,0,0,0,0,0,0,
0,10,11,11,100,11,11,11,11,11,11,11,11,12,0,0,0,0,0,0,
100,100,11,11,11,11,11,11,11,11,11,11,11,11,7,100,7,7,100,100,
100,100,100,11,11,11,11,11,11,11,11,11,100,100,15,15,100,100,100,100,
0,10,11,100,11,11,11,11,11,11,11,100,100,100,0,0,0,0,0,0,
0,14,15,15,11,11,11,11,11,11,11,100,15,16,0,0,0,0,0,0,
0,0,0,0,14,15,11,11,11,15,16,0,0,0,0,0,0,0,0,0,
0,0,0,0,0,0,2,3,4,0,0,0,0,0,0,0,0,0,0,0,
0,0,0,0,0,0,2,3,0,0,0,0,0,0,0,0,0,0,0,0,
0,0,0,0,0,0,0,3,4,0,0,0,0,0,0,0,0,0,0,0,
78,0,0,0,0,0,0,3,0,0,0,0,0,0,0,0,18,19,20,0,
0,0,0,0,0,0,0,0,0,0,0,0,0,0,0,0,22,23,24,0,
0,0,0,0,0,0,0,3,0,0,0,0,0,0,0,0,22,9,24,0,
0,0,0,0,0,0,2,3,4,0,0,0,0,0,0,0,10,11,12,0,
0,0,0,0,0,0,0,3,4,0,0,0,0,0,0,0,10,11,12,0,
0,6,7,7,7,7,11,11,11,7,7,7,7,7,7,7,11,11,12,0,
0,10,11,11,11,11,11,11,11,11,11,11,11,11,15,15,15,15,16,0,
0,10,11,11,11,11,11,11,11,11,11,11,11,12,0,0,0,0,0,0,
0,10,11,11,11,11,11,11,11,11,11,11,11,12,0,0,0,0,0,0,
0,11,11,15,15,15,15,15,15,15,15,15,15,16,0,0,0,0,0,0,
0,142,143,0,0,0,0,0,0,0,0,0,0,0,0,0,0,0,0,0
</data>
 </layer>
 <layer id="2" name="decal" width="20" height="40">
  <data encoding="csv">
0,0,0,0,0,0,0,0,0,0,0,0,0,0,0,0,0,0,0,0,
0,0,0,0,0,0,0,0,0,0,0,0,0,0,0,0,0,0,0,0,
0,0,0,0,0,0,0,0,0,0,0,0,0,0,0,0,0,0,0,0,
0,0,0,0,0,0,0,0,0,0,0,0,0,0,0,0,0,0,0,0,
0,0,0,0,0,0,0,0,0,0,0,0,0,0,0,0,0,0,0,0,
0,0,0,0,0,0,0,0,0,0,0,0,0,0,0,0,0,0,0,0,
0,0,0,0,0,0,0,0,0,0,0,0,0,0,0,0,0,0,0,150,
0,0,0,0,0,0,0,0,0,0,0,0,0,0,0,0,0,0,0,150,
0,0,0,0,0,0,0,0,0,0,150,0,0,0,0,0,0,0,0,0,
0,0,0,0,0,0,0,0,0,0,0,0,0,0,0,0,0,0,0,0,
0,0,0,0,0,0,0,0,0,0,0,0,0,0,0,0,0,0,0,0,
0,0,0,0,0,0,0,0,0,0,0,0,0,0,0,0,0,0,0,0,
0,0,0,0,0,0,0,0,0,0,0,0,0,0,0,0,0,0,0,0,
0,0,0,0,0,0,0,0,0,0,0,0,0,0,0,0,0,0,0,0,
0,0,0,0,0,0,0,0,0,0,0,0,0,0,0,0,0,0,0,0,
0,125,0,0,0,0,0,0,0,0,0,0,0,0,0,0,0,0,0,0,
0,0,0,0,0,0,0,0,0,0,0,0,0,0,0,0,0,0,0,0,
0,0,0,0,0,126,0,0,0,0,0,0,0,0,0,0,0,0,0,0,
0,0,0,0,0,0,0,0,0,0,0,0,0,0,0,0,0,0,0,0,
0,0,0,0,0,0,0,0,0,83,0,0,0,0,0,0,0,0,0,0,
0,0,0,0,0,0,0,0,0,0,0,0,0,0,0,0,0,0,0,0,
0,0,0,0,0,0,30,31,32,0,0,0,0,0,0,0,0,0,0,0,
0,0,0,0,0,0,34,35,36,0,0,0,0,0,0,0,0,0,0,0,
0,80,83,0,0,0,38,39,40,0,0,0,0,0,0,0,0,0,0,0,
0,0,80,0,0,0,0,0,0,0,0,0,0,0,0,0,0,0,0,0,
0,0,0,0,0,0,0,0,0,0,0,0,0,0,0,0,0,0,0,0,
0,0,0,0,0,0,0,0,0,0,0,0,0,0,0,0,0,0,0,0,
0,0,0,0,0,0,0,0,0,0,0,0,0,0,0,0,0,0,0,0,
0,0,0,0,0,0,0,0,0,0,0,0,0,0,0,0,0,0,0,0,
0,0,0,0,0,0,0,0,0,0,0,0,0,0,0,0,127,0,0,0,
0,84,81,81,0,0,0,0,0,0,0,0,0,0,0,0,127,0,0,0,
0,0,0,84,80,0,0,0,0,0,0,0,0,0,0,0,127,0,0,0,
0,0,81,81,0,0,0,0,0,0,0,0,0,0,0,0,0,0,0,0,
0,0,0,0,0,0,0,0,0,0,0,0,0,0,0,0,0,0,0,0,
0,0,0,0,0,0,0,0,0,0,0,0,0,0,0,0,0,0,0,0,
0,0,0,0,0,0,0,0,0,0,0,0,0,0,0,0,0,0,0,0,
0,0,0,0,0,0,0,0,0,0,0,0,0,0,0,0,0,0,0,0,
0,0,0,0,0,0,0,0,0,0,0,0,0,0,0,0,0,0,0,0,
0,0,0,0,0,0,0,0,0,0,0,0,0,0,0,0,0,0,0,0,
0,0,0,0,0,0,0,0,0,0,0,0,0,0,0,0,0,0,0,0
</data>
 </layer>
 <objectgroup color="#0000ff" id="3" name="collision" opacity="0.5">
  <object id="1" x="40" y="720" width="520" height="40"/>
  <object id="2" x="560" y="760" width="40" height="80"/>
  <object id="3" x="600" y="800" width="200" height="40"/>
  <object id="4" x="560" y="920" width="40" height="80"/>
  <object id="5" x="600" y="920" width="200" height="40"/>
  <object id="6" x="440" y="1000" width="120" height="40"/>
  <object id="7" x="360" y="1040" width="80" height="40"/>
  <object id="8" x="360" y="1320" width="280" height="40"/>
  <object id="9" x="560" y="1440" width="40" height="120"/>
  <object id="10" x="120" y="1560" width="440" height="40"/>
  <object id="11" x="0" y="1360" width="40" height="240"/>
  <object id="12" x="40" y="1320" width="160" height="40"/>
  <object id="14" x="160" y="1040" width="80" height="40"/>
  <object id="15" x="0" y="1000" width="40" height="360"/>
  <object id="16" x="0" y="920" width="40" height="80"/>
  <object id="18" x="360" y="1080" width="40" height="240"/>
  <object id="23" x="600" y="1280" width="40" height="40"/>
  <object id="24" x="640" y="1240" width="120" height="40"/>
  <object id="25" x="760" y="1280" width="40" height="160"/>
  <object id="26" x="600" y="1440" width="160" height="40"/>
  <object id="76" x="520" y="320" width="240" height="40"/>
  <object id="77" x="760" y="240" width="40" height="80"/>
  <object id="78" x="520" y="200" width="240" height="40"/>
  <object id="80" x="440" y="200" width="80" height="40"/>
  <object id="81" x="400" y="320" width="40" height="40"/>
  <object id="82" x="480" y="320" width="40" height="40"/>
  <object id="94" x="0" y="520" width="320" height="40"/>
  <object id="95" x="320" y="400" width="40" height="120"/>
  <object id="96" x="-40" y="400" width="40" height="120"/>
  <object id="97" x="0" y="360" width="80" height="40"/>
  <object id="98" x="240" y="360" width="80" height="40"/>
  <object id="99" x="40" y="200" width="40" height="160"/>
  <object id="100" x="80" y="160" width="360" height="40"/>
  <object id="101" x="320" y="360" width="80" height="40"/>
  <object id="108" x="0" y="760" width="40" height="80"/>
 </objectgroup>
 <objectgroup id="6" name="objects_ladder">
  <object id="71" gid="64" x="390" y="760" width="150" height="430"/>
 </objectgroup>
 <objectgroup color="#ff00ff" id="4" name="objects_party">
  <object id="19" name="npc" x="480" y="1480" width="40" height="40">
   <properties>
    <property name="actor" value="starwalker"/>
    <property name="text1_1" value="* These [color:red]larpers[color:reset] are..."/>
    <property name="text1_2" value="* Hey,[wait:5] uh..."/>
    <property name="text1_3" value="* Is anyone going to do anything about the big ass [color:green][sound:QUADO]green[color:reset] couch in this room?"/>
    <property name="text1_4" value="* Or like...[wait:5] [color:red]any[sound:ominous][color:reset] of the other $$!$ ??!?[sound:awkward]"/>
    <property name="text2_1" value="* Guess[sound:QUADO] not. [sound:GPT]"/>
    <property name="text3_1" value="* [color:yellow]...[sound:PREDICTIVE]"/>
   </properties>
  </object>
  <object id="27" name="savepoint" x="70" y="940" width="40" height="40">
   <properties>
    <property name="text1" value="* Many things have changed in this testing area.[wait:5] Mostlys for the worse."/>
    <property name="text2" value="* Yet still,[wait:5] the immutable power of larpery steels within you."/>
   </properties>
  </object>
  <object id="28" name="squeak" x="680" y="1240" width="40" height="40"/>
  <object id="29" name="transition" x="800" y="840" width="40" height="80">
   <properties>
    <property name="map" value="room2"/>
    <property name="marker" value="entry"/>
   </properties>
  </object>
  <object id="33" name="interactable" x="280" y="720" width="40" height="40">
   <properties>
    <property name="cutscene" value="room1.wall"/>
    <property name="once" type="bool" value="true"/>
   </properties>
  </object>
  <object id="35" name="npc" x="300" y="800">
   <properties>
    <property name="actor" value="wall"/>
    <property name="flagcheck" value="wall_hit"/>
    <property name="text1">* I Am the Wall Guardian.[wait:5]
* This Wall is Off Limits for you
no-good wall slammers.</property>
   </properties>
   <point/>
  </object>
  <object id="44" name="interactable" x="40" y="1320" width="160" height="40">
   <properties>
    <property name="text">* This[sound:quato] is[sound:quato] the[sound:quato] coolest[sound:quato] wall[sound:quato] in[sound:quato] the[sound:quato] room[sound:quato].[wait:5]
* Trade on [sound:GPT][color:green]Quado[sound:quato]
Quado
Quado
Quado
Quado
Quado
Quado
Quado
Quado</property>
   </properties>
  </object>
  <object id="45" name="npc" x="120" y="1480" width="40" height="40">
   <properties>
    <property name="actor" value="kris"/>
    <property name="facing" value="left"/>
    <property name="text1_1" value="* Never mind dude.[wait:5] I don't even wanna be in your party anyway"/>
    <property name="text1_2" value="* *Is not a tsundere*"/>
    <property name="text2_1" value="* Stawp.[sound:farmerlaugh][wait:5] I'm not a tsundereeee"/>
    <property name="turn" type="bool" value="true"/>
   </properties>
  </object>
  <object id="49" name="npc" x="490" y="1150" width="40" height="40">
   <properties>
    <property name="actor" value="flight"/>
    <property name="text1_1" value="* About time someone interacted with me."/>
    <property name="text1_2" value="* Don't take my lament the wrong way.[wait:5] I'm grateful![wait:5] It truly means a lot to me."/>
    <property name="text2_1" value="* Cherish this world,[wait:5] won't you?"/>
    <property name="text2_2" value="* Soon,[wait:5] everything left of the original will be painted over anew..."/>
    <property name="text3_1" value="* Don't you have anything better to do?"/>
   </properties>
  </object>
  <object id="53" gid="61" x="40" y="740" width="40" height="60"/>
  <object id="54" name="interactable" x="40" y="720" width="40" height="40">
   <properties>
    <property name="cutscene" value="room1.grace_voice_test"/>
   </properties>
  </object>
  <object id="55" gid="86" x="160" y="1470" width="320" height="80"/>
  <object id="56" name="npc" x="80" y="1400" width="40" height="40">
   <properties>
    <property name="actor" value="larpwalker"/>
    <property name="text1_1" value="* [color:red]Larp[sound:DELTALARP_ch2]walker"/>
   </properties>
  </object>
  <object id="57" name="interactable" x="160" y="1390" width="320" height="60">
   <properties>
    <property name="solid" type="bool" value="true"/>
    <property name="text" value="* (Just a green couch in a green room.)"/>
   </properties>
  </object>
  <object id="58" name="npc" x="380" y="990" width="40" height="40">
   <properties>
    <property name="actor" value="larpwalker"/>
    <property name="solid" type="bool" value="false"/>
    <property name="text1_1" value="* [color:red]Larp[sound:DELTALARP_ch7]walker"/>
   </properties>
  </object>
  <object id="59" name="npc" x="180" y="790" width="40" height="40">
   <properties>
    <property name="actor" value="blunderbuss"/>
    <property name="cutscene" value="chapter1/rural.test_school"/>
    <property name="solid" type="bool" value="false"/>
   </properties>
  </object>
  <object id="60" name="npc" x="190" y="920" width="40" height="40">
   <properties>
    <property name="actor" value="larpwalker"/>
    <property name="solid" type="bool" value="false"/>
    <property name="text1_1" value="* [color:red]Larp[sound:DELTALARP_ch4]walker"/>
   </properties>
  </object>
  <object id="61" name="npc" x="350" y="840" width="40" height="40">
   <properties>
    <property name="actor" value="larpwalker"/>
    <property name="solid" type="bool" value="false"/>
    <property name="text1_1" value="* [color:red]Larp[sound:DELTALARP_ch3]walker"/>
   </properties>
  </object>
  <object id="62" name="npc" x="280" y="960" width="40" height="40">
   <properties>
    <property name="actor" value="larpwalker"/>
    <property name="solid" type="bool" value="false"/>
    <property name="text1_1" value="* [color:red]Larp[sound:DELTALARP_ch6]walker"/>
   </properties>
  </object>
  <object id="63" name="npc" x="40" y="1480" width="40" height="40">
   <properties>
    <property name="actor" value="GONER_0"/>
    <property name="facing" value="right"/>
    <property name="text1_1" value="* Meet me...[wait:5] down the path to our south..."/>
    <property name="text2_1" value="* Oh,[wait:5] Vess...[wait:5] Uhm,[wait:5] I mean,[wait:5] you can come too,[wait:5] I guess.[wait:5] Fahaha! "/>
    <property name="text3_1" value="* (They're silently sneering and jeering...)"/>
    <property name="turn" type="bool" value="false"/>
   </properties>
  </object>
  <object id="65" name="interactable" x="400" y="1320" width="200" height="40">
   <properties>
    <property name="text" value="* Help"/>
   </properties>
  </object>
  <object id="66" name="interactable" x="360" y="1080" width="40" height="240">
   <properties>
    <property name="text" value="* Help"/>
   </properties>
  </object>
  <object id="70" name="climbarea" x="400" y="360" width="120" height="360"/>
  <object id="67" name="climbentry" x="440" y="720" width="40" height="40">
   <properties>
    <property name="target" type="object" value="75"/>
   </properties>
  </object>
  <object id="74" name="climbentry" x="440" y="320" width="40" height="40">
   <properties>
    <property name="target" type="object" value="68"/>
   </properties>
  </object>
  <object id="88" name="climbentry" x="480" y="720" width="40" height="40">
   <properties>
    <property name="target" type="object" value="86"/>
   </properties>
  </object>
  <object id="89" name="climbentry" x="400" y="720" width="40" height="40">
   <properties>
    <property name="target" type="object" value="87"/>
   </properties>
  </object>
  <object id="90" name="npc" x="660" y="260" width="40" height="40">
   <properties>
    <property name="actor" value="gardner"/>
    <property name="text1" value="[face:smile]* Howdy!"/>
   </properties>
  </object>
  <object id="91" name="warpdoor" x="140" y="760">
   <properties>
    <property name="map1" value="chapter1/farm_world/farm1"/>
    <property name="map2" value="chapter1/farm_world/farm_gardner_test"/>
    <property name="map3" value="chapter1/rural1"/>
    <property name="marker1" value="spawn"/>
    <property name="marker2" value="spawn"/>
    <property name="marker3" value="spawn"/>
    <property name="name1" value="Dark World"/>
    <property name="name2" value="Gardner Chase"/>
    <property name="name3" value="Start Day?"/>
    <property name="open" type="bool" value="true"/>
   </properties>
   <point/>
  </object>
  <object id="92" name="npc" x="450" y="850" width="40" height="40">
   <properties>
    <property name="actor" value="starwalker"/>
    <property name="text1_1" value="* Hey,[wait:5] so,[wait:5] I WAS a placeholder NPC in chapter1/farm_world/farm3..."/>
    <property name="text1_2" value="* But,[wait:5] uh...[wait:5] I think I got fired."/>
    <property name="text1_3" value="* And,[wait:5] I mean...[wait:5] that's fine,[wait:5] I was going to quit soon anyway..."/>
    <property name="text1_4" value="* But like..."/>
    <property name="text1_5" value="* I didn't know getting fired meant hellfire.[wait:5] What the hell is this place man"/>
    <property name="text2_1" value="* Never mind.[wait:5] Just heard about [color:green][sound:QUADO]QUADO[color:reset]."/>
    <property name="text2_2" value="* trading rn[sound:wheredidtheyhidetheza]"/>
    <property name="text3_1" value="* trading rn[sound:wheredidtheyhidetheza]"/>
   </properties>
  </object>
  <object id="103" name="npc" x="220" y="460" width="40" height="40">
   <properties>
    <property name="actor" value="sofer"/>
    <property name="text1_1" value="* Blood![wait:5] Blood![wait:5] Blood![wait:5]"/>
   </properties>
  </object>
  <object id="104" name="npc" x="30" y="460" width="40" height="40">
   <properties>
    <property name="actor" value="tofer"/>
    <property name="text1_1" value="* Check it![sound:tofer_checkit]"/>
   </properties>
  </object>
  <object id="105" name="transition" x="40" y="1600" width="78.667" height="42.3333">
   <properties>
    <property name="map" value="chapter1/farm_world/farm8"/>
    <property name="marker" value="to_room1"/>
   </properties>
  </object>
  <object id="107" name="npc" x="70" y="830" width="40" height="40">
   <properties>
    <property name="actor" value="starwalker"/>
    <property name="text1_1" value="* Hey,[wait:5] so,[wait:5] they fired me.[wait:5] Too."/>
    <property name="text1_2" value="* From chapter1/farm_world/garden_ladder3."/>
    <property name="text2_1" value="* I guess I was related to that other guy,[wait:5] after all..."/>
    <property name="text3_1" value="* No,[wait:5] I will not be trading on [color:green]QUADO[color:reset][sound:QUADO] like these lowly simpletons."/>
    <property name="text3_2" value="* I have more...[wait:5] refined hobbies to indulge in instead."/>
    <property name="text3_3" value="* Hobbies that stimulate the mind,[wait:5] zah ha ha!"/>
    <property name="text4_1" value="* WD [sound:wheredidtheyhidetheza]Gaster [sound:wheredidtheyhidetheza]Vecember [sound:wheredidtheyhidetheza]Holiday [sound:wheredidtheyhidetheza]Carol Rudy Knight Penumbra Ramb Eram Mancountry Image Friend Forgotten Man Last [sound:wheredidtheyhidetheza]Prophecy Northernlight Noelle Holiday Gaster Motif Girl Next Door DDLC [sound:wheredidtheyhidetheza]Theory"/>
   </properties>
  </object>
  <object id="110" name="transition" x="-40" y="840" width="40" height="80">
   <properties>
    <property name="map" value="room_racing"/>
    <property name="marker" value="entry"/>
   </properties>
  </object>
 </objectgroup>
 <objectgroup id="7" name="objects">
  <object id="68" name="climbexit" x="440" y="360" width="40" height="40">
   <properties>
    <property name="target" type="object" value="69"/>
   </properties>
  </object>
  <object id="75" name="climbexit" x="440" y="680" width="40" height="40">
   <properties>
    <property name="target" type="object" value="73"/>
   </properties>
  </object>
  <object id="85" gid="65" x="310" y="700" width="120" height="60"/>
  <object id="86" name="climbexit" x="480" y="680" width="40" height="40">
   <properties>
    <property name="target" type="object" value="73"/>
   </properties>
  </object>
  <object id="87" name="climbexit" x="400" y="680" width="40" height="40">
   <properties>
    <property name="target" type="object" value="73"/>
   </properties>
  </object>
 </objectgroup>
 <objectgroup color="#7f00ff" id="5" name="markers">
  <object id="20" name="spawn" x="300" y="890">
   <point/>
  </object>
  <object id="30" name="entry" x="760" y="880">
   <point/>
  </object>
  <object id="50" name="susie_spawn" x="690" y="880">
   <point/>
  </object>
  <object id="51" name="susie_walk" x="560" y="880">
   <point/>
  </object>
  <object id="69" name="climb_exit" x="460" y="300">
   <point/>
  </object>
  <object id="73" name="climb_exit" x="480" y="810">
   <point/>
  </object>
  <object id="106" name="to_farm8" x="80" y="1560">
   <point/>
  </object>
  <object id="109" name="to_racing" x="40" y="880">
   <point/>
  </object>
 </objectgroup>
</map>
