<?xml version="1.0" encoding="UTF-8"?>
<map version="1.11" tiledversion="1.12.2" orientation="orthogonal" renderorder="right-down" width="72" height="72" tilewidth="40" tileheight="40" infinite="0" nextlayerid="18" nextobjectid="357">
 <editorsettings>
  <export target="data.lua" format="lua"/>
 </editorsettings>
 <properties>
  <property name="music" value="garden"/>
  <property name="name" value="Garden - Ladders"/>
 </properties>
 <tileset firstgid="1" source="../../../../tilesets/garden.tsx"/>
 <tileset firstgid="101" source="../../../../tilesets/farm_world.tsx"/>
 <tileset firstgid="201" source="../../../../tilesets/grass_battleboard.tsx"/>
 <tileset firstgid="301" source="../../../../tilesets/garden_extras.tsx"/>
 <tileset firstgid="340" source="../../../../tilesets/garden_slide.tsx"/>
 <layer id="1" name="Tile Layer 1" width="72" height="72">
  <data encoding="csv">
0,0,0,0,0,0,0,0,0,0,0,0,0,0,0,0,0,0,0,0,0,0,0,0,0,0,0,29,29,29,0,0,0,0,0,29,29,29,0,0,0,0,0,29,29,29,0,0,350,0,0,0,0,0,0,0,0,0,0,0,0,0,0,0,0,0,0,0,0,0,0,0,
0,0,0,0,0,0,0,0,0,5,0,0,0,0,0,0,0,0,0,0,0,0,0,0,0,0,0,39,39,39,0,0,0,0,0,39,39,39,0,0,0,0,0,39,39,39,0,0,350,0,0,0,0,0,0,0,0,0,0,0,0,0,0,0,0,0,0,0,0,0,0,0,
0,0,0,0,5,0,0,0,0,5,0,0,0,0,6,0,0,0,0,0,0,0,0,0,0,0,0,39,39,39,0,0,0,0,0,39,39,39,0,0,0,0,0,39,39,39,0,0,350,0,0,0,0,0,0,0,0,0,0,0,0,0,0,0,0,0,0,0,0,0,0,0,
0,0,0,0,5,0,0,0,0,5,0,0,0,0,5,0,0,0,0,0,0,0,0,0,0,0,0,39,39,39,0,0,0,0,0,39,39,39,0,0,0,0,0,39,39,39,0,0,350,0,0,0,0,0,0,0,0,0,0,0,0,0,0,0,0,0,0,0,0,0,0,0,
0,0,0,0,5,0,0,0,0,5,0,0,0,0,7,0,0,0,0,0,0,0,0,0,0,0,0,39,39,39,0,0,0,0,0,39,39,39,0,0,0,0,0,39,39,39,0,0,350,0,0,0,0,0,0,0,0,0,0,0,0,0,0,0,0,0,0,0,0,0,0,0,
0,0,0,0,5,0,0,0,0,6,0,0,0,0,5,0,0,0,0,0,0,0,0,0,0,0,0,49,49,49,0,0,0,0,0,49,49,49,0,0,0,0,0,49,49,49,0,0,350,0,0,0,0,0,0,0,0,0,0,0,0,0,0,0,0,0,0,0,0,0,0,0,
0,0,0,0,5,0,0,0,0,5,0,0,0,0,5,0,0,0,0,0,0,0,0,0,0,0,0,49,49,49,0,0,0,0,0,49,49,49,0,0,0,0,0,49,49,49,0,0,350,0,0,0,0,0,0,0,0,0,0,0,0,0,0,0,0,0,0,0,0,0,0,0,
0,0,0,0,6,0,0,0,0,6,0,0,0,0,5,0,0,0,0,0,0,0,0,0,0,0,0,49,49,49,0,0,0,0,0,49,49,49,0,0,0,0,0,49,49,49,0,0,350,0,0,0,0,0,0,0,0,0,0,0,0,0,0,0,0,0,0,0,0,0,0,0,
0,0,0,0,6,0,0,0,0,5,0,0,0,0,5,0,0,0,0,0,0,0,0,0,0,0,0,49,49,49,0,0,0,0,0,49,49,49,0,0,0,0,0,49,49,49,0,0,360,0,0,0,0,0,0,0,0,0,0,0,0,0,0,0,0,0,0,0,0,0,0,0,
0,0,0,0,5,0,0,0,0,6,0,0,0,0,5,0,0,0,0,0,0,0,0,0,0,0,0,6,5,5,0,0,0,0,0,5,7,7,0,0,0,0,0,5,5,6,0,0,5,0,0,0,0,0,0,0,0,0,0,0,0,0,0,0,0,0,0,0,0,0,0,0,
0,0,0,0,5,0,0,0,0,5,0,0,0,0,5,0,0,0,0,0,0,0,0,0,0,0,0,6,6,5,0,0,0,0,0,6,5,5,0,0,0,0,0,7,7,5,0,0,6,0,0,0,0,0,0,0,0,0,0,0,0,0,0,0,0,0,0,0,0,0,0,0,
0,0,0,0,5,0,0,0,0,6,0,0,0,0,5,0,0,0,0,0,0,0,0,0,21,9,9,9,9,9,9,9,5,9,9,9,9,9,9,9,5,9,9,9,9,9,9,9,5,0,0,0,0,0,0,0,0,0,0,0,0,0,0,0,0,0,0,0,0,0,0,0,
0,0,0,0,5,0,0,0,0,5,0,0,0,0,5,0,0,0,0,0,0,0,0,0,6,19,19,19,19,19,19,19,5,19,19,19,19,19,19,19,5,19,19,19,19,19,19,19,7,0,0,0,0,0,0,0,0,0,0,0,0,0,0,0,0,0,0,0,0,0,0,0,
0,0,0,0,5,0,0,0,0,6,0,0,0,0,5,0,0,0,0,0,0,0,0,0,5,29,29,29,29,29,29,29,5,29,29,29,29,29,29,29,6,29,29,29,29,29,29,29,5,0,0,0,0,0,0,0,0,0,0,0,0,0,0,0,0,0,0,0,0,0,0,0,
0,0,0,0,5,0,0,0,0,5,0,0,0,0,7,0,0,0,0,0,0,0,0,0,5,39,39,5,6,6,39,39,5,39,39,6,7,5,39,39,5,39,39,5,5,5,39,39,5,0,0,0,0,0,0,0,0,0,0,0,0,0,0,0,0,0,0,0,0,0,0,0,
0,0,0,0,5,0,0,0,0,6,0,0,0,0,5,0,0,0,0,0,0,0,0,0,5,59,59,5,5,5,59,59,5,59,59,5,5,5,59,59,5,59,59,5,7,5,59,59,5,0,0,0,0,0,0,0,0,0,0,0,0,0,0,0,0,0,0,0,0,0,0,0,
0,0,0,0,5,0,0,0,0,5,0,0,0,0,5,0,0,0,0,0,0,0,0,0,6,0,0,9,9,9,0,0,7,0,0,9,9,9,0,0,7,0,0,9,9,9,0,0,5,0,0,0,0,0,0,0,0,0,0,0,0,0,0,0,0,0,0,0,0,0,0,0,
0,0,0,0,59,0,0,0,0,6,0,0,0,0,59,0,0,0,0,0,0,0,0,0,5,0,0,59,59,59,0,0,5,0,0,59,59,59,0,0,5,0,0,59,59,59,0,0,5,0,0,0,0,0,0,0,0,0,0,0,0,0,0,0,0,0,0,0,0,0,0,0,
0,0,0,0,0,0,0,0,0,5,0,0,0,0,0,0,0,0,0,0,0,0,0,0,5,0,0,0,0,0,0,0,5,0,0,0,0,0,0,0,5,0,0,0,0,0,0,0,5,0,0,0,0,0,0,0,0,0,0,0,0,0,0,0,0,0,0,0,0,0,0,0,
0,0,0,9,9,9,9,9,9,9,9,9,9,9,9,9,9,9,9,9,9,9,9,9,5,9,9,9,9,9,9,9,5,0,0,0,0,0,0,0,5,9,9,9,9,9,9,9,5,0,0,0,0,0,0,0,0,0,0,0,0,0,0,0,0,0,0,0,0,0,0,0,
0,0,0,19,19,19,19,19,19,19,19,19,19,19,19,19,19,19,19,19,19,19,19,19,6,19,19,19,19,19,19,19,5,6,0,0,38,0,0,5,5,19,19,19,19,19,19,19,5,0,0,0,0,0,0,0,0,0,0,0,0,0,0,0,0,0,0,0,0,0,0,0,
0,0,0,29,29,29,29,29,29,29,29,29,29,29,29,29,29,29,29,29,29,29,29,29,6,29,29,29,29,29,29,29,5,5,0,0,59,0,0,5,5,29,29,29,29,29,29,29,5,0,0,0,0,0,0,0,0,0,0,0,0,0,0,0,0,0,0,0,0,0,0,0,
0,0,0,39,39,39,39,39,39,39,39,39,39,39,39,39,39,39,39,39,39,39,39,39,5,39,39,5,5,6,39,39,7,5,0,0,0,0,0,5,5,39,39,6,6,5,39,39,5,5,5,7,5,5,5,7,6,5,5,5,5,5,5,5,5,7,5,5,6,22,0,0,
0,0,0,49,49,49,49,49,49,49,49,49,49,49,49,49,49,49,49,49,49,49,49,49,5,59,59,5,5,5,59,59,5,5,0,0,0,0,0,5,5,59,59,5,5,5,59,59,5,6,5,6,6,6,5,5,5,5,7,5,5,5,7,6,7,5,5,5,5,5,0,0,
0,0,0,59,59,59,59,59,59,59,59,59,59,59,59,59,59,59,59,59,59,59,59,59,5,0,0,9,9,9,0,0,6,5,0,0,0,0,0,5,5,0,0,9,9,9,0,0,5,9,9,9,9,9,9,9,9,9,9,5,5,6,9,9,9,9,9,9,9,9,0,0,
0,0,0,0,0,0,0,0,0,0,0,0,0,0,0,0,0,0,0,0,0,0,0,0,5,0,0,59,59,59,0,0,5,5,0,0,0,0,0,5,6,0,0,59,59,59,0,0,5,19,19,19,19,19,19,19,19,19,19,5,5,5,19,19,19,19,19,19,19,19,0,0,
0,0,0,0,0,0,0,0,0,0,0,0,0,0,0,0,0,0,0,0,0,0,0,0,5,0,0,0,0,0,0,0,5,5,5,6,5,5,5,6,5,0,0,0,0,0,0,0,7,29,29,29,29,29,29,29,29,29,29,5,6,6,29,29,29,29,29,29,29,29,0,0,
0,0,0,0,0,0,0,0,0,0,0,0,0,0,0,0,0,0,0,0,0,0,0,0,5,9,9,9,9,9,9,9,6,9,9,9,9,9,9,9,5,9,9,9,9,9,9,9,6,39,39,39,39,39,39,39,39,39,39,5,6,5,39,39,39,39,39,39,39,39,0,0,
0,0,0,0,0,0,0,0,0,0,0,0,0,0,0,0,0,0,0,0,0,0,0,0,7,19,19,19,19,19,19,19,5,19,19,19,19,19,19,19,7,19,19,19,19,19,19,19,5,49,49,49,49,49,49,49,49,49,49,5,5,5,49,49,49,49,49,49,49,49,0,0,
0,0,0,0,0,0,0,0,0,0,0,0,0,0,0,0,0,0,0,0,0,0,0,0,6,29,29,29,29,29,29,29,5,29,29,29,29,29,29,29,6,29,29,29,29,29,29,29,5,59,59,59,59,59,59,59,59,59,59,5,5,7,59,59,59,59,59,59,59,59,0,0,
0,0,0,0,0,0,0,0,0,0,0,0,0,0,0,0,0,0,0,0,0,0,0,0,5,39,39,39,39,39,39,39,6,39,39,39,39,39,39,39,6,39,39,5,5,5,39,39,6,0,0,0,0,0,0,0,0,0,0,6,7,5,0,0,0,0,0,0,0,0,0,0,
0,21,5,22,0,0,0,0,0,0,21,5,6,5,22,0,0,0,0,0,0,0,0,0,7,59,59,59,59,59,59,59,7,59,59,59,59,59,59,59,5,59,59,5,5,7,59,59,5,0,0,0,0,0,0,0,0,0,0,5,6,5,0,0,0,0,0,0,0,0,0,0,
0,5,5,5,9,9,9,9,5,5,5,6,5,5,6,0,0,0,0,0,0,0,0,0,5,0,0,0,0,0,0,0,5,0,0,0,0,0,0,0,5,0,0,9,9,9,0,0,5,0,0,0,0,0,0,0,0,0,0,5,7,5,0,0,0,0,0,0,0,0,0,0,
0,9,9,9,19,19,19,19,9,9,9,9,5,5,5,0,0,0,0,0,0,0,0,0,5,0,0,0,0,0,0,0,5,0,0,0,0,0,0,0,5,0,0,59,59,59,0,0,5,0,0,0,0,0,0,0,0,0,0,5,5,5,0,0,0,0,0,0,0,0,0,0,
0,19,19,19,29,29,29,29,19,19,19,19,7,5,5,0,0,0,0,0,0,0,0,0,5,0,0,0,0,0,0,0,5,0,0,0,0,0,0,0,5,0,0,0,0,0,0,0,5,0,0,0,0,0,0,0,0,0,0,5,5,6,0,0,0,0,0,0,0,0,0,0,
0,29,29,29,39,39,39,39,29,29,29,29,5,6,5,0,0,0,0,0,0,0,0,0,5,5,5,6,5,5,5,6,5,5,6,5,5,9,9,9,9,9,9,9,9,9,9,9,9,0,0,0,0,0,0,0,0,0,0,5,5,5,0,0,0,0,0,0,0,0,0,0,
0,39,39,39,49,49,49,49,39,39,39,39,6,5,5,0,0,0,0,0,0,0,0,0,9,9,9,9,9,9,9,9,9,9,9,9,9,19,19,19,19,19,19,19,19,19,19,19,19,0,0,0,0,0,0,0,0,0,0,5,5,5,0,0,0,0,0,0,0,0,0,0,
0,49,49,49,59,59,59,59,49,49,49,49,5,5,5,22,0,0,0,0,0,0,0,0,19,19,19,19,19,19,19,19,19,19,19,19,19,29,29,29,29,29,29,29,29,29,29,29,29,0,0,0,0,0,0,0,0,0,0,5,6,6,0,0,0,0,0,0,0,0,0,0,
0,59,59,59,0,0,0,0,59,59,59,59,5,6,6,6,0,0,0,0,0,0,0,0,29,29,29,29,29,29,29,29,29,29,29,29,29,39,39,39,39,39,39,39,39,39,39,39,39,0,0,0,0,0,0,0,0,0,0,6,5,5,0,0,0,0,0,0,0,0,0,0,
0,0,0,0,0,0,0,0,0,0,0,0,5,5,5,5,0,0,0,0,0,0,0,0,39,39,39,39,39,39,39,39,39,39,39,39,39,49,49,49,49,49,49,49,49,49,49,49,49,0,0,0,0,0,0,0,0,0,0,5,5,5,0,0,0,0,0,0,0,0,0,0,
0,0,0,0,0,0,0,0,0,0,0,0,5,6,6,5,0,0,0,0,0,0,0,0,49,49,49,49,49,49,49,49,49,49,49,49,49,59,59,59,59,59,59,59,59,59,59,59,59,0,0,0,0,0,0,0,0,0,0,5,5,5,0,0,0,0,0,0,0,0,0,0,
0,0,0,0,0,0,0,0,0,0,0,0,5,5,5,5,5,5,7,5,5,5,5,7,5,5,5,5,5,5,6,5,5,6,5,5,7,0,0,0,0,0,0,0,0,0,0,0,0,0,0,0,0,0,0,0,0,0,0,7,5,7,0,0,0,0,0,0,0,0,0,0,
0,0,0,0,0,0,0,0,0,0,0,0,5,6,7,5,9,9,9,9,9,9,9,9,9,9,9,9,9,9,9,9,9,9,9,9,9,0,0,0,0,0,0,0,0,0,0,0,0,0,0,0,0,0,0,0,0,0,0,5,7,5,0,0,0,0,0,0,0,0,0,0,
0,0,0,0,0,0,0,0,0,0,0,0,5,5,6,7,19,19,19,19,19,19,19,19,19,19,19,19,19,19,19,19,19,19,19,19,19,0,0,0,0,0,0,0,0,0,0,0,0,0,0,0,0,0,0,0,0,0,0,7,5,5,0,0,0,0,0,0,0,0,0,0,
0,0,0,0,0,0,0,0,0,0,0,0,5,6,5,7,29,29,29,29,29,29,29,29,29,29,29,29,29,29,29,29,29,29,29,29,29,0,0,0,0,0,0,0,0,0,0,0,0,0,0,0,0,0,0,0,0,0,0,5,5,6,0,0,0,0,0,0,0,0,0,0,
0,0,0,0,0,0,0,0,0,0,0,0,5,6,5,5,5,39,39,39,39,39,39,39,39,39,39,39,39,39,39,39,39,39,39,39,39,0,0,0,0,0,0,0,0,0,0,0,0,0,0,0,0,0,0,0,0,0,0,5,5,6,0,0,0,0,0,0,0,0,0,0,
0,0,0,0,0,0,0,0,0,0,0,0,5,5,5,5,5,49,49,49,49,49,49,49,49,49,49,49,49,49,49,49,49,49,49,49,49,0,0,0,0,0,0,0,0,0,21,5,5,5,5,5,5,5,6,6,5,5,5,5,5,5,0,0,0,0,0,0,0,0,0,0,
0,0,0,0,0,0,0,0,0,0,0,0,5,5,5,5,5,59,59,59,59,59,59,59,59,59,59,59,59,59,59,59,59,59,59,59,59,0,0,0,0,0,0,0,0,0,5,5,5,5,5,5,5,5,6,5,5,5,5,5,5,6,0,0,0,0,0,0,0,0,0,0,
0,0,0,0,0,0,0,0,0,0,0,0,5,6,5,5,5,0,0,0,0,0,0,0,0,0,0,0,0,0,0,0,0,0,0,0,0,0,0,0,0,0,0,0,0,0,5,5,6,9,9,9,9,9,9,9,9,9,9,9,9,9,0,0,0,0,0,0,0,0,0,0,
0,0,0,0,0,0,0,0,0,0,0,0,5,6,5,7,6,0,0,0,0,0,0,0,0,0,0,0,0,0,0,0,0,0,0,0,0,0,0,0,0,0,0,0,0,0,5,7,5,19,19,19,19,19,19,19,19,19,19,19,19,19,0,0,0,0,0,0,0,0,0,0,
0,0,0,0,0,0,0,0,0,0,0,0,0,0,0,0,0,0,0,0,0,0,0,0,22,0,0,0,0,0,21,5,5,5,6,22,0,0,0,0,0,0,0,0,0,0,5,5,5,29,29,29,29,29,29,29,29,29,29,29,29,29,0,0,0,0,0,0,0,0,0,0,
0,0,0,0,0,0,0,0,0,0,0,0,0,0,0,0,0,0,0,0,0,0,0,0,0,0,0,0,0,0,5,5,5,5,5,5,0,0,0,0,0,0,0,0,0,0,5,6,7,39,39,39,39,39,39,39,39,39,39,39,39,39,0,0,0,0,0,0,0,0,0,0,
0,0,0,0,0,0,0,0,0,0,0,0,9,9,9,9,9,9,9,9,9,0,0,0,0,0,0,0,0,0,9,9,9,9,6,9,0,0,0,0,0,0,0,0,0,0,5,5,5,49,49,49,49,49,49,49,49,49,49,49,49,49,0,0,0,0,0,0,0,0,0,0,
0,0,0,0,0,0,0,0,0,0,0,0,19,19,19,19,19,19,19,19,19,0,0,0,0,0,0,0,0,0,19,19,19,19,5,19,0,0,0,0,0,0,0,0,0,0,6,5,5,59,59,59,59,59,59,59,59,59,59,59,59,59,0,0,0,0,0,0,0,0,0,0,
0,0,0,0,0,0,0,0,0,0,0,0,29,29,29,29,29,29,29,29,29,0,0,0,0,0,0,0,0,0,29,29,29,29,5,29,0,0,0,0,0,0,0,0,0,0,5,6,5,0,0,0,0,0,0,0,0,0,0,0,0,0,0,0,0,0,0,0,0,0,0,0,
0,0,0,0,0,0,0,0,0,0,0,0,39,39,39,39,39,39,39,39,39,0,0,0,0,0,0,0,0,0,39,39,39,39,6,39,0,0,0,0,0,0,0,0,0,0,5,5,5,0,0,0,0,0,0,0,0,21,5,6,5,6,5,5,5,5,5,22,0,0,0,0,
0,0,0,0,0,0,0,0,0,0,0,0,39,39,39,39,39,49,49,49,49,0,0,0,0,0,0,0,0,0,49,49,49,49,5,49,0,0,0,0,0,0,0,0,0,0,5,5,6,0,0,0,0,0,0,0,0,5,5,6,5,5,6,6,5,5,5,5,0,0,0,0,
0,0,0,0,0,0,0,0,0,0,0,0,39,39,39,39,39,59,59,59,59,0,0,0,0,0,0,0,0,0,59,59,59,59,5,59,0,0,0,0,0,0,0,0,0,0,6,5,5,0,0,0,0,0,0,0,0,5,5,5,5,5,5,5,6,5,7,6,0,0,0,0,
0,0,0,0,0,0,0,0,0,0,0,0,39,39,39,39,39,0,0,0,0,0,0,0,0,0,0,0,0,0,0,0,0,21,5,22,0,0,0,0,0,0,0,0,0,0,5,5,6,0,0,0,0,0,0,0,0,6,7,5,5,7,6,6,5,5,7,5,0,0,0,0,
0,0,0,0,0,0,0,0,0,0,0,0,49,49,49,49,49,0,0,0,0,0,0,0,0,0,0,0,0,0,0,0,0,5,6,5,0,0,0,0,0,0,0,0,0,0,7,5,5,0,0,0,0,0,0,0,0,5,5,5,6,5,6,5,5,5,5,5,0,0,0,0,
0,0,0,0,0,0,0,0,0,0,0,0,49,49,49,49,49,0,0,0,0,0,0,0,0,0,0,0,0,0,0,0,0,5,5,5,0,0,0,0,0,0,0,0,0,0,5,5,6,0,0,0,0,0,0,0,0,6,5,6,5,5,5,6,5,5,5,5,0,0,0,0,
0,0,0,0,0,0,0,0,0,0,0,0,49,49,49,49,49,0,0,0,0,0,0,0,0,0,0,0,0,0,0,0,0,5,5,5,0,0,0,0,0,0,0,0,0,0,5,5,5,0,0,0,0,0,0,0,0,6,6,6,5,5,7,5,5,5,5,5,0,0,0,0,
0,0,0,0,0,0,0,0,0,0,0,0,49,49,49,49,49,0,0,0,0,0,0,0,0,0,0,0,0,0,0,0,0,5,5,5,0,0,0,0,0,0,0,0,0,0,6,5,5,0,0,0,0,0,0,0,0,5,5,5,5,5,5,5,5,6,7,5,0,0,0,0,
15,15,15,15,15,15,15,15,15,15,15,7,5,7,5,5,5,0,0,0,0,0,0,0,0,0,0,0,0,0,0,0,0,5,5,5,7,6,5,7,5,5,5,5,5,7,5,6,5,5,6,5,5,5,5,6,6,5,5,5,5,5,5,6,5,5,5,5,5,5,5,5,
15,15,15,15,15,15,15,15,15,15,15,15,15,5,5,5,5,0,0,0,0,0,0,0,0,0,0,0,0,0,0,0,0,5,7,5,5,7,5,5,6,5,5,5,5,6,6,6,5,6,5,7,5,6,5,5,5,5,5,7,5,5,5,5,5,5,5,5,6,5,5,5,
37,37,37,38,37,37,37,37,37,37,37,38,37,37,9,9,9,0,0,0,0,0,0,0,0,0,0,0,0,0,0,0,0,9,9,9,9,9,9,9,9,9,9,9,9,9,9,9,9,9,9,9,9,9,9,9,9,9,9,9,9,9,9,9,9,9,9,9,9,9,9,9,
19,19,19,19,19,19,19,19,19,19,19,19,19,19,19,19,19,0,0,0,0,0,0,0,0,0,0,0,0,0,0,0,0,19,19,19,19,19,19,19,19,19,19,19,19,19,19,19,19,19,19,19,19,19,19,19,19,19,19,19,19,19,19,19,19,19,19,19,19,19,19,19,
29,29,29,29,29,29,29,29,29,29,29,29,29,29,29,29,29,0,0,0,0,0,0,0,0,0,0,0,0,0,0,0,0,29,29,29,29,29,29,29,29,29,29,29,29,29,29,29,29,29,29,29,29,29,29,29,29,29,29,29,29,29,29,29,29,29,29,29,29,29,29,29,
39,39,39,39,39,39,39,39,39,39,39,39,39,39,39,39,39,0,0,0,0,0,0,0,0,0,0,0,0,0,0,0,0,39,39,39,39,39,39,39,39,39,39,39,39,39,39,39,39,39,39,39,39,39,39,39,39,39,39,39,39,39,39,39,39,39,39,39,39,39,39,39,
49,49,49,49,49,49,49,49,49,49,49,49,49,49,49,49,49,0,0,0,0,0,0,0,0,0,0,0,0,0,0,0,0,49,49,49,49,49,49,49,49,49,49,49,49,49,49,49,49,49,49,49,49,49,49,49,49,49,49,49,49,49,49,49,49,49,49,49,49,49,49,49,
59,59,59,59,59,59,59,59,59,59,59,59,59,59,59,59,59,0,0,0,0,0,0,0,0,0,0,0,0,0,0,0,0,59,59,59,59,59,59,59,59,59,59,59,59,59,59,59,59,59,59,59,59,59,59,59,59,59,59,59,59,59,59,59,59,59,59,59,59,59,59,59,
0,0,0,0,0,0,0,0,0,0,0,0,0,0,0,0,0,0,0,0,0,0,0,0,0,0,0,0,0,0,0,0,0,0,0,0,0,0,0,0,0,0,0,0,0,0,0,0,0,0,0,0,0,0,0,0,0,0,0,0,0,0,0,0,0,0,0,0,0,0,0,0
</data>
 </layer>
 <layer id="12" name="edge cases" width="72" height="72">
  <data encoding="csv">
0,0,0,0,0,0,0,0,0,0,0,0,0,0,0,0,0,0,0,0,0,0,0,0,0,0,0,0,0,0,0,0,0,0,0,0,0,0,0,0,0,0,0,0,0,0,0,0,0,0,0,0,0,0,0,0,0,0,0,0,0,0,0,0,0,0,0,0,0,0,0,0,
0,0,0,0,0,0,0,0,0,0,0,0,0,0,0,0,0,0,0,0,0,0,0,0,0,0,0,0,0,0,0,0,0,0,0,0,0,0,0,0,0,0,0,0,0,0,0,0,0,0,0,0,0,0,0,0,0,0,0,0,0,0,0,0,0,0,0,0,0,0,0,0,
0,0,0,0,0,0,0,0,0,0,0,0,0,0,0,0,0,0,0,0,0,0,0,0,0,0,0,0,0,0,0,0,0,0,0,0,0,0,0,0,0,0,0,0,0,0,0,0,0,0,0,0,0,0,0,0,0,0,0,0,0,0,0,0,0,0,0,0,0,0,0,0,
0,0,0,0,0,0,0,0,0,0,0,0,0,0,0,0,0,0,0,0,0,0,0,0,0,0,0,0,0,0,0,0,0,0,0,0,0,0,0,0,0,0,0,0,0,0,0,0,0,0,0,0,0,0,0,0,0,0,0,0,0,0,0,0,0,0,0,0,0,0,0,0,
0,0,0,0,0,0,0,0,0,0,0,0,0,0,0,0,0,0,0,0,0,0,0,0,0,0,0,0,0,0,0,0,0,0,0,0,0,0,0,0,0,0,0,0,0,0,0,0,0,0,0,0,0,0,0,0,0,0,0,0,0,0,0,0,0,0,0,0,0,0,0,0,
0,0,0,0,0,0,0,0,0,0,0,0,0,0,0,0,0,0,0,0,0,0,0,0,0,0,0,0,0,0,0,0,0,0,0,0,0,0,0,0,0,0,0,0,0,0,0,0,0,0,0,0,0,0,0,0,0,0,0,0,0,0,0,0,0,0,0,0,0,0,0,0,
0,0,0,0,0,0,0,0,0,0,0,0,0,0,0,0,0,0,0,0,0,0,0,0,0,0,0,0,0,0,0,0,0,0,0,0,0,0,0,0,0,0,0,0,0,0,0,0,0,0,0,0,0,0,0,0,0,0,0,0,0,0,0,0,0,0,0,0,0,0,0,0,
0,0,0,0,0,0,0,0,0,0,0,0,0,0,0,0,0,0,0,0,0,0,0,0,0,0,0,0,0,0,0,0,0,0,0,0,0,0,0,0,0,0,0,0,0,0,0,0,0,0,0,0,0,0,0,0,0,0,0,0,0,0,0,0,0,0,0,0,0,0,0,0,
0,0,0,0,0,0,0,0,0,0,0,0,0,0,0,0,0,0,0,0,0,0,0,0,0,0,0,0,0,0,0,0,0,0,0,0,0,0,0,0,0,0,0,0,0,0,0,0,0,0,0,0,0,0,0,0,0,0,0,0,0,0,0,0,0,0,0,0,0,0,0,0,
0,0,0,0,0,0,0,0,0,0,0,0,0,0,0,0,0,0,0,0,0,0,0,0,0,0,0,0,0,0,0,0,0,0,0,0,0,0,0,0,0,0,0,0,0,0,0,0,0,0,0,0,0,0,0,0,0,0,0,0,0,0,0,0,0,0,0,0,0,0,0,0,
0,0,0,0,0,0,0,0,0,0,0,0,0,0,0,0,0,0,0,0,0,0,0,0,0,0,0,0,0,0,0,0,0,0,0,0,0,0,0,0,0,0,0,0,0,0,0,0,0,0,0,0,0,0,0,0,0,0,0,0,0,0,0,0,0,0,0,0,0,0,0,0,
0,0,0,0,0,0,0,0,0,0,0,0,0,0,0,0,0,0,0,0,0,0,0,0,0,0,0,0,0,0,0,0,0,0,0,0,0,0,0,0,0,0,0,0,0,0,0,0,0,0,0,0,0,0,0,0,0,0,0,0,0,0,0,0,0,0,0,0,0,0,0,0,
0,0,0,0,0,0,0,0,0,0,0,0,0,0,0,0,0,0,0,0,0,0,0,0,0,0,0,0,0,0,0,0,0,0,0,0,0,0,0,0,0,0,0,0,0,0,0,0,0,0,0,0,0,0,0,0,0,0,0,0,0,0,0,0,0,0,0,0,0,0,0,0,
0,0,0,0,0,0,0,0,0,0,0,0,0,0,0,0,0,0,0,0,0,0,0,0,0,0,0,0,0,0,0,0,0,0,0,0,0,0,0,0,0,0,0,0,0,0,0,0,0,0,0,0,0,0,0,0,0,0,0,0,0,0,0,0,0,0,0,0,0,0,0,0,
0,0,0,0,0,0,0,0,0,0,0,0,0,0,0,0,0,0,0,0,0,0,0,0,0,0,0,0,0,0,0,0,0,0,0,0,0,0,0,0,0,0,0,0,0,0,0,0,0,0,0,0,0,0,0,0,0,0,0,0,0,0,0,0,0,0,0,0,0,0,0,0,
0,0,0,0,0,0,0,0,0,0,0,0,0,0,0,0,0,0,0,0,0,0,0,0,0,0,0,0,0,0,0,0,0,0,0,0,0,0,0,0,0,0,0,0,0,0,0,0,0,0,0,0,0,0,0,0,0,0,0,0,0,0,0,0,0,0,0,0,0,0,0,0,
0,0,0,0,0,0,0,0,0,0,0,0,0,0,0,0,0,0,0,0,0,0,0,0,0,0,0,0,0,0,0,0,0,0,0,0,0,0,0,0,0,0,0,0,0,0,0,0,0,0,0,0,0,0,0,0,0,0,0,0,0,0,0,0,0,0,0,0,0,0,0,0,
0,0,0,0,0,0,0,0,0,0,0,0,0,0,0,0,0,0,0,0,0,0,0,0,0,0,0,0,0,0,0,0,0,0,0,0,0,0,0,0,0,0,0,0,0,0,0,0,0,0,0,0,0,0,0,0,0,0,0,0,0,0,0,0,0,0,0,0,0,0,0,0,
0,0,0,0,0,0,0,0,0,0,0,0,0,0,0,0,0,0,0,0,0,0,0,0,0,0,0,0,0,0,0,0,0,0,0,0,0,0,0,0,0,0,0,0,0,0,0,0,0,0,0,0,0,0,0,0,0,0,0,0,0,0,0,0,0,0,0,0,0,0,0,0,
0,0,0,0,0,0,0,0,0,0,0,0,0,0,0,0,0,0,0,0,0,0,0,0,0,0,0,0,0,0,0,0,0,0,0,0,0,0,0,0,0,0,0,0,0,0,0,0,0,0,0,0,0,0,0,0,0,0,0,0,0,0,0,0,0,0,0,0,0,0,0,0,
0,0,0,0,0,0,0,0,0,0,0,0,0,0,0,0,0,0,0,0,0,0,0,0,0,0,0,0,0,0,0,0,0,0,0,0,0,0,0,0,0,0,0,0,0,0,0,0,0,0,0,0,0,0,0,0,0,0,0,0,0,0,0,0,0,0,0,0,0,0,0,0,
0,0,0,0,0,0,0,0,0,0,0,0,0,0,0,0,0,0,0,0,0,0,0,0,0,0,0,0,0,0,0,0,0,0,0,0,0,0,0,0,0,0,0,0,0,0,0,0,0,0,0,0,0,0,0,0,0,0,0,0,0,0,0,0,0,0,0,0,0,0,0,0,
0,0,0,0,0,0,0,0,0,0,0,0,0,0,0,0,0,0,0,0,0,0,0,0,0,0,0,0,0,0,0,0,0,0,0,0,0,0,0,0,0,0,0,0,0,0,0,0,0,0,0,0,0,0,0,0,0,0,0,0,0,0,0,0,0,0,0,0,0,0,0,0,
0,0,0,0,0,0,0,0,0,0,0,0,0,0,0,0,0,0,0,0,0,0,0,0,0,0,0,0,0,0,0,0,0,0,0,0,0,0,0,0,0,0,0,0,0,0,0,0,0,0,0,0,0,0,0,0,0,0,0,0,0,0,0,0,0,0,0,0,0,0,0,0,
0,0,0,0,0,0,0,0,0,0,0,0,0,0,0,0,0,0,0,0,0,0,0,0,0,0,0,0,0,0,0,0,0,0,0,0,0,0,0,0,0,0,0,0,0,0,0,0,0,0,0,0,0,0,0,0,0,0,0,0,0,0,0,0,0,0,0,0,0,0,0,0,
0,0,0,0,0,0,0,0,0,0,0,0,0,0,0,0,0,0,0,0,0,0,0,0,0,0,0,0,0,0,0,0,0,0,0,0,0,0,0,0,0,0,0,0,0,0,0,0,0,0,0,0,0,0,0,0,0,0,0,0,0,0,0,0,0,0,0,0,0,0,0,0,
0,0,0,0,0,0,0,0,0,0,0,0,0,0,0,0,0,0,0,0,0,0,0,0,0,0,0,0,0,0,0,0,0,0,0,0,0,0,0,0,0,0,0,0,0,0,0,0,0,0,0,0,0,0,0,0,0,0,0,0,0,0,0,0,0,0,0,0,0,0,0,0,
0,0,0,0,0,0,0,0,0,0,0,0,0,0,0,0,0,0,0,0,0,0,0,0,0,0,0,0,0,0,0,0,0,0,0,0,0,0,0,0,0,0,0,0,0,0,0,0,0,0,0,0,0,0,0,0,0,0,0,0,0,0,0,0,0,0,0,0,0,0,0,0,
0,0,0,0,0,0,0,0,0,0,0,0,0,0,0,0,0,0,0,0,0,0,0,0,0,0,0,0,0,0,0,0,0,0,0,0,0,0,0,0,0,0,0,0,0,0,0,0,0,0,0,0,0,0,0,0,0,0,0,0,0,0,0,0,0,0,0,0,0,0,0,0,
0,0,0,0,0,0,0,0,0,0,0,0,0,0,0,0,0,0,0,0,0,0,0,0,0,0,0,0,0,0,0,0,0,0,0,0,0,0,0,0,0,0,0,0,0,0,0,0,0,0,0,0,0,0,0,0,0,0,0,0,0,0,0,0,0,0,0,0,0,0,0,0,
0,0,0,0,0,0,0,0,0,0,0,0,0,0,0,0,0,0,0,0,0,0,0,0,0,0,0,0,0,0,0,0,0,0,0,0,0,0,0,0,0,0,0,0,0,0,0,0,0,0,0,0,0,0,0,0,0,0,0,0,0,0,0,0,0,0,0,0,0,0,0,0,
0,0,0,0,0,0,0,0,0,0,0,0,0,0,0,0,0,0,0,0,0,0,0,0,0,0,0,0,0,0,0,0,0,0,0,0,0,0,0,0,0,0,0,0,0,0,0,0,0,0,0,0,0,0,0,0,0,0,0,0,0,0,0,0,0,0,0,0,0,0,0,0,
0,0,0,0,0,0,0,0,0,0,0,0,0,0,0,0,0,0,0,0,0,0,0,0,0,0,0,0,0,0,0,0,0,0,0,0,0,0,0,0,0,0,0,0,0,0,0,0,0,0,0,0,0,0,0,0,0,0,0,0,0,0,0,0,0,0,0,0,0,0,0,0,
0,0,0,0,0,0,0,0,0,0,0,0,0,0,0,0,0,0,0,0,0,0,0,0,0,0,0,0,0,0,0,0,0,0,0,0,0,0,0,0,0,0,0,0,0,0,0,0,0,0,0,0,0,0,0,0,0,0,0,0,0,0,0,0,0,0,0,0,0,0,0,0,
0,0,0,0,0,0,0,0,0,0,0,0,0,0,0,0,0,0,0,0,0,0,0,0,0,0,0,0,0,0,0,0,0,0,0,0,0,0,0,0,0,0,0,0,0,0,0,0,0,0,0,0,0,0,0,0,0,0,0,0,0,0,0,0,0,0,0,0,0,0,0,0,
0,0,0,0,0,0,0,0,0,0,0,0,0,0,0,0,0,0,0,0,0,0,0,0,0,0,0,0,0,0,0,0,0,0,0,0,0,0,0,0,0,0,0,0,0,0,0,0,0,0,0,0,0,0,0,0,0,0,0,0,0,0,0,0,0,0,0,0,0,0,0,0,
0,0,0,0,0,0,0,0,0,0,0,0,0,0,0,0,0,0,0,0,0,0,0,0,0,0,0,0,0,0,0,0,0,0,0,0,0,0,0,0,0,0,0,0,0,0,0,0,0,0,0,0,0,0,0,0,0,0,0,0,0,0,0,0,0,0,0,0,0,0,0,0,
0,0,0,0,0,0,0,0,0,0,0,0,0,0,0,0,0,0,0,0,0,0,0,0,0,0,0,0,0,0,0,0,0,0,0,0,0,0,0,0,0,0,0,0,0,0,0,0,0,0,0,0,0,0,0,0,0,0,0,0,0,0,0,0,0,0,0,0,0,0,0,0,
0,0,0,0,0,0,0,0,0,0,0,0,0,0,0,0,0,0,0,0,0,0,0,0,0,0,0,0,0,0,0,0,0,0,0,0,0,0,0,0,0,0,0,0,0,0,0,0,0,0,0,0,0,0,0,0,0,0,0,0,0,0,0,0,0,0,0,0,0,0,0,0,
0,0,0,0,0,0,0,0,0,0,0,0,0,0,0,0,0,0,0,0,0,0,0,0,0,0,0,0,0,0,0,0,0,0,0,0,0,0,0,0,0,0,0,0,0,0,0,0,0,0,0,0,0,0,0,0,0,0,0,0,0,0,0,0,0,0,0,0,0,0,0,0,
0,0,0,0,0,0,0,0,0,0,0,0,0,0,0,0,0,0,0,0,0,0,0,0,0,0,0,0,0,0,0,0,0,0,0,0,0,0,0,0,0,0,0,0,0,0,0,0,0,0,0,0,0,0,0,0,0,0,0,0,0,0,0,0,0,0,0,0,0,0,0,0,
0,0,0,0,0,0,0,0,0,0,0,0,0,0,0,0,0,0,0,0,0,0,0,0,0,0,0,0,0,0,0,0,0,0,0,0,0,0,0,0,0,0,0,0,0,0,0,0,0,0,0,0,0,0,0,0,0,0,0,0,0,0,0,0,0,0,0,0,0,0,0,0,
0,0,0,0,0,0,0,0,0,0,0,0,0,0,0,0,0,0,0,0,0,0,0,0,0,0,0,0,0,0,0,0,0,0,0,0,0,0,0,0,0,0,0,0,0,0,0,0,0,0,0,0,0,0,0,0,0,0,0,0,0,0,0,0,0,0,0,0,0,0,0,0,
0,0,0,0,0,0,0,0,0,0,0,0,0,0,0,0,0,0,0,0,0,0,0,0,0,0,0,0,0,0,0,0,0,0,0,0,0,0,0,0,0,0,0,0,0,0,0,0,0,0,0,0,0,0,0,0,0,0,0,0,0,0,0,0,0,0,0,0,0,0,0,0,
0,0,0,0,0,0,0,0,0,0,0,0,0,0,0,0,22,0,0,0,0,0,0,0,0,0,0,0,0,0,0,0,0,0,0,0,0,0,0,0,0,0,0,0,0,0,0,0,0,0,0,0,0,0,0,0,0,0,0,0,0,0,0,0,0,0,0,0,0,0,0,0,
0,0,0,0,0,0,0,0,0,0,0,0,0,0,0,0,0,0,0,0,0,0,0,0,0,0,0,0,0,0,0,0,0,0,0,0,0,0,0,0,0,0,0,0,0,0,0,0,0,0,0,0,0,0,0,0,0,0,0,0,0,0,0,0,0,0,0,0,0,0,0,0,
0,0,0,0,0,0,0,0,0,0,0,0,0,0,0,0,0,0,0,0,0,0,0,0,0,0,0,0,0,0,0,0,0,0,0,0,0,0,0,0,0,0,0,0,0,0,0,0,0,0,0,0,0,0,0,0,0,0,0,0,0,0,0,0,0,0,0,0,0,0,0,0,
0,0,0,0,0,0,0,0,0,0,0,0,0,0,0,0,0,0,0,0,0,0,0,0,0,0,0,0,0,0,0,0,0,0,0,0,0,0,0,0,0,0,0,0,0,0,0,0,0,0,0,0,0,0,0,0,0,0,0,0,0,0,0,0,0,0,0,0,0,0,0,0,
0,0,0,0,0,0,0,0,0,0,0,0,0,0,0,0,0,0,0,0,0,0,0,0,0,0,0,0,0,0,0,0,0,0,0,0,0,0,0,0,0,0,0,0,0,0,0,0,0,0,0,0,0,0,0,0,0,0,0,0,0,0,0,0,0,0,0,0,0,0,0,0,
0,0,0,0,0,0,0,0,0,0,0,0,0,0,0,0,0,0,0,0,0,0,0,0,0,0,0,0,0,0,0,0,0,0,0,0,0,0,0,0,0,0,0,0,0,0,0,0,0,0,0,0,0,0,0,0,0,0,0,0,0,0,0,0,0,0,0,0,0,0,0,0,
0,0,0,0,0,0,0,0,0,0,0,0,0,0,0,0,0,0,0,0,0,0,0,0,0,0,0,0,0,0,0,0,0,0,0,0,0,0,0,0,0,0,0,0,0,0,0,0,0,0,0,0,0,0,0,0,0,0,0,0,0,0,0,0,0,0,0,0,0,0,0,0,
0,0,0,0,0,0,0,0,0,0,0,0,0,0,0,0,0,0,0,0,0,0,0,0,0,0,0,0,0,0,0,0,0,0,0,0,0,0,0,0,0,0,0,0,0,0,0,0,0,0,0,0,0,0,0,0,0,0,0,0,0,0,0,0,0,0,0,0,0,0,0,0,
0,0,0,0,0,0,0,0,0,0,0,0,0,0,0,0,0,0,0,0,0,0,0,0,0,0,0,0,0,0,0,0,0,0,0,0,0,0,0,0,0,0,0,0,0,0,0,0,0,0,0,0,0,0,0,0,0,0,0,0,0,0,0,0,0,0,0,0,0,0,0,0,
0,0,0,0,0,0,0,0,0,0,0,0,0,0,0,0,0,0,0,0,0,0,0,0,0,0,0,0,0,0,0,0,0,0,0,0,0,0,0,0,0,0,0,0,0,0,0,0,0,0,0,0,0,0,0,0,0,0,0,0,0,0,0,0,0,0,0,0,0,0,0,0,
0,0,0,0,0,0,0,0,0,0,0,0,0,0,0,0,0,0,0,0,0,0,0,0,0,0,0,0,0,0,0,0,0,0,0,0,0,0,0,0,0,0,0,0,0,0,0,0,0,0,0,0,0,0,0,0,0,0,0,0,0,0,0,0,0,0,0,0,0,0,0,0,
0,0,0,0,0,0,0,0,0,0,0,0,0,0,0,0,0,0,0,0,0,0,0,0,0,0,0,0,0,0,0,0,0,0,0,0,0,0,0,0,0,0,0,0,0,0,0,0,0,0,0,0,0,0,0,0,0,0,0,0,0,0,0,0,0,0,0,0,0,0,0,0,
0,0,0,0,0,0,0,0,0,0,0,0,0,0,0,0,0,0,0,0,0,0,0,0,0,0,0,0,0,0,0,0,0,0,0,0,0,0,0,0,0,0,0,0,0,0,0,0,0,0,0,0,0,0,0,0,0,0,0,0,0,0,0,0,0,0,0,0,0,0,0,0,
0,0,0,0,0,0,0,0,0,0,0,0,0,0,0,0,0,0,0,0,0,0,0,0,0,0,0,0,0,0,0,0,0,0,0,0,0,0,0,0,0,0,0,0,0,0,0,0,0,0,0,0,0,0,0,0,0,0,0,0,0,0,0,0,0,0,0,0,0,0,0,0,
0,0,0,0,0,0,0,0,0,0,0,0,0,0,0,0,0,0,0,0,0,0,0,0,0,0,0,0,0,0,0,0,0,0,0,0,0,0,0,0,0,0,0,0,0,0,0,0,0,0,0,0,0,0,0,0,0,0,0,0,0,0,0,0,0,0,0,0,0,0,0,0,
0,0,0,0,0,0,0,0,0,0,0,0,0,0,0,0,0,0,0,0,0,0,0,0,0,0,0,0,0,0,0,0,0,0,0,0,0,0,0,0,0,0,0,0,0,0,0,0,0,0,0,0,0,0,0,0,0,0,0,0,0,0,0,0,0,0,0,0,0,0,0,0,
0,0,0,0,0,0,0,0,0,0,0,0,0,0,0,0,0,0,0,0,0,0,0,0,0,0,0,0,0,0,0,0,0,0,0,0,0,0,0,0,0,0,0,0,0,0,0,0,0,0,0,0,0,0,0,0,0,0,0,0,0,0,0,0,0,0,0,0,0,0,0,0,
0,0,0,0,0,0,0,0,0,0,0,0,0,0,0,0,0,0,0,0,0,0,0,0,0,0,0,0,0,0,0,0,0,0,0,0,0,0,0,0,0,0,0,0,0,0,0,0,0,0,0,0,0,0,0,0,0,0,0,0,0,0,0,0,0,0,0,0,0,0,0,0,
0,0,0,0,0,0,0,0,0,0,0,0,0,0,0,0,0,0,0,0,0,0,0,0,0,0,0,0,0,0,0,0,0,0,0,0,0,0,0,0,0,0,0,0,0,0,0,0,0,0,0,0,0,0,0,0,0,0,0,0,0,0,0,0,0,0,0,0,0,0,0,0,
0,0,0,0,0,0,0,0,0,0,0,0,0,0,0,0,0,0,0,0,0,0,0,0,0,0,0,0,0,0,0,0,0,0,0,0,0,0,0,0,0,0,0,0,0,0,0,0,0,0,0,0,0,0,0,0,0,0,0,0,0,0,0,0,0,0,0,0,0,0,0,0,
0,0,0,0,0,0,0,0,0,0,0,0,0,0,0,0,0,0,0,0,0,0,0,0,0,0,0,0,0,0,0,0,0,0,0,0,0,0,0,0,0,0,0,0,0,0,0,0,0,0,0,0,0,0,0,0,0,0,0,0,0,0,0,0,0,0,0,0,0,0,0,0,
0,0,0,0,0,0,0,0,0,0,0,0,0,0,0,0,0,0,0,0,0,0,0,0,0,0,0,0,0,0,0,0,0,0,0,0,0,0,0,0,0,0,0,0,0,0,0,0,0,0,0,0,0,0,0,0,0,0,0,0,0,0,0,0,0,0,0,0,0,0,0,0,
0,0,0,0,0,0,0,0,0,0,0,0,0,0,0,0,0,0,0,0,0,0,0,0,0,0,0,0,0,0,0,0,0,0,0,0,0,0,0,0,0,0,0,0,0,0,0,0,0,0,0,0,0,0,0,0,0,0,0,0,0,0,0,0,0,0,0,0,0,0,0,0,
0,0,0,0,0,0,0,0,0,0,0,0,0,0,0,0,0,0,0,0,0,0,0,0,0,0,0,0,0,0,0,0,0,0,0,0,0,0,0,0,0,0,0,0,0,0,0,0,0,0,0,0,0,0,0,0,0,0,0,0,0,0,0,0,0,0,0,0,0,0,0,0,
0,0,0,0,0,0,0,0,0,0,0,0,0,0,0,0,0,0,0,0,0,0,0,0,0,0,0,0,0,0,0,0,0,0,0,0,0,0,0,0,0,0,0,0,0,0,0,0,0,0,0,0,0,0,0,0,0,0,0,0,0,0,0,0,0,0,0,0,0,0,0,0,
0,0,0,0,0,0,0,0,0,0,0,0,0,0,0,0,0,0,0,0,0,0,0,0,0,0,0,0,0,0,0,0,0,0,0,0,0,0,0,0,0,0,0,0,0,0,0,0,0,0,0,0,0,0,0,0,0,0,0,0,0,0,0,0,0,0,0,0,0,0,0,0,
0,0,0,0,0,0,0,0,0,0,0,0,0,0,0,0,0,0,0,0,0,0,0,0,0,0,0,0,0,0,0,0,0,0,0,0,0,0,0,0,0,0,0,0,0,0,0,0,0,0,0,0,0,0,0,0,0,0,0,0,0,0,0,0,0,0,0,0,0,0,0,0,
0,0,0,0,0,0,0,0,0,0,0,0,0,0,0,0,0,0,0,0,0,0,0,0,0,0,0,0,0,0,0,0,0,0,0,0,0,0,0,0,0,0,0,0,0,0,0,0,0,0,0,0,0,0,0,0,0,0,0,0,0,0,0,0,0,0,0,0,0,0,0,0
</data>
 </layer>
 <layer id="2" name="ladders" width="72" height="72">
  <data encoding="csv">
0,0,0,0,0,0,0,0,0,0,0,0,0,0,0,0,0,0,0,0,0,0,0,0,0,0,0,0,130,0,0,0,0,0,0,0,130,0,0,0,0,0,0,0,130,0,0,0,0,0,0,0,0,0,0,0,0,0,0,0,0,0,0,0,0,0,0,0,0,0,0,0,
0,0,0,0,0,0,0,0,0,0,0,0,0,0,0,0,0,0,0,0,0,0,0,0,0,0,0,0,130,0,0,0,0,0,0,0,130,0,0,0,0,0,0,0,130,0,0,0,0,0,0,0,0,0,0,0,0,0,0,0,0,0,0,0,0,0,0,0,0,0,0,0,
0,0,0,0,0,0,0,0,0,0,0,0,0,0,0,0,0,0,0,0,0,0,0,0,0,0,0,0,130,0,0,0,0,0,0,0,130,0,0,0,0,0,0,0,130,0,0,0,0,0,0,0,0,0,0,0,0,0,0,0,0,0,0,0,0,0,0,0,0,0,0,0,
0,0,0,0,0,0,0,0,0,0,0,0,0,0,0,0,0,0,0,0,0,0,0,0,0,0,0,0,130,0,0,0,0,0,0,0,130,0,0,0,0,0,0,0,130,0,0,0,0,0,0,0,0,0,0,0,0,0,0,0,0,0,0,0,0,0,0,0,0,0,0,0,
0,0,0,0,0,0,0,0,0,0,0,0,0,0,0,0,0,0,0,0,0,0,0,0,0,0,0,0,130,0,0,0,0,0,0,0,130,0,0,0,0,0,0,0,130,0,0,0,0,0,0,0,0,0,0,0,0,0,0,0,0,0,0,0,0,0,0,0,0,0,0,0,
0,0,0,0,0,0,0,0,0,0,0,0,0,0,0,0,0,0,0,0,0,0,0,0,0,0,0,0,130,0,0,0,0,0,0,0,130,0,0,0,0,0,0,0,130,0,0,0,0,0,0,0,0,0,0,0,0,0,0,0,0,0,0,0,0,0,0,0,0,0,0,0,
0,0,0,0,0,0,0,0,0,0,0,0,0,0,0,0,0,0,0,0,0,0,0,0,0,0,0,0,130,0,0,0,0,0,0,0,130,0,0,0,0,0,0,0,130,0,0,0,0,0,0,0,0,0,0,0,0,0,0,0,0,0,0,0,0,0,0,0,0,0,0,0,
0,0,0,0,0,0,0,0,0,0,0,0,0,0,0,0,0,0,0,0,0,0,0,0,0,0,0,0,130,0,0,0,0,0,0,0,130,0,0,0,0,0,0,0,130,0,0,0,0,0,0,0,0,0,0,0,0,0,0,0,0,0,0,0,0,0,0,0,0,0,0,0,
0,0,0,0,0,0,0,0,0,0,0,0,0,0,0,0,0,0,0,0,0,0,0,0,0,0,0,0,130,0,0,0,0,0,0,0,130,0,0,0,0,0,0,0,130,0,0,0,0,0,0,0,0,0,0,0,0,0,0,0,0,0,0,0,0,0,0,0,0,0,0,0,
0,0,0,0,0,0,0,0,0,0,0,0,0,0,0,0,0,0,0,0,0,0,0,0,0,0,0,0,0,0,0,0,0,0,0,0,0,0,0,0,0,0,0,0,0,0,0,0,0,0,0,0,0,0,0,0,0,0,0,0,0,0,0,0,0,0,0,0,0,0,0,0,
0,0,0,0,0,0,0,0,0,0,0,0,0,0,0,0,0,0,0,0,0,0,0,0,0,0,0,0,0,0,0,0,0,0,0,0,0,0,0,0,0,0,0,0,0,0,0,0,0,0,0,0,0,0,0,0,0,0,0,0,0,0,0,0,0,0,0,0,0,0,0,0,
0,0,0,0,0,0,0,0,0,0,0,0,0,0,0,0,0,0,0,0,0,0,0,0,0,0,0,0,0,0,0,0,0,0,0,0,0,0,0,0,0,0,0,0,0,0,0,0,0,0,0,0,0,0,0,0,0,0,0,0,0,0,0,0,0,0,0,0,0,0,0,0,
0,0,0,0,0,0,0,0,0,0,0,0,0,0,0,0,0,0,0,0,0,0,0,0,0,0,0,0,0,0,0,0,0,0,0,0,0,0,0,0,0,0,0,0,0,0,0,0,0,0,0,0,0,0,0,0,0,0,0,0,0,0,0,0,0,0,0,0,0,0,0,0,
0,0,0,0,0,0,0,0,0,0,0,0,0,0,0,0,0,0,0,0,0,0,0,0,0,0,0,0,0,0,0,0,0,0,0,0,0,0,0,0,0,0,0,0,0,0,0,0,0,0,0,0,0,0,0,0,0,0,0,0,0,0,0,0,0,0,0,0,0,0,0,0,
0,0,0,0,0,0,0,0,0,0,0,0,0,0,0,0,0,0,0,0,0,0,0,0,0,0,0,0,0,0,0,0,0,0,0,0,0,0,0,0,0,0,0,0,0,0,0,0,0,0,0,0,0,0,0,0,0,0,0,0,0,0,0,0,0,0,0,0,0,0,0,0,
0,0,0,0,0,0,0,0,0,0,0,0,0,0,0,0,0,0,0,0,0,0,0,0,0,0,0,0,0,0,0,0,0,0,0,0,0,0,0,0,0,0,0,0,0,0,0,0,0,0,0,0,0,0,0,0,0,0,0,0,0,0,0,0,0,0,0,0,0,0,0,0,
0,0,0,0,0,0,0,0,0,0,0,0,0,0,0,0,0,0,0,0,0,0,0,0,0,0,0,0,0,0,0,0,0,0,0,0,0,0,0,0,0,0,0,0,0,0,0,0,0,0,0,0,0,0,0,0,0,0,0,0,0,0,0,0,0,0,0,0,0,0,0,0,
0,0,0,0,0,0,0,0,0,0,0,0,0,0,0,0,0,0,0,0,0,0,0,0,0,0,0,0,0,0,0,0,0,0,0,0,0,0,0,0,0,0,0,0,0,0,0,0,0,0,0,0,0,0,0,0,0,0,0,0,0,0,0,0,0,0,0,0,0,0,0,0,
0,0,0,0,0,0,0,0,0,0,0,0,0,0,0,0,0,0,0,0,0,0,0,0,0,0,0,0,0,0,0,0,0,0,0,0,0,0,0,0,0,0,0,0,0,0,0,0,0,0,0,0,0,0,0,0,0,0,0,0,0,0,0,0,0,0,0,0,0,0,0,0,
0,0,0,0,0,0,0,0,0,0,0,0,0,0,0,0,0,0,0,0,0,0,0,0,0,0,0,0,0,0,0,0,0,0,0,0,0,0,0,0,0,0,0,0,0,0,0,0,0,0,0,0,0,0,0,0,0,0,0,0,0,0,0,0,0,0,0,0,0,0,0,0,
0,0,0,0,0,0,0,0,0,0,0,0,0,0,0,0,0,0,0,0,0,0,0,0,0,0,0,0,0,0,0,0,0,0,0,0,0,0,0,0,0,0,0,0,0,0,0,0,0,0,0,0,0,0,0,0,0,0,0,0,0,0,0,0,0,0,0,0,0,0,0,0,
0,0,0,0,0,0,0,0,0,0,0,0,0,0,0,0,0,0,0,0,0,0,0,0,0,0,0,0,0,0,0,0,0,0,0,0,0,0,0,0,0,0,0,0,0,0,0,0,0,0,0,0,0,0,0,0,0,0,0,0,0,0,0,0,0,0,0,0,0,0,0,0,
0,0,0,0,0,0,0,0,0,0,0,0,0,0,0,0,0,0,0,0,0,0,0,0,0,0,0,0,0,0,0,0,0,0,0,0,0,0,0,0,0,0,0,0,0,0,0,0,0,0,0,0,0,0,0,0,0,0,0,0,0,0,0,0,0,0,0,0,0,0,0,0,
0,0,0,0,0,0,0,0,0,0,0,0,0,0,0,0,0,0,0,0,0,0,0,0,0,0,0,0,0,0,0,0,0,0,0,0,0,0,0,0,0,0,0,0,0,0,0,0,0,0,0,0,0,0,0,0,0,0,0,0,0,0,0,0,0,0,0,0,0,0,0,0,
0,0,0,0,0,0,0,0,0,0,0,0,0,0,0,0,0,0,0,0,0,0,0,0,0,0,0,0,0,0,0,0,0,0,0,0,0,0,0,0,0,0,0,0,0,0,0,0,0,0,0,0,0,0,0,0,0,0,0,0,0,0,0,0,0,0,0,0,0,0,0,0,
0,0,0,0,0,0,0,0,0,0,0,0,0,0,0,0,0,0,0,0,0,0,0,0,0,0,0,0,0,0,0,0,0,0,0,0,0,0,0,0,0,0,0,0,0,0,0,0,0,0,0,0,0,0,0,0,0,0,0,0,0,0,0,0,0,0,0,0,0,0,0,0,
0,0,0,0,0,0,0,0,0,0,0,0,0,0,0,0,0,0,0,0,0,0,0,0,0,0,0,0,0,0,0,0,0,0,0,0,0,0,0,0,0,0,0,0,0,0,0,0,0,0,0,0,0,0,0,0,0,0,0,0,0,0,0,0,0,0,0,0,0,0,0,0,
0,0,0,0,0,0,0,0,0,0,0,0,0,0,0,0,0,0,0,0,0,0,0,0,0,0,0,0,0,0,0,0,0,0,0,0,0,0,0,0,0,0,0,0,0,0,0,0,0,0,0,0,0,0,0,0,0,0,0,0,0,0,0,0,0,0,0,0,0,0,0,0,
0,0,0,0,0,0,0,0,0,0,0,0,0,0,0,0,0,0,0,0,0,0,0,0,0,0,0,0,0,0,0,0,0,0,0,0,0,0,0,0,0,0,0,0,0,0,0,0,0,0,0,0,0,0,0,0,0,0,0,0,0,0,0,0,0,0,0,0,0,0,0,0,
0,0,0,0,0,0,0,0,0,0,0,0,0,0,0,0,0,0,0,0,0,0,0,0,0,0,0,0,0,0,0,0,0,0,0,0,0,0,0,0,0,0,0,0,0,0,0,0,0,0,0,0,0,0,0,0,0,0,0,0,0,0,0,0,0,0,0,0,0,0,0,0,
0,0,0,0,0,0,0,0,0,0,0,0,0,0,0,0,0,0,0,0,0,0,0,0,0,0,0,0,0,0,0,0,0,0,0,0,0,0,0,0,0,0,0,0,0,0,0,0,0,0,0,0,0,0,0,0,0,0,0,0,0,0,0,0,0,0,0,0,0,0,0,0,
0,0,0,0,0,0,0,0,0,0,0,0,0,0,0,0,0,0,0,0,0,0,0,0,0,0,0,0,0,0,0,0,0,0,0,0,0,0,0,0,0,0,0,0,0,0,0,0,0,0,0,0,0,0,0,0,0,0,0,0,0,0,0,0,0,0,0,0,0,0,0,0,
0,0,0,0,0,0,0,0,0,0,0,0,0,0,0,0,0,0,0,0,0,0,0,0,0,0,0,0,0,0,0,0,0,0,0,0,0,0,0,0,0,0,0,0,0,0,0,0,0,0,0,0,0,0,0,0,0,0,0,0,0,0,0,0,0,0,0,0,0,0,0,0,
0,0,0,0,0,0,0,0,0,0,0,0,0,0,0,0,0,0,0,0,0,0,0,0,0,0,0,0,0,0,0,0,0,0,0,0,0,0,0,0,0,0,0,0,0,0,0,0,0,0,0,0,0,0,0,0,0,0,0,0,0,0,0,0,0,0,0,0,0,0,0,0,
0,0,0,0,0,0,0,0,0,0,0,0,0,0,0,0,0,0,0,0,0,0,0,0,0,0,0,0,0,0,0,0,0,0,0,0,0,0,0,0,0,0,0,0,0,0,0,0,0,0,0,0,0,0,0,0,0,0,0,0,0,0,0,0,0,0,0,0,0,0,0,0,
0,0,0,0,0,0,0,0,0,0,0,0,0,0,0,0,0,0,0,0,0,0,0,0,0,0,0,0,0,0,0,0,0,0,0,0,0,0,0,0,0,0,0,0,0,0,0,0,0,0,0,0,0,0,0,0,0,0,0,0,0,0,0,0,0,0,0,0,0,0,0,0,
0,0,0,0,0,0,0,0,0,0,0,0,0,0,0,0,0,0,0,0,0,0,0,0,0,0,0,0,0,0,0,0,0,0,0,0,0,0,0,0,0,0,0,0,0,0,0,0,0,0,0,0,0,0,0,0,0,0,0,0,0,0,0,0,0,0,0,0,0,0,0,0,
0,0,0,0,0,0,0,0,0,0,0,0,0,0,0,0,0,0,0,0,0,0,0,0,0,0,0,0,0,130,130,130,0,0,0,0,0,0,0,0,0,0,0,0,0,0,0,0,0,0,0,0,0,0,0,0,0,0,0,0,0,0,0,0,0,0,0,0,0,0,0,0,
0,0,0,0,0,0,0,0,0,0,0,0,0,0,0,0,0,0,0,0,0,0,0,0,0,0,0,0,0,130,130,130,0,0,0,0,0,0,0,0,0,0,0,0,0,0,0,0,0,0,0,0,0,0,0,0,0,0,0,0,0,0,0,0,0,0,0,0,0,0,0,0,
0,0,0,0,0,0,0,0,0,0,0,0,0,0,0,0,0,0,0,0,0,0,0,0,0,0,0,0,0,130,130,130,0,0,0,0,0,0,0,0,0,0,0,0,0,0,0,0,0,0,0,0,0,0,0,0,0,0,0,0,0,0,0,0,0,0,0,0,0,0,0,0,
0,0,0,0,0,0,0,0,0,0,0,0,0,0,0,0,0,0,0,0,0,0,0,0,0,0,0,0,0,130,130,130,0,0,0,0,0,0,0,0,0,0,0,0,0,0,0,0,0,0,0,0,0,0,0,0,0,0,0,0,0,0,0,0,0,0,0,0,0,0,0,0,
0,0,0,0,0,0,0,0,0,0,0,0,0,0,0,0,0,0,0,0,0,0,0,0,0,0,0,0,0,0,0,0,0,0,0,0,0,0,0,0,0,0,0,0,0,0,0,0,0,0,0,0,0,0,0,0,0,0,0,0,0,0,0,0,0,0,0,0,0,0,0,0,
0,0,0,0,0,0,0,0,0,0,0,0,0,0,0,0,0,0,0,0,0,0,0,0,0,0,0,0,0,0,0,0,0,0,0,0,0,0,0,0,0,0,0,0,0,0,0,0,0,0,0,0,0,0,0,0,0,0,0,0,0,0,0,0,0,0,0,0,0,0,0,0,
0,0,0,0,0,0,0,0,0,0,0,0,0,0,0,0,0,0,0,0,0,0,0,0,0,0,0,0,0,0,0,0,0,0,0,0,0,0,0,0,0,0,0,0,0,0,0,0,0,0,0,0,0,0,0,0,0,0,0,0,0,0,0,0,0,0,0,0,0,0,0,0,
0,0,0,0,0,0,0,0,0,0,0,0,0,0,0,0,0,0,0,0,0,0,0,0,0,0,0,0,0,0,0,0,0,0,0,0,0,0,0,0,0,0,0,0,0,0,0,0,0,0,0,0,0,0,0,0,0,0,0,0,0,0,0,0,0,0,0,0,0,0,0,0,
0,0,0,0,0,0,0,0,0,0,0,0,0,0,0,0,0,0,0,0,0,0,0,0,0,0,0,0,0,0,0,0,0,0,0,0,0,0,0,0,0,0,0,0,0,0,0,0,0,0,0,0,0,0,0,0,0,0,0,0,0,0,0,0,0,0,0,0,0,0,0,0,
0,0,0,0,0,0,0,0,0,0,0,0,0,0,0,0,0,0,0,0,0,0,0,0,0,0,0,0,0,0,0,0,0,0,0,0,0,0,0,0,0,0,0,0,0,0,0,0,0,0,0,0,0,0,0,0,0,0,0,0,0,0,0,0,0,0,0,0,0,0,0,0,
0,0,0,0,0,0,0,0,0,0,0,0,0,0,0,0,0,0,0,0,0,0,0,0,0,0,0,0,0,0,0,0,0,0,0,0,0,0,0,0,0,0,0,0,0,0,0,0,0,0,0,0,0,0,0,0,0,0,0,0,0,0,0,0,0,0,0,0,0,0,0,0,
0,0,0,0,0,0,0,0,0,0,0,0,0,0,0,0,0,0,0,0,0,0,0,0,0,0,0,0,0,0,0,0,0,0,0,0,0,0,0,0,0,0,0,0,0,0,0,0,0,0,0,0,0,0,0,0,0,0,0,0,0,0,0,0,0,0,0,0,0,0,0,0,
0,0,0,0,0,0,0,0,0,0,0,0,0,0,0,0,0,0,0,0,0,0,0,0,0,0,0,0,0,0,0,0,0,0,0,0,0,0,0,0,0,0,0,0,0,0,0,0,0,0,0,0,0,0,0,0,0,0,0,0,0,0,0,0,0,0,0,0,0,0,0,0,
0,0,0,0,0,0,0,0,0,0,0,0,5,5,5,5,5,6,5,7,5,5,5,5,5,0,0,0,0,0,0,0,0,0,0,0,0,0,0,0,0,0,0,0,0,0,0,0,0,0,0,0,0,0,0,0,0,0,0,0,0,0,0,0,0,0,0,0,0,0,0,0,
0,0,0,0,0,0,0,0,0,0,0,0,5,5,5,7,5,5,5,5,5,5,5,5,6,0,0,0,0,0,0,0,0,0,0,0,0,0,0,0,0,0,0,0,0,0,0,0,0,0,0,0,0,0,0,0,0,0,0,0,0,0,0,0,0,0,0,0,0,0,0,0,
0,0,0,0,0,0,0,0,0,0,0,0,0,0,0,0,0,0,0,0,0,9,9,9,9,0,0,0,0,0,0,0,0,0,0,0,0,0,0,0,0,0,0,0,0,0,0,0,0,0,0,0,0,0,0,0,0,0,0,0,0,0,0,0,0,0,0,0,0,0,0,0,
0,0,0,0,0,0,0,0,0,0,0,0,0,130,130,130,0,0,0,0,0,19,19,19,19,0,0,0,0,0,0,0,0,0,0,0,0,0,0,0,0,0,0,0,0,0,0,0,0,0,0,0,0,0,0,0,0,0,0,0,0,0,0,0,0,0,0,0,0,0,0,0,
0,0,0,0,0,0,0,0,0,0,0,0,0,130,130,130,0,0,0,0,0,29,29,29,29,0,0,0,0,0,0,0,0,0,0,0,0,0,0,0,0,0,0,0,0,0,0,0,0,0,0,0,0,0,0,0,0,0,0,0,0,0,0,0,0,0,0,0,0,0,0,0,
0,0,0,0,0,0,0,0,0,0,0,0,0,130,130,130,0,0,0,0,0,39,39,39,39,0,0,0,0,0,0,0,0,0,0,0,0,0,0,0,0,0,0,0,0,0,0,0,0,0,0,0,0,0,0,0,0,0,0,0,0,0,0,0,0,0,0,0,0,0,0,0,
0,0,0,0,0,0,0,0,0,0,0,0,0,130,130,130,0,0,0,0,0,49,49,49,49,0,0,0,0,0,0,0,0,0,0,0,0,0,0,0,0,0,0,0,0,0,0,0,0,0,0,0,0,0,0,0,0,0,0,0,0,0,0,0,0,0,0,0,0,0,0,0,
0,0,0,0,0,0,0,0,0,0,0,0,0,130,130,130,0,0,0,0,0,59,59,59,59,0,0,0,0,0,0,0,0,0,0,0,0,0,0,0,0,0,0,0,0,0,0,0,0,0,0,0,0,0,0,0,0,0,0,0,0,0,0,0,0,0,0,0,0,0,0,0,
0,0,0,0,0,0,0,0,0,0,0,0,0,130,130,130,0,0,0,0,0,0,0,0,0,0,0,0,0,0,0,0,0,0,0,0,0,0,0,0,0,0,0,0,0,0,0,0,0,0,0,0,0,0,0,0,0,0,0,0,0,0,0,0,0,0,0,0,0,0,0,0,
0,0,0,0,0,0,0,0,0,0,0,0,0,130,130,130,0,0,0,0,0,0,0,0,0,0,0,0,0,0,0,0,0,0,0,0,0,0,0,0,0,0,0,0,0,0,0,0,0,0,0,0,0,0,0,0,0,0,0,0,0,0,0,0,0,0,0,0,0,0,0,0,
0,0,0,0,0,0,0,0,0,0,0,0,0,130,130,130,0,0,0,0,0,0,0,0,0,0,0,0,0,0,0,0,0,0,0,0,0,0,0,0,0,0,0,0,0,0,0,0,0,0,0,0,0,0,0,0,0,0,0,0,0,0,0,0,0,0,0,0,0,0,0,0,
0,0,0,0,0,0,0,0,0,0,0,0,0,130,130,130,0,0,0,0,0,0,0,0,0,0,0,0,0,0,0,0,0,0,0,0,0,0,0,0,0,0,0,0,0,0,0,0,0,0,0,0,0,0,0,0,0,0,0,0,0,0,0,0,0,0,0,0,0,0,0,0,
0,0,0,0,0,0,0,0,0,0,0,0,0,130,130,130,0,0,0,0,0,0,0,0,0,0,0,0,0,0,0,0,0,0,0,0,0,0,0,0,0,0,0,0,0,0,0,0,0,0,0,0,0,0,0,0,0,0,0,0,0,0,0,0,0,0,0,0,0,0,0,0,
0,0,0,0,0,0,0,0,0,0,0,0,0,0,0,0,0,0,0,0,0,0,0,0,0,0,0,0,0,0,0,0,0,0,0,0,0,0,0,0,0,0,0,0,0,0,0,0,0,0,0,0,0,0,0,0,0,0,0,0,0,0,0,0,0,0,0,0,0,0,0,0,
0,0,0,0,0,0,0,0,0,0,0,0,0,0,0,0,0,0,0,0,0,0,0,0,0,0,0,0,0,0,0,0,0,0,0,0,0,0,0,0,0,0,0,0,0,0,0,0,0,0,0,0,0,0,0,0,0,0,0,0,0,0,0,0,0,0,0,0,0,0,0,0,
0,0,0,0,0,0,0,0,0,0,0,0,0,0,0,0,0,0,0,0,0,0,0,0,0,0,0,0,0,0,0,0,0,0,0,0,0,0,0,0,0,0,0,0,0,0,0,0,0,0,0,0,0,0,0,0,0,0,0,0,0,0,0,0,0,0,0,0,0,0,0,0,
0,0,0,0,0,0,0,0,0,0,0,0,0,0,0,0,0,0,0,0,0,0,0,0,0,0,0,0,0,0,0,0,0,0,0,0,0,0,0,0,0,0,0,0,0,0,0,0,0,0,0,0,0,0,0,0,0,0,0,0,0,0,0,0,0,0,0,0,0,0,0,0,
0,0,0,0,0,0,0,0,0,0,0,0,0,0,0,0,0,0,0,0,0,0,0,0,0,0,0,0,0,0,0,0,0,0,0,0,0,0,0,0,0,0,0,0,0,0,0,0,0,0,0,0,0,0,0,0,0,0,0,0,0,0,0,0,0,0,0,0,0,0,0,0,
0,0,0,0,0,0,0,0,0,0,0,0,0,0,0,0,0,0,0,0,0,0,0,0,0,0,0,0,0,0,0,0,0,0,0,0,0,0,0,0,0,0,0,0,0,0,0,0,0,0,0,0,0,0,0,0,0,0,0,0,0,0,0,0,0,0,0,0,0,0,0,0,
0,0,0,0,0,0,0,0,0,0,0,0,0,0,0,0,0,0,0,0,0,0,0,0,0,0,0,0,0,0,0,0,0,0,0,0,0,0,0,0,0,0,0,0,0,0,0,0,0,0,0,0,0,0,0,0,0,0,0,0,0,0,0,0,0,0,0,0,0,0,0,0,
0,0,0,0,0,0,0,0,0,0,0,0,0,0,0,0,0,0,0,0,0,0,0,0,0,0,0,0,0,0,0,0,0,0,0,0,0,0,0,0,0,0,0,0,0,0,0,0,0,0,0,0,0,0,0,0,0,0,0,0,0,0,0,0,0,0,0,0,0,0,0,0,
0,0,0,0,0,0,0,0,0,0,0,0,0,0,0,0,0,0,0,0,0,0,0,0,0,0,0,0,0,0,0,0,0,0,0,0,0,0,0,0,0,0,0,0,0,0,0,0,0,0,0,0,0,0,0,0,0,0,0,0,0,0,0,0,0,0,0,0,0,0,0,0
</data>
 </layer>
 <layer id="10" name="battleborder" width="72" height="72">
  <data encoding="csv">
0,0,0,0,0,0,0,0,0,0,0,0,0,0,0,0,0,0,0,0,0,0,0,0,0,0,0,0,0,0,0,0,0,0,0,0,0,0,0,0,0,0,0,0,0,0,0,0,0,0,0,0,0,0,0,0,0,0,0,0,0,0,0,0,0,0,0,0,0,0,0,0,
0,0,0,0,0,0,0,0,0,0,0,0,0,0,0,0,0,0,0,0,0,0,0,0,0,0,0,0,0,0,0,0,0,0,0,0,0,0,0,0,0,0,0,0,0,0,0,0,0,0,0,0,0,0,0,0,0,0,0,0,0,0,0,0,0,0,0,0,0,0,0,0,
0,0,0,0,0,0,0,0,0,0,0,0,0,0,0,0,0,0,0,0,0,0,0,0,0,0,0,0,0,0,0,0,0,0,0,0,0,0,0,0,0,0,0,0,0,0,0,0,0,0,0,0,0,0,0,0,0,0,0,0,0,0,0,0,0,0,0,0,0,0,0,0,
0,0,0,0,0,0,0,0,0,211,211,0,0,0,0,0,0,0,0,0,0,0,0,0,0,0,0,0,0,0,0,0,0,0,0,0,0,0,0,0,0,0,0,0,0,0,0,0,0,0,0,0,0,0,0,0,0,0,0,0,0,0,0,0,0,0,0,0,0,0,0,0,
0,0,0,0,0,0,0,0,0,211,211,0,0,0,0,0,0,0,0,0,0,0,0,0,0,0,0,0,0,0,0,0,0,0,0,0,0,0,0,0,0,0,0,0,0,0,0,0,0,0,0,0,0,0,0,0,0,0,0,0,0,0,0,0,0,0,0,0,0,0,0,0,
0,0,0,0,0,0,0,0,0,211,211,0,0,0,0,0,0,0,0,0,0,0,0,0,0,0,0,0,0,0,0,0,0,0,0,0,0,0,0,0,0,0,0,0,0,0,0,0,0,0,0,0,0,0,0,0,0,0,0,0,0,0,0,0,0,0,0,0,0,0,0,0,
0,0,0,0,0,0,0,0,0,211,211,0,0,0,0,0,0,0,0,0,0,0,0,0,0,0,0,0,0,0,0,0,0,0,0,0,0,0,0,0,0,0,0,0,0,0,0,0,0,0,0,0,0,0,0,0,0,0,0,0,0,0,0,0,0,0,0,0,0,0,0,0,
0,0,0,0,0,0,0,0,0,211,211,0,0,0,0,0,0,0,0,0,0,0,0,0,0,0,0,0,0,0,0,0,0,0,0,0,0,0,0,0,0,0,0,0,0,0,0,0,0,0,0,0,0,0,0,0,0,0,0,0,0,0,0,0,0,0,0,0,0,0,0,0,
0,0,0,0,0,0,0,0,0,211,211,0,0,0,0,0,0,0,0,0,0,0,0,0,0,0,0,0,0,0,0,0,0,0,0,0,0,0,0,0,0,0,0,0,0,0,0,0,0,0,0,0,0,0,0,0,0,0,0,0,0,0,0,0,0,0,0,0,0,0,0,0,
0,0,0,0,0,0,0,0,0,211,211,0,0,0,0,0,0,0,0,0,0,0,0,0,0,0,0,0,0,0,0,0,0,0,0,0,0,0,0,0,0,0,0,0,0,0,0,0,0,0,0,0,0,0,0,0,0,0,0,0,0,0,0,0,0,0,0,0,0,0,0,0,
0,0,0,0,0,0,0,0,0,211,211,0,0,0,0,0,0,0,0,0,0,0,0,0,0,0,0,0,0,0,0,0,0,0,0,0,0,0,0,0,0,0,0,0,0,0,0,0,0,0,0,0,0,0,0,0,0,0,0,0,0,0,0,0,0,0,0,0,0,0,0,0,
0,0,0,0,0,0,0,0,0,211,211,0,0,0,0,0,0,0,0,0,0,0,0,0,201,202,202,202,202,202,202,202,202,202,202,202,202,202,202,202,202,202,202,202,202,202,202,202,203,0,0,0,0,0,0,0,0,0,0,0,0,0,0,0,0,0,0,0,0,0,0,0,
0,0,0,0,0,0,0,0,0,211,211,0,0,0,0,0,0,0,0,0,0,0,0,0,211,201,202,202,202,202,202,203,0,201,202,202,202,202,202,203,0,201,202,202,202,202,202,203,213,0,0,0,0,0,0,0,0,0,0,0,0,0,0,0,0,0,0,0,0,0,0,0,
0,0,0,0,0,0,0,0,0,211,211,0,0,0,0,0,0,0,0,0,0,0,0,0,211,211,0,0,0,0,0,213,0,211,0,0,0,0,0,213,0,211,0,0,0,0,0,213,213,0,0,0,0,0,0,0,0,0,0,0,0,0,0,0,0,0,0,0,0,0,0,0,
0,0,0,0,0,0,0,0,0,211,211,0,0,0,0,0,0,0,0,0,0,0,0,0,211,211,0,201,202,203,0,213,0,211,0,201,202,203,0,213,0,211,0,201,202,203,0,213,213,0,0,0,0,0,0,0,0,0,0,0,0,0,0,0,0,0,0,0,0,0,0,0,
0,0,0,0,0,0,0,0,0,211,211,0,0,0,0,0,0,0,0,0,0,0,0,0,211,211,0,211,212,213,0,213,0,211,0,211,212,213,0,213,0,211,0,211,212,213,0,213,213,0,0,0,0,0,0,0,0,0,0,0,0,0,0,0,0,0,0,0,0,0,0,0,
0,0,0,0,0,0,0,0,0,211,211,0,0,0,0,0,0,0,0,0,0,0,0,0,211,211,0,221,222,223,0,213,0,211,0,221,222,223,0,213,0,211,0,221,222,223,0,213,213,0,0,0,0,0,0,0,0,0,0,0,0,0,0,0,0,0,0,0,0,0,0,0,
0,0,0,0,0,0,0,0,0,211,211,0,0,0,0,0,0,0,0,0,0,0,0,0,211,211,0,0,0,0,0,213,0,211,0,0,0,0,0,213,0,211,0,0,0,0,0,213,213,0,0,0,0,0,0,0,0,0,0,0,0,0,0,0,0,0,0,0,0,0,0,0,
0,0,0,0,0,0,0,0,0,211,211,0,0,0,0,0,0,0,0,0,0,0,0,0,211,221,222,222,222,222,222,223,0,211,0,0,0,0,0,213,0,221,222,222,222,222,222,223,213,0,0,0,0,0,0,0,0,0,0,0,0,0,0,0,0,0,0,0,0,0,0,0,
0,0,0,0,0,0,0,0,0,0,0,0,0,0,0,0,0,0,0,0,0,0,0,0,211,0,0,0,0,0,0,0,0,221,0,0,0,0,0,223,0,0,0,0,0,0,0,0,213,0,0,0,0,0,0,0,0,0,0,0,0,0,0,0,0,0,0,0,0,0,0,0,
0,0,0,0,0,0,0,0,0,0,0,0,0,0,0,0,0,0,0,0,0,0,0,0,211,201,202,202,202,202,202,203,0,0,211,0,0,0,213,0,0,201,202,202,202,202,202,203,213,0,0,0,0,0,0,0,0,0,0,0,0,0,0,0,0,0,0,0,0,0,0,0,
0,0,0,0,0,0,0,0,0,0,0,0,0,0,0,0,0,0,0,0,0,0,0,0,211,211,0,0,0,0,0,213,0,0,211,0,0,0,213,0,0,211,0,0,0,0,0,213,213,0,0,0,0,0,0,0,0,0,0,0,0,0,0,0,0,0,0,0,0,0,0,0,
0,0,0,0,0,0,0,0,0,0,0,0,0,0,0,0,0,0,0,0,0,0,0,0,211,211,0,201,202,203,0,213,0,0,211,0,0,0,213,0,0,211,0,201,202,203,0,213,213,0,0,0,0,0,0,0,0,0,0,0,0,0,0,0,0,0,0,0,0,0,0,0,
0,0,0,0,0,0,0,0,0,0,0,0,0,0,0,0,0,0,0,0,0,0,0,0,211,211,0,211,212,213,0,213,0,0,211,0,0,0,213,0,0,211,0,211,212,213,0,213,213,0,0,0,0,0,0,0,0,0,0,0,0,0,0,0,0,0,0,0,0,0,0,0,
0,0,0,0,0,0,0,0,0,0,0,0,0,0,0,0,0,0,0,0,0,0,0,0,211,211,0,221,222,223,0,213,0,0,211,0,0,0,213,0,0,211,0,221,222,223,0,213,213,0,0,0,0,0,0,0,0,0,0,0,0,0,0,0,0,0,0,0,0,0,0,0,
0,0,0,0,0,0,0,0,0,0,0,0,0,0,0,0,0,0,0,0,0,0,0,0,211,211,0,0,0,0,0,213,0,0,221,0,0,0,223,0,0,211,0,0,0,0,0,213,213,0,0,0,0,0,0,0,0,0,0,0,0,0,0,0,0,0,0,0,0,0,0,0,
0,0,0,0,0,0,0,0,0,0,0,0,0,0,0,0,0,0,0,0,0,0,0,0,211,221,222,222,222,222,222,223,0,0,0,0,0,0,0,0,0,221,222,222,222,222,222,223,213,0,0,0,0,0,0,0,0,0,0,0,0,0,0,0,0,0,0,0,0,0,0,0,
0,0,0,0,0,0,0,0,0,0,0,0,0,0,0,0,0,0,0,0,0,0,0,0,211,0,0,0,0,0,0,0,0,0,0,0,0,0,0,0,0,0,0,0,0,0,0,0,213,0,0,0,0,0,0,0,0,0,0,0,0,0,0,0,0,0,0,0,0,0,0,0,
0,0,0,0,0,0,0,0,0,0,0,0,0,0,0,0,0,0,0,0,0,0,0,0,211,201,202,202,202,202,202,203,0,201,202,202,202,202,202,203,0,201,202,202,202,202,202,203,213,0,0,0,0,0,0,0,0,0,0,0,0,0,0,0,0,0,0,0,0,0,0,0,
0,0,0,0,0,0,0,0,0,0,0,0,0,0,0,0,0,0,0,0,0,0,0,0,211,211,0,0,0,0,0,213,0,211,0,0,0,0,0,213,0,211,0,0,0,0,0,213,213,0,0,0,0,0,0,0,0,0,0,0,0,0,0,0,0,0,0,0,0,0,0,0,
0,0,0,0,0,0,0,0,0,0,0,0,0,0,0,0,0,0,0,0,0,0,0,0,211,211,0,0,0,0,0,213,0,211,0,0,0,0,0,213,0,211,0,201,202,203,0,213,213,0,0,0,0,0,0,0,0,0,0,0,0,0,0,0,0,0,0,0,0,0,0,0,
0,0,0,0,0,0,0,0,0,0,0,0,0,0,0,0,0,0,0,0,0,0,0,0,211,211,0,0,0,0,0,213,0,211,0,0,0,0,0,213,0,211,0,211,212,213,0,213,213,0,0,0,0,0,0,0,0,0,0,0,0,0,0,0,0,0,0,0,0,0,0,0,
0,0,0,0,0,0,0,0,0,0,0,0,0,0,0,0,0,0,0,0,0,0,0,0,211,211,0,0,0,0,0,213,0,211,0,0,0,0,0,213,0,211,0,221,222,223,0,213,213,0,0,0,0,0,0,0,0,0,0,0,0,0,0,0,0,0,0,0,0,0,0,0,
0,0,0,0,0,0,0,0,0,0,0,0,0,0,0,0,0,0,0,0,0,0,0,0,211,211,0,0,0,0,0,213,0,211,0,0,0,0,0,213,0,211,0,0,0,0,0,213,213,0,0,0,0,0,0,0,0,0,0,0,0,0,0,0,0,0,0,0,0,0,0,0,
0,0,0,0,0,0,0,0,0,0,0,0,0,0,0,0,0,0,0,0,0,0,0,0,211,221,222,222,222,222,222,223,0,221,222,222,222,222,222,223,0,221,222,222,222,222,222,223,213,0,0,0,0,0,0,0,0,0,0,0,0,0,0,0,0,0,0,0,0,0,0,0,
0,0,0,0,0,0,0,0,0,0,0,0,0,0,0,0,0,0,0,0,0,0,0,0,211,0,0,0,0,0,0,0,0,0,0,0,0,222,222,222,222,222,222,222,222,222,222,222,223,0,0,0,0,0,0,0,0,0,0,0,0,0,0,0,0,0,0,0,0,0,0,0,
0,0,0,0,0,0,0,0,0,0,0,0,0,0,0,0,0,0,0,0,0,0,0,0,221,222,222,222,222,222,222,222,222,222,222,222,223,0,0,0,0,0,0,0,0,0,0,0,0,0,0,0,0,0,0,0,0,0,0,0,0,0,0,0,0,0,0,0,0,0,0,0,
0,0,0,0,0,0,0,0,0,0,0,0,0,0,0,0,0,0,0,0,0,0,0,0,0,0,0,0,0,0,0,0,0,0,0,0,0,0,0,0,0,0,0,0,0,0,0,0,0,0,0,0,0,0,0,0,0,0,0,0,0,0,0,0,0,0,0,0,0,0,0,0,
0,0,0,0,0,0,0,0,0,0,0,0,0,0,0,0,0,0,0,0,0,0,0,0,0,0,0,0,0,0,0,0,0,0,0,0,0,0,0,0,0,0,0,0,0,0,0,0,0,0,0,0,0,0,0,0,0,0,0,0,0,0,0,0,0,0,0,0,0,0,0,0,
0,0,0,0,0,0,0,0,0,0,0,0,0,0,0,0,0,0,0,0,0,0,0,0,0,0,0,0,0,0,0,0,0,0,0,0,0,0,0,0,0,0,0,0,0,0,0,0,0,0,0,0,0,0,0,0,0,0,0,0,0,0,0,0,0,0,0,0,0,0,0,0,
0,0,0,0,0,0,0,0,0,0,0,0,0,0,0,0,0,0,0,0,0,0,0,0,0,0,0,0,0,0,0,0,0,0,0,0,0,0,0,0,0,0,0,0,0,0,0,0,0,0,0,0,0,0,0,0,0,0,0,0,0,0,0,0,0,0,0,0,0,0,0,0,
0,0,0,0,0,0,0,0,0,0,0,0,0,0,0,0,0,0,0,0,0,0,0,0,0,0,0,0,0,0,0,0,0,0,0,0,0,0,0,0,0,0,0,0,0,0,0,0,0,0,0,0,0,0,0,0,0,0,0,0,0,0,0,0,0,0,0,0,0,0,0,0,
0,0,0,0,0,0,0,0,0,0,0,0,0,0,0,0,0,0,0,0,0,0,0,0,0,0,0,0,0,0,0,0,0,0,0,0,0,0,0,0,0,0,0,0,0,0,0,0,0,0,0,0,0,0,0,0,0,0,0,0,0,0,0,0,0,0,0,0,0,0,0,0,
0,0,0,0,0,0,0,0,0,0,0,0,0,0,0,0,0,0,0,0,0,0,0,0,0,0,0,0,0,0,0,0,0,0,0,0,0,0,0,0,0,0,0,0,0,0,0,0,0,0,0,0,0,0,0,0,0,0,0,0,0,0,0,0,0,0,0,0,0,0,0,0,
0,0,0,0,0,0,0,0,0,0,0,0,0,0,0,0,0,0,0,0,0,0,0,0,0,0,0,0,0,0,0,0,0,0,0,0,0,0,0,0,0,0,0,0,0,0,0,0,0,0,0,0,0,0,0,0,0,0,0,0,0,0,0,0,0,0,0,0,0,0,0,0,
0,0,0,0,0,0,0,0,0,0,0,0,0,0,0,0,0,0,0,0,0,0,0,0,0,0,0,0,0,0,0,0,0,0,0,0,0,0,0,0,0,0,0,0,0,0,0,0,0,0,0,0,0,0,0,0,0,0,0,0,0,0,0,0,0,0,0,0,0,0,0,0,
0,0,0,0,0,0,0,0,0,0,0,0,0,0,0,0,0,0,0,0,0,0,0,0,0,0,0,0,0,0,0,0,0,0,0,0,0,0,0,0,0,0,0,0,0,0,0,0,0,0,0,0,0,0,0,0,0,0,0,0,0,0,0,0,0,0,0,0,0,0,0,0,
0,0,0,0,0,0,0,0,0,0,0,0,0,0,0,0,0,0,0,0,0,0,0,0,0,0,0,0,0,0,0,0,0,0,0,0,0,0,0,0,0,0,0,0,0,0,0,0,0,0,0,0,0,0,0,0,0,0,0,0,0,0,0,0,0,0,0,0,0,0,0,0,
0,0,0,0,0,0,0,0,0,0,0,0,0,0,0,0,0,0,0,0,0,0,0,0,0,0,0,0,0,0,0,0,0,0,0,0,0,0,0,0,0,0,0,0,0,0,0,0,0,0,0,0,0,0,0,0,0,0,0,0,0,0,0,0,0,0,0,0,0,0,0,0,
0,0,0,0,0,0,0,0,0,0,0,0,0,0,0,0,0,0,0,0,0,0,0,0,0,0,0,0,0,0,0,0,0,0,0,0,0,0,0,0,0,0,0,0,0,0,0,0,0,0,0,0,0,0,0,0,0,0,0,0,0,0,0,0,0,0,0,0,0,0,0,0,
0,0,0,0,0,0,0,0,0,0,0,0,0,0,0,0,0,0,0,0,0,0,0,0,0,0,0,0,0,0,0,0,0,0,0,0,0,0,0,0,0,0,0,0,0,0,0,0,0,0,0,0,0,0,0,0,0,0,0,0,0,0,0,0,0,0,0,0,0,0,0,0,
0,0,0,0,0,0,0,0,0,0,0,0,0,0,0,0,0,0,0,0,0,0,0,0,0,0,0,0,0,0,0,0,0,0,0,0,0,0,0,0,0,0,0,0,0,0,0,0,0,0,0,0,0,0,0,0,0,0,0,0,0,0,0,0,0,0,0,0,0,0,0,0,
0,0,0,0,0,0,0,0,0,0,0,0,0,0,0,0,0,0,0,0,0,0,0,0,0,0,0,0,0,0,0,0,0,0,0,0,0,0,0,0,0,0,0,0,0,0,0,0,0,0,0,0,0,0,0,0,0,0,0,0,0,0,0,0,0,0,0,0,0,0,0,0,
0,0,0,0,0,0,0,0,0,0,0,0,0,0,0,0,0,0,0,0,0,0,0,0,0,0,0,0,0,0,0,0,0,0,0,0,0,0,0,0,0,0,0,0,0,0,0,0,0,0,0,0,0,0,0,0,0,0,0,0,0,0,0,0,0,0,0,0,0,0,0,0,
0,0,0,0,0,0,0,0,0,0,0,0,0,0,0,0,0,0,0,0,0,0,0,0,0,0,0,0,0,0,0,0,0,0,0,0,0,0,0,0,0,0,0,0,0,0,0,0,0,0,0,0,0,0,0,0,0,0,0,0,0,0,0,0,0,0,0,0,0,0,0,0,
0,0,0,0,0,0,0,0,0,0,0,0,0,0,0,0,0,0,0,0,0,0,0,0,0,0,0,0,0,0,0,0,0,0,0,0,0,0,0,0,0,0,0,0,0,0,0,0,0,0,0,0,0,0,0,0,0,0,0,0,0,0,0,0,0,0,0,0,0,0,0,0,
0,0,0,0,0,0,0,0,0,0,0,0,0,0,0,0,0,0,0,0,0,0,0,0,0,0,0,0,0,0,0,0,0,0,0,0,0,0,0,0,0,0,0,0,0,0,0,0,0,0,0,0,0,0,0,0,0,0,0,0,0,0,0,0,0,0,0,0,0,0,0,0,
0,0,0,0,0,0,0,0,0,0,0,0,0,0,0,0,0,0,0,0,0,0,0,0,0,0,0,0,0,0,0,0,0,0,0,0,0,0,0,0,0,0,0,0,0,0,0,0,0,0,0,0,0,0,0,0,0,0,0,0,0,0,0,0,0,0,0,0,0,0,0,0,
0,0,0,0,0,0,0,0,0,0,0,0,0,0,0,0,0,0,0,0,0,0,0,0,0,0,0,0,0,0,0,0,0,0,0,0,0,0,0,0,0,0,0,0,0,0,0,0,0,0,0,0,0,0,0,0,0,0,0,0,0,0,0,0,0,0,0,0,0,0,0,0,
0,0,0,0,0,0,0,0,0,0,0,0,0,0,0,0,0,0,0,0,0,0,0,0,0,0,0,0,0,0,0,0,0,0,0,0,0,0,0,0,0,0,0,0,0,0,0,0,0,0,0,0,0,0,0,0,0,0,0,0,0,0,0,0,0,0,0,0,0,0,0,0,
0,0,0,0,0,0,0,0,0,0,0,0,0,0,0,0,0,0,0,0,0,0,0,0,0,0,0,0,0,0,0,0,0,0,0,0,0,0,0,0,0,0,0,0,0,0,0,0,0,0,0,0,0,0,0,0,0,0,0,0,0,0,0,0,0,0,0,0,0,0,0,0,
0,0,0,0,0,0,0,0,0,0,0,0,0,0,0,0,0,0,0,0,0,0,0,0,0,0,0,0,0,0,0,0,0,0,0,0,0,0,0,0,0,0,0,0,0,0,0,0,0,0,0,0,0,0,0,0,0,0,0,0,0,0,0,0,0,0,0,0,0,0,0,0,
0,0,0,0,0,0,0,0,0,0,0,0,0,0,0,0,0,0,0,0,0,0,0,0,0,0,0,0,0,0,0,0,0,0,0,0,0,0,0,0,0,0,0,0,0,0,0,0,0,0,0,0,0,0,0,0,0,0,0,0,0,0,0,0,0,0,0,0,0,0,0,0,
0,0,0,0,0,0,0,0,0,0,0,0,0,0,0,0,0,0,0,0,0,0,0,0,0,0,0,0,0,0,0,0,0,0,0,0,0,0,0,0,0,0,0,0,0,0,0,0,0,0,0,0,0,0,0,0,0,0,0,0,0,0,0,0,0,0,0,0,0,0,0,0,
0,0,0,0,0,0,0,0,0,0,0,0,0,0,0,0,0,0,0,0,0,0,0,0,0,0,0,0,0,0,0,0,0,0,0,0,0,0,0,0,0,0,0,0,0,0,0,0,0,0,0,0,0,0,0,0,0,0,0,0,0,0,0,0,0,0,0,0,0,0,0,0,
0,0,0,0,0,0,0,0,0,0,0,0,0,0,0,0,0,0,0,0,0,0,0,0,0,0,0,0,0,0,0,0,0,0,0,0,0,0,0,0,0,0,0,0,0,0,0,0,0,0,0,0,0,0,0,0,0,0,0,0,0,0,0,0,0,0,0,0,0,0,0,0,
0,0,0,0,0,0,0,0,0,0,0,0,0,0,0,0,0,0,0,0,0,0,0,0,0,0,0,0,0,0,0,0,0,0,0,0,0,0,0,0,0,0,0,0,0,0,0,0,0,0,0,0,0,0,0,0,0,0,0,0,0,0,0,0,0,0,0,0,0,0,0,0,
0,0,0,0,0,0,0,0,0,0,0,0,0,0,0,0,0,0,0,0,0,0,0,0,0,0,0,0,0,0,0,0,0,0,0,0,0,0,0,0,0,0,0,0,0,0,0,0,0,0,0,0,0,0,0,0,0,0,0,0,0,0,0,0,0,0,0,0,0,0,0,0,
0,0,0,0,0,0,0,0,0,0,0,0,0,0,0,0,0,0,0,0,0,0,0,0,0,0,0,0,0,0,0,0,0,0,0,0,0,0,0,0,0,0,0,0,0,0,0,0,0,0,0,0,0,0,0,0,0,0,0,0,0,0,0,0,0,0,0,0,0,0,0,0,
0,0,0,0,0,0,0,0,0,0,0,0,0,0,0,0,0,0,0,0,0,0,0,0,0,0,0,0,0,0,0,0,0,0,0,0,0,0,0,0,0,0,0,0,0,0,0,0,0,0,0,0,0,0,0,0,0,0,0,0,0,0,0,0,0,0,0,0,0,0,0,0,
0,0,0,0,0,0,0,0,0,0,0,0,0,0,0,0,0,0,0,0,0,0,0,0,0,0,0,0,0,0,0,0,0,0,0,0,0,0,0,0,0,0,0,0,0,0,0,0,0,0,0,0,0,0,0,0,0,0,0,0,0,0,0,0,0,0,0,0,0,0,0,0,
0,0,0,0,0,0,0,0,0,0,0,0,0,0,0,0,0,0,0,0,0,0,0,0,0,0,0,0,0,0,0,0,0,0,0,0,0,0,0,0,0,0,0,0,0,0,0,0,0,0,0,0,0,0,0,0,0,0,0,0,0,0,0,0,0,0,0,0,0,0,0,0
</data>
 </layer>
 <objectgroup color="#0000ff" id="8" name="collision">
  <object id="32" x="0" y="2640" width="680" height="40"/>
  <object id="33" x="0" y="2480" width="680" height="40"/>
  <object id="34" x="680" y="2520" width="40" height="120"/>
  <object id="35" x="680" y="1960" width="320" height="40"/>
  <object id="36" x="440" y="1360" width="40" height="760"/>
  <object id="37" x="480" y="2120" width="520" height="40"/>
  <object id="40" x="680" y="1760" width="40" height="200"/>
  <object id="41" x="640" y="1480" width="40" height="160"/>
  <object id="42" x="600" y="1240" width="40" height="240"/>
  <object id="43" x="400" y="1200" width="200" height="40"/>
  <object id="44" x="320" y="1360" width="120" height="40"/>
  <object id="45" x="160" y="1320" width="160" height="40"/>
  <object id="46" x="160" y="1240" width="240" height="40"/>
  <object id="47" x="40" y="1200" width="120" height="40"/>
  <object id="48" x="0" y="1240" width="40" height="120"/>
  <object id="49" x="40" y="1360" width="120" height="40"/>
  <object id="51" x="640" y="1720" width="840" height="40"/>
  <object id="52" x="680" y="1600" width="280" height="40"/>
  <object id="53" x="960" y="1600" width="520" height="40"/>
  <object id="55" x="1480" y="1640" width="40" height="80"/>
  <object id="124" x="1360" y="1000" width="80" height="40"/>
  <object id="125" x="1440" y="1000" width="40" height="40"/>
  <object id="126" x="1480" y="1000" width="80" height="40"/>
  <object id="131" x="1080" y="370" width="120" height="70"/>
  <object id="133" x="1360" y="960" width="80" height="40"/>
  <object id="134" x="1440" y="960" width="40" height="40"/>
  <object id="135" x="1480" y="960" width="80" height="40"/>
  <object id="140" x="1360" y="920" width="80" height="40"/>
  <object id="142" x="1480" y="920" width="80" height="40"/>
  <object id="141" x="1440" y="920" width="40" height="40"/>
  <object id="155" x="1400" y="370" width="120" height="70"/>
  <object id="201" x="320" y="40" width="40" height="720"/>
  <object id="202" x="400" y="40" width="40" height="720"/>
  <object id="203" x="120" y="720" width="200" height="40"/>
  <object id="204" x="80" y="760" width="40" height="40"/>
  <object id="205" x="120" y="800" width="840" height="40"/>
  <object id="206" x="440" y="720" width="520" height="40"/>
  <object id="222" x="360" y="0" width="40" height="40"/>
  <object id="230" x="1000" y="2000" width="40" height="120"/>
  <object id="231" x="1200" y="1960" width="240" height="40"/>
  <object id="232" x="1160" y="2000" width="40" height="120"/>
  <object id="233" x="1200" y="2120" width="120" height="40"/>
  <object id="234" x="1280" y="2160" width="40" height="480"/>
  <object id="235" x="1440" y="2000" width="40" height="520"/>
  <object id="236" x="1320" y="2640" width="1560" height="40"/>
  <object id="237" x="2720" y="2480" width="160" height="40"/>
  <object id="238" x="2720" y="2160" width="40" height="320"/>
  <object id="239" x="2280" y="2160" width="440" height="40"/>
  <object id="240" x="2240" y="2200" width="40" height="320"/>
  <object id="241" x="1960" y="2480" width="280" height="40"/>
  <object id="242" x="1960" y="1960" width="40" height="520"/>
  <object id="243" x="2000" y="1960" width="480" height="40"/>
  <object id="244" x="2480" y="1000" width="40" height="960"/>
  <object id="245" x="2320" y="1000" width="40" height="840"/>
  <object id="246" x="1840" y="1800" width="480" height="40"/>
  <object id="247" x="1800" y="1840" width="40" height="680"/>
  <object id="248" x="1480" y="2480" width="320" height="40"/>
  <object id="249" x="2520" y="1000" width="280" height="40"/>
  <object id="250" x="2800" y="840" width="40" height="160"/>
  <object id="251" x="1960" y="840" width="840" height="40"/>
  <object id="252" x="1960" y="1000" width="360" height="40"/>
  <object id="253" x="960" y="1480" width="200" height="40"/>
  <object id="254" x="1280" y="1480" width="200" height="40"/>
  <object id="255" x="1480" y="1440" width="480" height="40"/>
  <object id="256" x="920" y="840" width="40" height="640"/>
  <object id="257" x="1960" y="1040" width="40" height="440"/>
  <object id="258" x="920" y="440" width="40" height="280"/>
  <object id="259" x="960" y="400" width="120" height="40"/>
  <object id="260" x="1200" y="400" width="200" height="40"/>
  <object id="261" x="1520" y="400" width="200" height="40"/>
  <object id="262" x="1960" y="440" width="40" height="400"/>
  <object id="263" x="1040" y="360" width="40" height="40"/>
  <object id="264" x="1080" y="320" width="40" height="40"/>
  <object id="265" x="1160" y="320" width="40" height="40"/>
  <object id="266" x="1200" y="360" width="200" height="40"/>
  <object id="268" x="1400" y="320" width="40" height="40"/>
  <object id="269" x="1480" y="320" width="40" height="40"/>
  <object id="270" x="1520" y="360" width="40" height="40"/>
  <object id="271" x="1000" y="480" width="40" height="280"/>
  <object id="272" x="1040" y="720" width="240" height="40"/>
  <object id="273" x="1240" y="480" width="40" height="240"/>
  <object id="274" x="1040" y="480" width="200" height="40"/>
  <object id="275" x="1000" y="800" width="40" height="280"/>
  <object id="276" x="1040" y="1040" width="240" height="40"/>
  <object id="277" x="1240" y="800" width="40" height="240"/>
  <object id="278" x="1040" y="800" width="200" height="40"/>
  <object id="279" x="1320" y="480" width="40" height="320"/>
  <object id="280" x="1360" y="480" width="240" height="40"/>
  <object id="281" x="1560" y="520" width="40" height="280"/>
  <object id="282" x="1000" y="1120" width="280" height="40"/>
  <object id="283" x="1000" y="1160" width="40" height="240"/>
  <object id="284" x="1040" y="1360" width="240" height="40"/>
  <object id="285" x="1240" y="1160" width="40" height="200"/>
  <object id="286" x="1320" y="1120" width="40" height="280"/>
  <object id="287" x="1360" y="1360" width="240" height="40"/>
  <object id="288" x="1560" y="1120" width="40" height="240"/>
  <object id="289" x="1360" y="1120" width="200" height="40"/>
  <object id="290" x="1640" y="1120" width="280" height="40"/>
  <object id="291" x="1640" y="1160" width="40" height="240"/>
  <object id="292" x="1680" y="1360" width="240" height="40"/>
  <object id="293" x="1880" y="1160" width="40" height="200"/>
  <object id="294" x="1640" y="800" width="280" height="40"/>
  <object id="295" x="1640" y="840" width="40" height="240"/>
  <object id="296" x="1680" y="1040" width="240" height="40"/>
  <object id="297" x="1880" y="840" width="40" height="200"/>
  <object id="298" x="1640" y="480" width="40" height="280"/>
  <object id="299" x="1680" y="720" width="240" height="40"/>
  <object id="300" x="1680" y="480" width="240" height="40"/>
  <object id="301" x="1880" y="520" width="40" height="200"/>
  <object id="309" x="1320" y="2120" width="40" height="200"/>
  <object id="310" x="1400" y="2120" width="40" height="200"/>
  <object id="313" x="1640" y="360" width="80" height="40"/>
  <object id="314" x="1840" y="400" width="80" height="40"/>
  <object id="315" x="1840" y="360" width="40" height="40"/>
  <object id="316" x="1720" y="320" width="120" height="40"/>
  <object id="324" x="1920" y="370" width="40" height="70"/>
  <object id="325" x="1880" y="360" width="40" height="40"/>
  <object id="326" x="1960" y="360" width="40" height="80"/>
  <object id="327" x="1880" y="320" width="40" height="40"/>
  <object id="328" x="1960" y="320" width="40" height="40"/>
  <object id="340" x="1360" y="880" width="80" height="40"/>
  <object id="341" x="1480" y="880" width="80" height="40"/>
  <object id="342" x="1440" y="880" width="40" height="40"/>
  <object id="347" x="1360" y="800" width="40" height="80"/>
  <object id="348" x="1520" y="800" width="40" height="80"/>
 </objectgroup>
 <objectgroup color="#ff007f" id="5" name="objects_ladder">
  <object id="6" name="climbarea" x="520" y="2120" width="120" height="400"/>
  <object id="61" name="climbarea" x="1120" y="0" width="40" height="360"/>
  <object id="101" name="climbarea" x="1160" y="1480" width="120" height="160"/>
  <object id="156" name="climbarea" x="1440" y="0" width="40" height="360"/>
  <object id="317" name="climbarea" x="1760" y="0" width="40" height="360"/>
 </objectgroup>
 <objectgroup id="6" name="objects_climb_entry">
  <object id="7" name="climbentry" x="520" y="2480" width="40" height="40">
   <properties>
    <property name="target" type="object" value="8"/>
   </properties>
  </object>
  <object id="19" name="climbentry" x="560" y="2480" width="40" height="40">
   <properties>
    <property name="target" type="object" value="20"/>
   </properties>
  </object>
  <object id="21" name="climbentry" x="600" y="2480" width="40" height="40">
   <properties>
    <property name="target" type="object" value="22"/>
   </properties>
  </object>
  <object id="23" name="climbentry" x="520" y="2120" width="40" height="40">
   <properties>
    <property name="target" type="object" value="24"/>
   </properties>
  </object>
  <object id="25" name="climbentry" x="560" y="2120" width="40" height="40">
   <properties>
    <property name="target" type="object" value="26"/>
   </properties>
  </object>
  <object id="27" name="climbentry" x="600" y="2120" width="40" height="40">
   <properties>
    <property name="target" type="object" value="28"/>
   </properties>
  </object>
  <object id="81" name="climbentry" x="1120" y="320" width="40" height="40">
   <properties>
    <property name="target" type="object" value="90"/>
   </properties>
  </object>
  <object id="102" name="climbentry" x="1160" y="1600" width="40" height="40">
   <properties>
    <property name="target" type="object" value="111"/>
   </properties>
  </object>
  <object id="103" name="climbentry" x="1200" y="1600" width="40" height="40">
   <properties>
    <property name="target" type="object" value="112"/>
   </properties>
  </object>
  <object id="104" name="climbentry" x="1240" y="1600" width="40" height="40">
   <properties>
    <property name="target" type="object" value="113"/>
   </properties>
  </object>
  <object id="105" name="climbentry" x="1160" y="1480" width="40" height="40">
   <properties>
    <property name="target" type="object" value="108"/>
   </properties>
  </object>
  <object id="106" name="climbentry" x="1200" y="1480" width="40" height="40">
   <properties>
    <property name="target" type="object" value="109"/>
   </properties>
  </object>
  <object id="107" name="climbentry" x="1240" y="1480" width="40" height="40">
   <properties>
    <property name="target" type="object" value="110"/>
   </properties>
  </object>
  <object id="157" name="climbentry" x="1440" y="320" width="40" height="40">
   <properties>
    <property name="target" type="object" value="158"/>
   </properties>
  </object>
  <object id="318" name="climbentry" x="1760" y="320" width="40" height="40">
   <properties>
    <property name="target" type="object" value="319"/>
   </properties>
  </object>
 </objectgroup>
 <objectgroup id="7" name="objects_climb_exit">
  <object id="24" name="climbexit" x="520" y="2120" width="40" height="40">
   <properties>
    <property name="target" type="object" value="30"/>
   </properties>
  </object>
  <object id="26" name="climbexit" x="560" y="2120" width="40" height="40">
   <properties>
    <property name="target" type="object" value="29"/>
   </properties>
  </object>
  <object id="28" name="climbexit" x="600" y="2120" width="40" height="40">
   <properties>
    <property name="target" type="object" value="31"/>
   </properties>
  </object>
  <object id="8" name="climbexit" x="520" y="2480" width="40" height="40">
   <properties>
    <property name="target" type="object" value="14"/>
   </properties>
  </object>
  <object id="20" name="climbexit" x="560" y="2480" width="40" height="40">
   <properties>
    <property name="target" type="object" value="14"/>
   </properties>
  </object>
  <object id="22" name="climbexit" x="600" y="2480" width="40" height="40">
   <properties>
    <property name="target" type="object" value="14"/>
   </properties>
  </object>
  <object id="90" name="climbexit" x="1120" y="320" width="40" height="40">
   <properties>
    <property name="target" type="object" value="92"/>
   </properties>
  </object>
  <object id="108" name="climbexit" x="1160" y="1480" width="40" height="40">
   <properties>
    <property name="target" type="object" value="116"/>
   </properties>
  </object>
  <object id="109" name="climbexit" x="1200" y="1480" width="40" height="40">
   <properties>
    <property name="target" type="object" value="115"/>
   </properties>
  </object>
  <object id="110" name="climbexit" x="1240" y="1480" width="40" height="40">
   <properties>
    <property name="target" type="object" value="117"/>
   </properties>
  </object>
  <object id="111" name="climbexit" x="1160" y="1600" width="40" height="40">
   <properties>
    <property name="target" type="object" value="114"/>
   </properties>
  </object>
  <object id="112" name="climbexit" x="1200" y="1600" width="40" height="40">
   <properties>
    <property name="target" type="object" value="114"/>
   </properties>
  </object>
  <object id="113" name="climbexit" x="1240" y="1600" width="40" height="40">
   <properties>
    <property name="target" type="object" value="114"/>
   </properties>
  </object>
  <object id="158" name="climbexit" x="1440" y="320" width="40" height="40">
   <properties>
    <property name="target" type="object" value="161"/>
   </properties>
  </object>
  <object id="319" name="climbexit" x="1760" y="320" width="40" height="40">
   <properties>
    <property name="target" type="object" value="323"/>
   </properties>
  </object>
 </objectgroup>
 <objectgroup id="14" name="objects_dirtflowertiles">
  <object id="122" name="dirtflowertile" x="1440" y="1000" width="40" height="40"/>
  <object id="139" name="dirtflowertile" x="1440" y="960" width="40" height="40"/>
  <object id="143" name="dirtflowertile" x="1440" y="920" width="40" height="40"/>
  <object id="343" name="dirtflowertile" x="1440" y="880" width="40" height="40"/>
 </objectgroup>
 <objectgroup color="#ff0000" id="17" name="objects_hazards">
  <object id="302" name="bloomobe" x="1140" y="620">
   <properties>
    <property name="cooldown" type="int" value="2"/>
    <property name="range" type="int" value="250"/>
   </properties>
   <point/>
  </object>
  <object id="303" name="bloomobe" x="1140" y="940">
   <properties>
    <property name="cooldown" type="int" value="2"/>
    <property name="range" type="int" value="250"/>
   </properties>
   <point/>
  </object>
  <object id="304" name="bloomobe" x="1780" y="940">
   <properties>
    <property name="cooldown" type="int" value="2"/>
    <property name="range" type="int" value="250"/>
   </properties>
   <point/>
  </object>
  <object id="305" name="bloomobe" x="1780" y="620">
   <properties>
    <property name="cooldown" type="int" value="2"/>
    <property name="range" type="int" value="250"/>
   </properties>
   <point/>
  </object>
  <object id="306" name="bloomobe" x="1780" y="1260">
   <properties>
    <property name="cooldown" type="int" value="2"/>
    <property name="range" type="int" value="250"/>
   </properties>
   <point/>
  </object>
  <object id="307" name="bloomobe" x="1460" y="620">
   <properties>
    <property name="cooldown" type="int" value="2"/>
    <property name="range" type="int" value="250"/>
   </properties>
   <point/>
  </object>
 </objectgroup>
 <objectgroup color="#ff007f" id="3" name="objects_party">
  <object id="1" name="transition" x="-40" y="2520" width="40" height="120">
   <properties>
    <property name="map" value="chapter1/farm_world/garden_manor"/>
    <property name="marker" value="to_ladders"/>
   </properties>
  </object>
  <object id="38" name="chest" x="80" y="1280" width="40" height="40">
   <properties>
    <property name="money" type="int" value="300"/>
   </properties>
  </object>
  <object id="50" name="enemy" x="240" y="1320">
   <properties>
    <property name="actor" value="kipkip"/>
    <property name="chase" type="bool" value="false"/>
    <property name="chasedist" type="int" value="200"/>
    <property name="encounter" value="kipkip"/>
    <property name="enemy" value="kipkip"/>
    <property name="once" type="bool" value="true"/>
   </properties>
   <point/>
  </object>
  <object id="56" name="npc" x="1440" y="800" width="40" height="40">
   <properties>
    <property name="actor" value="shovel"/>
   </properties>
  </object>
  <object id="99" name="transition" x="1080" y="-20" width="120" height="40">
   <properties>
    <property name="map" value="chapter1/farm_world/garden_ladder1"/>
    <property name="marker" value="entry"/>
   </properties>
  </object>
  <object id="119" name="script" x="1080" y="370" width="120" height="70">
   <properties>
    <property name="cutscene" value="chapter1/garden.dirt_climb"/>
    <property name="once" type="bool" value="true"/>
    <property name="setflag" value="carrying_dirt"/>
    <property name="setvalue" type="bool" value="false"/>
   </properties>
  </object>
  <object id="160" name="script" x="1400" y="370" width="120" height="70">
   <properties>
    <property name="cutscene" value="chapter1/garden.dirt_climb"/>
    <property name="once" type="bool" value="true"/>
    <property name="setflag" value="carrying_dirt"/>
    <property name="setvalue" type="bool" value="false"/>
   </properties>
  </object>
  <object id="159" name="transition" x="1400" y="-20" width="120" height="40">
   <properties>
    <property name="map" value="chapter1/farm_world/garden_ladder2"/>
    <property name="marker" value="entry"/>
   </properties>
  </object>
  <object id="163" gid="339" x="2280" y="1080" width="360" height="360"/>
  <object id="165" name="interactable" x="2320" y="880" width="40" height="120">
   <properties>
    <property name="solid" type="bool" value="true"/>
    <property name="text1_1" value="* (There's just a...[wait:5] massive pile of dirt in the way.)"/>
    <property name="text1_2" value="* (You think about getting someone to dig it up.)"/>
    <property name="text2_1" value="* (You try digging the pile yourself...)"/>
    <property name="text2_2" value="[sound:error][wait:5]* (It's no use.)"/>
    <property name="text2_3" value="* (You don't even think about getting Tofer[sound:tofer_checkit][wait:10] to dig up the dirt pile.)"/>
    <property name="text3_1" value="* (If only anyone here was talented enough to clear the way...)"/>
   </properties>
  </object>
  <object id="178" name="bloomer" x="180" y="640">
   <properties>
    <property name="group" type="int" value="1"/>
   </properties>
   <point/>
  </object>
  <object id="186" name="bloomertrigger" x="360" y="680" width="40" height="40">
   <properties>
    <property name="group" type="int" value="1"/>
   </properties>
  </object>
  <object id="187" name="bloomer" x="180" y="560">
   <properties>
    <property name="group" type="int" value="2"/>
   </properties>
   <point/>
  </object>
  <object id="188" name="bloomer" x="180" y="480">
   <properties>
    <property name="group" type="int" value="3"/>
   </properties>
   <point/>
  </object>
  <object id="189" name="bloomer" x="180" y="400">
   <properties>
    <property name="group" type="int" value="4"/>
   </properties>
   <point/>
  </object>
  <object id="194" name="bloomer" x="580" y="640">
   <properties>
    <property name="group" type="int" value="1"/>
   </properties>
   <point/>
  </object>
  <object id="195" name="bloomer" x="580" y="560">
   <properties>
    <property name="group" type="int" value="2"/>
   </properties>
   <point/>
  </object>
  <object id="196" name="bloomer" x="580" y="480">
   <properties>
    <property name="group" type="int" value="3"/>
   </properties>
   <point/>
  </object>
  <object id="197" name="bloomer" x="580" y="400">
   <properties>
    <property name="group" type="int" value="4"/>
   </properties>
   <point/>
  </object>
  <object id="198" name="bloomertrigger" x="360" y="600" width="40" height="40">
   <properties>
    <property name="group" type="int" value="2"/>
   </properties>
  </object>
  <object id="199" name="bloomertrigger" x="360" y="520" width="40" height="40">
   <properties>
    <property name="group" type="int" value="3"/>
   </properties>
  </object>
  <object id="200" name="bloomertrigger" x="360" y="440" width="40" height="40">
   <properties>
    <property name="group" type="int" value="4"/>
   </properties>
  </object>
  <object id="211" name="bloomer" x="180" y="320">
   <properties>
    <property name="group" type="int" value="5"/>
   </properties>
   <point/>
  </object>
  <object id="212" name="bloomer" x="180" y="240">
   <properties>
    <property name="group" type="int" value="6"/>
   </properties>
   <point/>
  </object>
  <object id="213" name="bloomer" x="180" y="160">
   <properties>
    <property name="group" type="int" value="7"/>
   </properties>
   <point/>
  </object>
  <object id="215" name="bloomer" x="580" y="320">
   <properties>
    <property name="group" type="int" value="5"/>
   </properties>
   <point/>
  </object>
  <object id="216" name="bloomer" x="580" y="240">
   <properties>
    <property name="group" type="int" value="6"/>
   </properties>
   <point/>
  </object>
  <object id="217" name="bloomer" x="580" y="160">
   <properties>
    <property name="group" type="int" value="7"/>
   </properties>
   <point/>
  </object>
  <object id="218" name="bloomertrigger" x="360" y="360" width="40" height="40">
   <properties>
    <property name="group" type="int" value="5"/>
   </properties>
  </object>
  <object id="219" name="bloomertrigger" x="360" y="280" width="40" height="40">
   <properties>
    <property name="group" type="int" value="6"/>
   </properties>
  </object>
  <object id="220" name="bloomertrigger" x="360" y="200" width="40" height="40">
   <properties>
    <property name="group" type="int" value="7"/>
   </properties>
  </object>
  <object id="223" name="script" x="360" y="40" width="40" height="120">
   <properties>
    <property name="cutscene" value="chapter1/garden.dirt_ground"/>
    <property name="once" type="bool" value="true"/>
    <property name="setflag" value="carrying_dirt"/>
    <property name="setvalue" type="bool" value="false"/>
   </properties>
  </object>
  <object id="224" name="dirtflower" x="360" y="40" width="40" height="40">
   <properties>
    <property name="setflag" value="dirt1"/>
    <property name="setvalue" type="bool" value="true"/>
   </properties>
  </object>
  <object id="229" name="chest" x="1240" y="2040" width="40" height="40">
   <properties>
    <property name="item" value="magentaflower"/>
   </properties>
  </object>
  <object id="308" name="enemy" x="1370" y="2240">
   <properties>
    <property name="actor" value="kipkip"/>
    <property name="chase" type="bool" value="false"/>
    <property name="chasedist" type="int" value="200"/>
    <property name="encounter" value="kipkip"/>
    <property name="enemy" value="kipkip"/>
    <property name="once" type="bool" value="true"/>
   </properties>
   <point/>
  </object>
  <object id="321" name="transition" x="1720" y="-20" width="120" height="40">
   <properties>
    <property name="map" value="chapter1/farm_world/garden_ladder3"/>
    <property name="marker" value="spawn"/>
   </properties>
  </object>
  <object id="320" name="script" x="1920" y="360" width="40" height="80">
   <properties>
    <property name="cutscene" value="chapter1/garden.dirt_ground"/>
    <property name="once" type="bool" value="true"/>
    <property name="setflag" value="carrying_dirt"/>
    <property name="setvalue" type="bool" value="false"/>
   </properties>
  </object>
  <object id="331" name="slidearea" x="1920" y="0" width="40" height="360">
   <properties>
    <property name="lock" type="bool" value="true"/>
    <property name="solid" type="bool" value="true"/>
   </properties>
  </object>
 </objectgroup>
 <objectgroup id="15" name="objects_cutscene_jiutsu" locked="1">
  <object id="226" name="script" x="960" y="440" width="880" height="680">
   <properties>
    <property name="cutscene" value="chapter1/garden.shovel_plea"/>
    <property name="once" type="bool" value="true"/>
    <property name="setflag" value="shovel_plea_active"/>
    <property name="setvalue" type="bool" value="true"/>
   </properties>
  </object>
 </objectgroup>
 <objectgroup color="#aa557f" id="16" name="objects_shovel_lines" locked="1">
  <object id="311" name="script" x="1180" y="680" width="580" height="280">
   <properties>
    <property name="once" type="bool" value="false"/>
    <property name="script" value="shovel_lines"/>
   </properties>
  </object>
 </objectgroup>
 <objectgroup id="11" name="objects_camera_shenanigans"/>
 <objectgroup color="#ff0000" id="9" name="battleareas" visible="0">
  <object id="57" x="960" y="440" width="320" height="1000"/>
  <object id="58" x="1640" y="440" width="320" height="1000"/>
  <object id="59" x="1280" y="1120" width="360" height="320"/>
  <object id="60" x="1280" y="440" width="360" height="320"/>
  <object id="166" x="360" y="120" width="40" height="640"/>
 </objectgroup>
 <objectgroup color="#aa00ff" id="4" name="markers">
  <object id="3" name="to_manor" x="40" y="2580">
   <point/>
  </object>
  <object id="5" name="spawn" x="120" y="2580">
   <point/>
  </object>
  <object id="14" x="580" y="2560">
   <point/>
  </object>
  <object id="29" x="580" y="2080">
   <point/>
  </object>
  <object id="30" x="540" y="2080">
   <point/>
  </object>
  <object id="31" x="620" y="2080">
   <point/>
  </object>
  <object id="92" x="1140" y="400">
   <point/>
  </object>
  <object id="100" name="to_ladder1" x="1140" y="60">
   <properties>
    <property name="player_state" value="CLIMB"/>
   </properties>
   <point/>
  </object>
  <object id="114" x="1220" y="1680">
   <point/>
  </object>
  <object id="115" x="1220" y="1440">
   <point/>
  </object>
  <object id="116" x="1180" y="1440">
   <point/>
  </object>
  <object id="117" x="1260" y="1440">
   <point/>
  </object>
  <object id="121" name="dirt1" x="1460" y="1020">
   <point/>
  </object>
  <object id="136" name="dirt2" x="1460" y="980">
   <point/>
  </object>
  <object id="144" name="dirt3" x="1460" y="940">
   <point/>
  </object>
  <object id="162" name="to_ladder2" x="1460" y="60">
   <properties>
    <property name="player_state" value="CLIMB"/>
   </properties>
   <point/>
  </object>
  <object id="161" x="1460" y="400">
   <point/>
  </object>
  <object id="322" name="to_ladder3" x="1780" y="60">
   <properties>
    <property name="player_state" value="CLIMB"/>
   </properties>
   <point/>
  </object>
  <object id="323" x="1780" y="400">
   <point/>
  </object>
  <object id="332" name="the_slide" x="1940" y="60">
   <properties>
    <property name="player_state" value="SLIDE"/>
   </properties>
   <point/>
  </object>
  <object id="344" name="dirt4" x="1460" y="900">
   <point/>
  </object>
  <object id="349" name="dirt_slide" x="1440" y="1040">
   <point/>
  </object>
  <object id="350" name="shovel1" x="1460" y="1100">
   <point/>
  </object>
  <object id="351" name="shovel2" x="1940" y="1100">
   <point/>
  </object>
  <object id="352" name="shovel3" x="1940" y="940">
   <point/>
  </object>
  <object id="353" name="shovel4" x="2220" y="940">
   <point/>
  </object>
  <object id="354" name="vesspos" x="2080" y="910">
   <point/>
  </object>
  <object id="355" name="toferpos" x="2120" y="960">
   <point/>
  </object>
  <object id="356" x="2160" y="940">
   <point/>
  </object>
 </objectgroup>
 <objectgroup color="#ffff00" id="13" name="controllers">
  <object id="118" name="toggle" x="880" y="250">
   <properties>
    <property name="flag" value="carrying_dirt"/>
    <property name="inverted" type="bool" value="true"/>
    <property name="target1" type="object" value="99"/>
    <property name="target2" type="object" value="159"/>
    <property name="target3" type="object" value="321"/>
   </properties>
   <point/>
  </object>
  <object id="120" name="toggle" x="1280" y="140">
   <properties>
    <property name="flag" value="carrying_dirt"/>
    <property name="inverted" type="bool" value="false"/>
    <property name="target1" type="object" value="119"/>
    <property name="target2" type="object" value="160"/>
    <property name="target3" type="object" value="223"/>
    <property name="target4" type="object" value="320"/>
   </properties>
   <point/>
  </object>
  <object id="123" name="toggle" x="1540" y="1020">
   <properties>
    <property name="flag" value="dirtflowertile_1"/>
    <property name="inverted" type="bool" value="false"/>
    <property name="target1" type="object" value="122"/>
   </properties>
   <point/>
  </object>
  <object id="130" name="toggle" x="1380" y="1020">
   <properties>
    <property name="flag" value="dirtflowertile_1"/>
    <property name="inverted" type="bool" value="true"/>
    <property name="target1" type="object" value="125"/>
   </properties>
   <point/>
  </object>
  <object id="132" name="toggle" x="1340" y="140">
   <properties>
    <property name="flag" value="dirt_cutscene_active"/>
    <property name="inverted" type="bool" value="false"/>
    <property name="target1" type="object" value="131"/>
    <property name="target2" type="object" value="155"/>
    <property name="target3" type="object" value="324"/>
   </properties>
   <point/>
  </object>
  <object id="137" name="toggle" x="1540" y="980">
   <properties>
    <property name="flag" value="dirtflowertile_2"/>
    <property name="inverted" type="bool" value="false"/>
    <property name="target1" type="object" value="139"/>
   </properties>
   <point/>
  </object>
  <object id="138" name="toggle" x="1380" y="980">
   <properties>
    <property name="flag" value="dirtflowertile_2"/>
    <property name="inverted" type="bool" value="true"/>
    <property name="target1" type="object" value="134"/>
   </properties>
   <point/>
  </object>
  <object id="145" name="toggle" x="1540" y="940">
   <properties>
    <property name="flag" value="dirtflowertile_3"/>
    <property name="inverted" type="bool" value="false"/>
    <property name="target1" type="object" value="143"/>
   </properties>
   <point/>
  </object>
  <object id="146" name="toggle" x="1380" y="940">
   <properties>
    <property name="flag" value="dirtflowertile_3"/>
    <property name="inverted" type="bool" value="true"/>
    <property name="target1" type="object" value="141"/>
   </properties>
   <point/>
  </object>
  <object id="228" name="toggle" x="1880" y="320">
   <properties>
    <property name="flag" value="shovel_plea_active"/>
    <property name="inverted" type="bool" value="true"/>
    <property name="target1" type="object" value="57"/>
    <property name="target2" type="object" value="60"/>
    <property name="target3" type="object" value="58"/>
    <property name="target4" type="object" value="59"/>
   </properties>
   <point/>
  </object>
  <object id="312" name="toggle" x="1690" y="310">
   <properties>
    <property name="flag" value="shovel_lines"/>
    <property name="inverted" type="bool" value="false"/>
    <property name="target1" type="object" value="311"/>
   </properties>
   <point/>
  </object>
  <object id="345" name="toggle" x="1540" y="900">
   <properties>
    <property name="flag" value="dirtflowertile_4"/>
    <property name="inverted" type="bool" value="false"/>
    <property name="target1" type="object" value="343"/>
   </properties>
   <point/>
  </object>
  <object id="346" name="toggle" x="1380" y="900">
   <properties>
    <property name="flag" value="dirtflowertile_4"/>
    <property name="inverted" type="bool" value="true"/>
    <property name="target1" type="object" value="342"/>
   </properties>
   <point/>
  </object>
 </objectgroup>
</map>
