<?xml version="1.0" encoding="UTF-8"?>
<map version="1.11" tiledversion="1.12.2" orientation="orthogonal" renderorder="right-down" width="16" height="48" tilewidth="40" tileheight="40" infinite="0" nextlayerid="4" nextobjectid="4">
 <editorsettings>
  <export target="data.lua" format="lua"/>
 </editorsettings>
 <tileset firstgid="1" source="../../../../tilesets/garden_slide.tsx"/>
 <tileset firstgid="101" source="../../../../tilesets/garden.tsx"/>
 <layer id="1" name="Tile Layer 1" width="16" height="48">
  <data encoding="csv">
129,129,129,129,129,129,129,129,129,129,129,129,129,129,11,0,
139,139,139,139,139,139,139,139,139,139,139,139,139,139,11,0,
139,139,139,139,139,139,139,139,139,139,139,139,139,139,11,0,
139,139,139,139,139,139,139,139,139,139,139,139,139,139,11,0,
149,139,139,139,139,139,139,139,139,139,139,139,139,139,11,0,
159,149,139,139,139,139,139,139,139,139,139,139,139,139,11,0,
0,149,139,139,139,139,139,139,139,139,139,139,139,139,11,0,
0,159,149,139,139,139,139,139,139,139,139,139,139,139,11,0,
0,0,159,149,139,139,139,139,139,139,139,139,139,139,11,0,
0,0,0,149,139,139,139,139,139,139,139,139,139,139,11,0,
0,0,0,159,149,139,139,139,139,139,139,139,139,139,11,0,
0,0,0,0,149,139,139,139,139,139,139,139,139,139,11,0,
0,0,0,0,159,149,139,139,139,139,139,139,139,139,11,0,
0,0,0,0,0,159,149,139,139,139,139,139,139,139,11,0,
0,0,0,0,0,0,149,139,139,139,139,139,139,139,11,0,
0,0,0,0,0,0,159,149,139,139,139,139,139,139,11,0,
0,0,0,0,0,0,0,149,139,139,139,139,139,139,11,0,
0,0,0,0,0,0,0,159,149,139,139,139,139,139,11,0,
0,0,0,0,0,0,0,0,149,139,139,139,139,139,11,0,
0,0,0,0,0,0,0,0,159,149,139,139,139,139,11,0,
0,0,0,0,0,0,0,0,0,149,139,139,139,139,11,0,
0,0,0,0,0,0,0,0,0,159,149,139,139,139,11,0,
0,0,0,0,0,0,0,0,0,0,149,139,139,139,11,0,
0,0,0,0,0,0,0,0,0,0,149,139,139,139,11,0,
0,0,0,0,0,0,0,0,0,0,159,149,139,139,11,0,
0,0,0,0,0,0,0,0,0,0,0,149,149,149,11,0,
0,0,0,0,0,0,0,0,0,0,0,149,149,149,11,0,
0,0,0,0,0,0,0,0,0,0,0,159,149,149,11,0,
0,0,0,0,0,0,0,0,0,0,0,0,149,149,11,0,
0,0,0,0,0,0,0,0,0,0,0,0,149,149,11,0,
0,0,0,0,0,0,0,0,0,0,0,0,159,149,11,0,
0,0,0,0,0,0,0,0,0,0,0,0,0,149,11,0,
0,0,0,0,0,0,0,0,0,0,0,0,0,149,11,0,
0,0,0,0,0,0,0,0,0,0,0,0,0,149,11,0,
0,0,0,0,0,0,0,0,0,0,0,0,0,149,11,0,
0,0,0,0,0,0,0,0,0,0,0,0,0,149,11,0,
0,0,0,0,0,0,0,0,0,0,0,0,0,149,11,0,
0,0,0,0,0,0,0,0,0,0,0,0,0,149,11,0,
0,0,0,0,0,0,0,0,0,0,0,0,0,149,11,0,
0,0,0,0,0,0,0,0,0,0,0,0,0,149,11,0,
0,0,0,0,0,0,0,0,0,0,0,0,0,149,11,0,
0,0,0,0,0,0,0,0,0,0,0,0,0,149,11,0,
0,0,0,0,0,0,0,0,0,0,0,0,0,159,11,0,
0,0,0,0,0,0,0,0,0,0,0,0,0,0,11,0,
0,0,0,0,0,0,0,0,0,0,0,0,0,0,11,0,
0,0,0,0,0,0,0,0,0,0,0,0,0,0,11,0,
0,0,0,0,0,0,0,0,0,0,0,0,0,0,11,0,
0,0,0,0,0,0,0,0,0,0,0,0,0,0,11,0
</data>
 </layer>
 <objectgroup id="2" name="objects_slide">
  <object id="1" name="slidearea" x="560" y="0" width="40" height="1920">
   <properties>
    <property name="lock" type="bool" value="true"/>
    <property name="solid" type="bool" value="true"/>
   </properties>
  </object>
  <object id="2" name="transition" x="520" y="1920" width="120" height="40">
   <properties>
    <property name="map" value="chapter1/farm_world/garden_manorladders"/>
    <property name="marker" value="the_slide"/>
   </properties>
  </object>
 </objectgroup>
 <objectgroup id="3" name="markers">
  <object id="3" name="entry" x="580" y="20">
   <properties>
    <property name="player_state" value="SLIDE"/>
   </properties>
   <point/>
  </object>
 </objectgroup>
</map>
