<?xml version="1.0" encoding="UTF-8"?>
<map version="1.10" tiledversion="1.12.2" orientation="orthogonal" renderorder="right-down" width="36" height="24" tilewidth="40" tileheight="40" infinite="0" backgroundcolor="#8586ad" nextlayerid="5" nextobjectid="17">
 <editorsettings>
  <export target="rural_lake.lua" format="lua"/>
 </editorsettings>
 <properties>
  <property name="light" type="bool" value="true"/>
 </properties>
 <tileset firstgid="1" source="../../tilesets/rural.tsx"/>
 <layer id="1" name="Tile Layer 1" width="36" height="24">
  <data encoding="csv">
32,32,32,32,32,32,32,32,32,32,32,32,32,32,32,32,32,32,32,32,31,4,0,17,17,14,14,14,14,14,14,14,14,14,14,14,
32,32,32,32,32,32,32,32,32,32,32,32,32,32,32,32,32,32,32,32,31,4,0,17,17,14,14,14,14,14,14,14,14,14,14,14,
32,32,32,32,32,32,32,32,32,32,32,32,32,32,32,32,32,32,32,32,31,4,0,17,17,14,14,14,14,14,14,14,14,14,14,14,
32,32,32,32,32,32,32,32,32,32,32,32,32,32,32,32,32,32,32,32,31,4,0,17,17,14,14,14,14,14,14,14,14,14,14,14,
32,32,32,32,32,32,32,32,32,32,32,32,32,32,32,32,32,32,32,31,5,8,0,17,17,14,14,14,14,14,14,14,14,14,14,14,
32,32,32,32,32,32,32,32,32,32,32,32,32,32,32,32,32,32,32,31,4,0,17,17,17,14,14,14,14,14,14,14,14,14,14,14,
32,32,32,32,32,32,32,32,32,32,32,32,32,32,32,32,32,32,32,31,4,0,17,17,17,14,14,14,14,14,14,14,14,14,14,14,
32,32,32,32,32,32,32,32,32,32,32,32,32,32,32,32,32,32,31,5,8,0,17,17,17,14,14,14,14,14,14,14,14,14,14,14,
32,32,32,32,32,32,32,32,32,32,32,32,32,32,32,32,32,32,31,4,0,0,17,17,17,14,14,14,14,14,14,14,14,14,14,14,
32,32,32,32,32,32,32,32,32,32,32,32,32,32,32,32,32,32,31,4,0,17,17,17,17,14,14,14,14,14,14,14,14,14,14,14,
24,24,24,24,24,24,24,24,12,12,12,12,12,32,32,32,32,31,5,8,0,17,17,17,17,14,14,14,14,14,14,14,14,14,14,14,
41,41,41,41,41,41,41,12,12,12,12,12,12,12,12,12,32,31,4,0,17,17,17,17,17,14,14,14,14,14,14,14,14,14,14,14,
22,22,22,22,22,22,12,12,12,12,12,12,12,12,12,32,32,31,4,0,17,17,17,17,17,14,14,14,14,14,14,14,14,14,14,14,
22,22,22,22,22,22,12,12,12,12,12,12,12,12,12,32,32,31,4,0,17,17,17,17,17,14,14,14,14,14,14,14,14,14,14,14,
43,43,43,43,43,12,12,12,12,12,12,12,32,32,32,32,32,31,4,0,17,17,17,17,17,14,14,14,14,14,14,14,14,14,14,14,
24,24,24,24,24,12,12,12,12,32,32,32,32,32,32,32,32,31,6,7,0,17,17,17,17,14,14,14,14,14,14,14,14,14,14,14,
32,32,32,32,32,32,32,32,32,32,32,32,32,32,32,32,32,32,31,4,0,17,17,17,17,14,14,14,14,14,14,14,14,14,14,14,
32,32,32,32,32,32,32,32,32,32,32,32,32,32,32,32,32,32,31,4,0,0,17,17,17,14,14,14,14,14,14,14,14,14,14,14,
32,32,32,32,32,32,32,32,32,32,32,32,32,32,32,32,32,32,31,6,7,0,17,17,17,14,14,14,14,14,14,14,14,14,14,14,
32,32,32,32,32,32,32,32,32,32,32,32,32,32,32,32,32,32,32,31,4,0,17,17,17,14,14,14,14,14,14,14,14,14,14,14,
32,32,32,32,32,32,32,32,32,32,32,32,32,32,32,32,32,32,32,31,4,0,17,17,17,14,14,14,14,14,14,14,14,14,14,14,
32,32,32,32,32,32,32,32,32,32,32,32,32,32,32,32,32,32,32,31,6,7,0,17,17,14,14,14,14,14,14,14,14,14,14,14,
32,32,32,32,32,32,32,32,32,32,32,32,32,32,32,32,32,32,32,32,31,4,0,17,17,14,14,14,14,14,14,14,14,14,14,14,
32,32,32,32,32,32,32,32,32,32,32,32,32,32,32,32,32,32,32,32,31,4,0,17,17,14,14,14,14,14,14,14,14,14,14,14
</data>
 </layer>
 <objectgroup id="4" name="collision">
  <object id="6" x="840" y="0" width="40" height="200"/>
  <object id="7" x="800" y="160" width="40" height="160"/>
  <object id="8" x="760" y="280" width="40" height="160"/>
  <object id="9" x="720" y="400" width="40" height="240"/>
  <object id="10" x="760" y="600" width="40" height="160"/>
  <object id="11" x="800" y="760" width="40" height="120"/>
  <object id="12" x="840" y="880" width="40" height="80"/>
  <object id="13" x="0" y="960" width="840" height="40"/>
  <object id="14" x="-40" y="640" width="40" height="320"/>
  <object id="15" x="-40" y="0" width="40" height="400"/>
  <object id="16" x="0" y="-40" width="840" height="40"/>
 </objectgroup>
 <objectgroup id="3" name="markers">
  <object id="2" name="entry" x="40" y="520">
   <point/>
  </object>
 </objectgroup>
 <objectgroup id="2" name="objects_party">
  <object id="1" name="transition" x="-40" y="400" width="40" height="240">
   <properties>
    <property name="map" value="chapter1/rural_mainstreet"/>
    <property name="marker" value="to_lake"/>
   </properties>
  </object>
 </objectgroup>
</map>
