<?xml version="1.0" encoding="UTF-8"?>
<map version="1.10" tiledversion="1.12.2" orientation="orthogonal" renderorder="right-down" width="16" height="12" tilewidth="40" tileheight="40" infinite="0" nextlayerid="9" nextobjectid="91">
 <editorsettings>
  <export target="rural_classroom.lua" format="lua"/>
 </editorsettings>
 <properties>
  <property name="keepmusic" type="bool" value="true"/>
  <property name="light" type="bool" value="true"/>
  <property name="name" value="Ruraltown - Classroom"/>
 </properties>
 <tileset firstgid="1" source="../../tilesets/rural.tsx"/>
 <tileset firstgid="101" source="../../tilesets/rural_buildings.tsx"/>
 <layer id="1" name="Tile Layer 1" width="16" height="12">
  <data encoding="csv">
0,0,0,0,0,0,0,0,0,0,0,0,0,0,0,0,
0,0,45,35,35,35,35,35,35,35,35,35,35,46,0,0,
0,0,35,35,35,35,35,35,35,35,35,35,35,35,0,0,
0,0,36,36,36,36,36,36,36,36,36,36,36,36,0,0,
0,0,34,34,34,34,34,34,34,34,34,34,34,34,0,0,
0,0,34,34,34,34,34,34,34,34,34,34,34,34,0,0,
0,0,34,34,34,34,34,34,34,34,34,34,34,34,0,0,
0,0,34,34,34,34,34,34,34,34,34,34,34,34,0,0,
0,0,34,34,34,34,34,34,34,34,34,34,34,34,0,0,
0,0,34,34,34,34,34,34,34,34,34,34,34,34,0,0,
0,0,61,34,34,34,34,34,34,34,34,34,34,62,0,0,
0,0,0,0,0,0,0,0,0,0,0,0,0,0,0,0
</data>
 </layer>
 <objectgroup color="#ff007f" id="2" name="objects" locked="1">
  <object id="2" gid="106" x="100" y="160" width="80" height="120"/>
  <object id="56" gid="123" x="220" y="130" width="260" height="80"/>
 </objectgroup>
 <objectgroup color="#ff007f" id="5" name="objects_party">
  <object id="18" gid="122" x="180" y="240" width="80" height="50"/>
  <object id="19" gid="122" x="310" y="240" width="80" height="50"/>
  <object id="20" gid="122" x="440" y="240" width="80" height="50"/>
  <object id="21" gid="122" x="180" y="320" width="80" height="50"/>
  <object id="22" gid="122" x="310" y="320" width="80" height="50"/>
  <object id="23" gid="122" x="440" y="320" width="80" height="50"/>
  <object id="24" gid="122" x="440" y="400" width="80" height="50"/>
  <object id="25" gid="122" x="310" y="400" width="80" height="50"/>
  <object id="26" gid="122" x="180" y="400" width="80" height="50"/>
  <object id="57" name="interactable" x="220" y="130" width="260" height="30">
   <properties>
    <property name="text1_1" value="* (Whiteboard.)"/>
    <property name="text1_2" value="* (Hasn't been much to say about this thing...)"/>
    <property name="text2_1" value="* (Not much to say about this thing.)"/>
   </properties>
  </object>
  <object id="63" name="npc" x="460" y="301.333" width="40" height="40">
   <properties>
    <property name="actor" value="starwalker"/>
    <property name="text" value="* What the hell is this class bro."/>
   </properties>
  </object>
  <object id="64" name="npc" x="460" y="220" width="40" height="40">
   <properties>
    <property name="actor" value="yoori"/>
    <property name="text" value="[voice:none][sound:yoori]* I love books!"/>
   </properties>
  </object>
  <object id="66" name="npc" x="330" y="230" width="40" height="40">
   <properties>
    <property name="actor" value="blunderbuss"/>
    <property name="text" value="* SWEETCHEEK."/>
   </properties>
  </object>
  <object id="67" name="npc" x="330" y="300" width="40" height="40">
   <properties>
    <property name="actor" value="glaggle"/>
    <property name="solid" type="bool" value="false"/>
    <property name="text" value="* Dude."/>
   </properties>
  </object>
  <object id="68" name="npc" x="203" y="307.5" width="40" height="40">
   <properties>
    <property name="actor" value="handle"/>
    <property name="text" value="* Look at my encirclement!!!"/>
    <property name="turn" type="bool" value="true"/>
   </properties>
  </object>
  <object id="69" name="npc" x="330" y="384" width="40" height="40">
   <properties>
    <property name="actor" value="grace_lw"/>
    <property name="text" value="[face:kawaii_neutral, -19, -13]* Uh,[wait:5] hey."/>
    <property name="turn" type="bool" value="true"/>
   </properties>
  </object>
  <object id="70" name="npc" x="460" y="384" width="40" height="40">
   <properties>
    <property name="actor" value="tundra_lw"/>
    <property name="text" value="[face:smile_blush_blind, -23, -7]* Yo!"/>
    <property name="turn" type="bool" value="true"/>
   </properties>
  </object>
  <object id="79" name="transition" x="100" y="120" width="80" height="40">
   <properties>
    <property name="exit_sound" value="doorclose"/>
    <property name="facing" value="down"/>
    <property name="map" value="chapter1/rural_school_inside"/>
    <property name="marker" value="to_class"/>
    <property name="sound" value="dooropen"/>
   </properties>
  </object>
 </objectgroup>
 <objectgroup id="7" name="objects_floaters">
  <object id="65" name="npc" x="200" y="180" width="40" height="40">
   <properties>
    <property name="actor" value="walrus"/>
    <property name="solid" type="bool" value="false"/>
    <property name="text" value="* Yeah,[wait:5] man."/>
   </properties>
  </object>
 </objectgroup>
 <objectgroup id="6" name="objects_test" locked="1"/>
 <objectgroup color="#0000ff" id="3" name="collision">
  <object id="3" x="40" y="120" width="40" height="320"/>
  <object id="4" x="40" y="440" width="560" height="40"/>
  <object id="5" x="560" y="120" width="40" height="320"/>
  <object id="6" x="180" y="120" width="380" height="40"/>
  <object id="45" x="180" y="210" width="80" height="10"/>
  <object id="81" x="80" y="120" width="20" height="40"/>
  <object id="83" x="310" y="210" width="80" height="10"/>
  <object id="84" x="440" y="210" width="80" height="10"/>
  <object id="85" x="310" y="290" width="80" height="10"/>
  <object id="86" x="180" y="290" width="80" height="10"/>
  <object id="87" x="440" y="290" width="80" height="10"/>
  <object id="88" x="310" y="370" width="80" height="10"/>
  <object id="89" x="180" y="370" width="80" height="10"/>
  <object id="90" x="440" y="370" width="80" height="10"/>
 </objectgroup>
 <objectgroup color="#aa00ff" id="4" name="markers">
  <object id="7" name="spawn" x="140" y="240">
   <point/>
  </object>
  <object id="72" name="vess_outbound" x="240" y="-70">
   <point/>
  </object>
  <object id="73" name="front_of_door" x="140" y="180">
   <point/>
  </object>
  <object id="74" name="vess_walk3" x="220" y="410">
   <point/>
  </object>
  <object id="75" name="vess_walk" x="140" y="420">
   <point/>
  </object>
  <object id="76" name="vess_walk2" x="220" y="420">
   <point/>
  </object>
  <object id="77" name="blush_here" x="140" y="300">
   <point/>
  </object>
  <object id="82" name="to_hall" x="140" y="200">
   <point/>
  </object>
 </objectgroup>
 <objectgroup color="#ffff00" id="8" name="controllers">
  <object id="71" name="toggle" x="440" y="-60">
   <properties>
    <property name="flag" value="start_cutscene_active"/>
    <property name="target1" type="object" value="65"/>
    <property name="target2" type="object" value="66"/>
    <property name="target3" type="object" value="64"/>
    <property name="target4" type="object" value="68"/>
    <property name="target5" type="object" value="63"/>
    <property name="target6" type="object" value="69"/>
    <property name="target7" type="object" value="70"/>
    <property name="target8" type="object" value="67"/>
   </properties>
   <point/>
  </object>
  <object id="78" name="toggle" x="30" y="-70">
   <properties>
    <property name="flag" value="start_cutscene_active"/>
    <property name="inverted" type="bool" value="true"/>
    <property name="target1" type="object" value="79"/>
   </properties>
   <point/>
  </object>
 </objectgroup>
</map>
