<?xml version="1.0" encoding="UTF-8"?>
<map version="1.10" tiledversion="1.12.2" orientation="orthogonal" renderorder="right-down" width="23" height="62" tilewidth="40" tileheight="40" infinite="0" nextlayerid="8" nextobjectid="38">
 <editorsettings>
  <export target="farm7_stage.lua" format="lua"/>
 </editorsettings>
 <properties>
  <property name="name" value="Wheat Field - Show"/>
 </properties>
 <tileset firstgid="1" source="../../../tilesets/farm_world.tsx"/>
 <tileset firstgid="101" source="../../../tilesets/garden.tsx"/>
 <tileset firstgid="201" source="../../../tilesets/farm_world_extras.tsx"/>
 <layer id="1" name="Tile Layer 1" width="23" height="62">
  <data encoding="csv">
3,11,13,3,4,4,14,13,12,4,11,11,14,2,4,11,11,3,2,4,3,3,11,
2,4,2,3,1,13,13,11,14,13,1,3,2,11,11,4,11,13,13,13,1,1,11,
14,4,11,12,4,11,2,12,12,11,11,3,12,11,14,4,11,11,1,11,14,13,3,
2,12,2,12,2,11,13,13,14,1,4,2,12,4,4,1,2,12,1,13,2,1,3,
12,3,4,4,11,4,1,2,14,2,14,14,4,11,13,2,2,4,11,2,14,11,13,
13,4,1,2,11,2,11,13,12,4,14,12,3,11,2,4,1,14,13,12,12,1,13,
14,13,2,1,13,3,3,1,12,14,14,11,2,4,13,1,3,14,13,3,14,3,2,
1,4,1,3,12,4,1,3,14,14,14,4,3,14,14,2,14,13,1,2,4,12,1,
4,13,4,11,1,4,12,14,4,4,2,4,2,14,14,4,14,13,11,12,4,11,11,
1,2,13,1,13,2,3,3,13,14,2,11,14,4,12,12,13,12,4,13,12,2,2,
4,11,1,2,2,2,11,11,14,1,11,13,14,3,14,13,14,14,11,14,12,4,1,
2,2,1,1,12,12,12,13,2,14,4,11,1,11,13,1,3,4,13,12,1,11,3,
14,1,14,14,13,3,22,22,21,22,22,22,22,21,22,21,21,3,2,14,1,3,1,
12,2,14,3,12,21,21,5,5,6,5,5,5,6,6,6,22,21,11,3,12,12,12,
2,2,3,3,12,21,5,5,5,6,5,6,6,6,6,6,5,22,4,2,14,4,3,
3,12,1,11,1,21,6,5,5,5,5,5,5,5,6,5,6,21,2,11,14,12,1,
2,14,13,12,4,22,5,5,5,5,6,5,6,6,5,6,5,22,14,12,3,12,14,
2,3,14,11,11,21,5,6,6,6,6,5,5,5,5,5,6,21,3,2,13,14,14,
4,1,2,12,2,22,6,6,6,5,6,6,6,5,5,6,6,21,11,14,12,4,14,
13,3,2,11,2,21,5,6,6,5,5,5,6,5,5,5,5,21,13,11,3,14,4,
11,11,11,14,3,21,5,5,6,5,5,6,5,5,5,6,6,21,11,11,13,3,12,
2,2,2,4,2,22,5,5,6,5,6,6,6,5,6,6,6,21,12,13,12,11,11,
2,13,11,12,1,21,6,6,6,6,5,6,5,6,6,6,5,22,14,4,13,3,2,
14,3,14,12,1,21,5,6,5,5,5,5,6,6,5,5,5,22,12,12,11,1,4,
12,3,1,3,2,22,6,6,6,5,5,5,5,6,5,5,6,22,12,12,12,12,12,
3,1,2,1,14,22,5,6,6,6,5,5,5,5,6,5,5,22,1,3,1,11,3,
11,12,1,3,14,21,6,5,6,6,6,6,5,6,6,5,5,21,12,3,3,1,13,
11,3,1,14,2,21,5,5,6,5,5,6,5,6,6,6,6,22,13,2,4,13,1,
13,1,1,13,1,22,6,6,5,6,5,6,6,6,6,6,6,22,3,11,4,4,13,
13,11,1,11,14,21,21,5,6,5,6,6,6,5,5,5,21,22,12,4,1,12,14,
3,11,13,1,1,13,22,21,22,22,5,6,6,22,21,21,21,14,4,14,1,12,4,
3,11,13,1,13,2,14,12,1,21,6,6,5,22,3,11,11,11,1,12,1,4,2,
2,14,4,13,13,12,3,13,11,22,5,5,6,22,11,14,12,1,1,1,1,11,11,
13,14,1,1,12,13,13,2,14,21,5,5,6,22,1,2,11,11,12,4,1,12,11,
12,3,11,12,4,14,13,2,13,21,6,6,6,22,13,14,12,14,11,13,3,1,3,
2,13,4,14,2,3,1,1,11,21,5,5,5,22,11,3,11,11,12,11,2,12,3,
2,14,11,11,4,13,11,1,12,21,6,5,5,21,12,4,13,13,3,1,3,13,1,
14,13,4,4,14,3,4,13,12,21,5,5,6,21,12,2,3,1,1,3,3,1,12,
12,2,12,3,3,1,22,21,22,21,5,5,6,21,1,11,1,2,13,2,13,1,4,
3,13,2,4,3,2,22,6,5,5,6,5,5,22,14,13,11,11,14,14,3,1,4,
2,14,11,13,3,4,22,6,5,6,6,5,6,21,1,11,12,13,2,14,11,11,4,
11,13,3,1,2,2,21,5,5,6,5,5,5,21,11,1,11,1,2,2,14,13,13,
1,4,3,13,2,14,22,21,21,21,5,6,5,22,12,13,3,2,12,3,13,3,2,
2,12,3,12,14,14,12,4,12,22,6,6,5,22,12,3,3,13,13,14,2,13,13,
13,12,4,12,13,2,3,2,12,21,6,5,6,21,12,11,1,13,11,12,1,3,3,
12,1,4,14,11,12,2,3,3,21,6,6,6,21,2,4,13,14,2,12,11,3,2,
12,11,14,11,13,2,3,4,1,21,5,5,6,21,13,11,13,3,4,13,1,3,13,
4,14,1,103,103,103,103,3,13,21,5,6,6,22,3,2,12,12,1,3,11,1,4,
2,13,12,103,103,103,103,3,3,21,6,6,5,22,11,3,12,14,4,3,3,2,4,
3,2,4,114,103,103,103,2,14,22,6,6,6,21,12,14,11,11,4,3,12,4,2,
11,4,4,103,103,103,103,4,13,22,5,6,6,22,1,3,11,11,13,13,3,1,11,
2,103,103,103,103,103,103,103,103,21,5,6,5,21,2,3,3,103,103,103,13,14,13,
2,103,103,103,103,103,103,112,103,22,5,6,5,21,2,12,3,103,103,103,3,3,1,
12,103,103,103,103,103,101,103,103,22,5,6,6,22,2,103,103,103,103,103,12,1,2,
4,103,103,103,103,103,103,103,11,21,6,6,5,21,14,103,103,103,103,103,103,103,103,
103,103,103,103,103,103,103,103,103,21,5,5,5,21,13,103,103,103,103,103,103,103,103,
103,103,103,103,103,103,103,103,103,22,5,5,6,21,11,103,103,103,103,103,103,103,103,
103,113,103,103,103,103,103,103,103,22,6,6,5,21,103,101,103,103,103,103,103,103,103,
103,103,103,103,104,103,102,103,103,22,5,5,6,22,103,103,103,103,103,111,103,103,103,
103,103,103,103,103,103,103,103,103,22,6,5,6,21,103,103,103,103,103,114,103,103,103,
103,101,103,103,103,103,103,103,103,21,5,5,5,21,103,103,103,12,103,103,103,103,103,
103,103,103,103,103,103,103,103,103,22,6,6,5,22,103,4,103,103,103,103,103,103,103
</data>
 </layer>
 <layer id="5" name="Tile Layer 2" width="23" height="62" locked="1">
  <data encoding="csv">
0,0,0,0,0,0,0,0,0,0,0,0,0,0,0,0,0,0,0,0,0,0,0,
0,0,0,0,0,0,0,0,0,0,0,0,0,0,0,0,0,0,0,0,0,0,0,
0,0,0,0,0,0,0,0,0,0,0,0,0,0,0,0,0,0,0,0,0,0,0,
0,0,0,0,0,0,0,0,0,0,0,0,0,0,0,0,0,0,0,0,0,0,0,
0,0,0,0,0,0,0,0,0,0,0,0,0,0,0,0,0,0,0,0,0,0,0,
0,0,0,0,0,0,0,0,0,0,0,0,0,0,0,0,0,0,0,0,0,0,0,
0,0,0,0,0,0,0,0,0,0,0,0,0,0,0,0,0,0,0,0,0,0,0,
0,0,0,0,0,0,0,0,0,0,0,0,0,0,0,0,0,0,0,0,0,0,0,
0,0,0,0,0,0,0,0,0,0,0,0,0,0,0,0,0,0,0,0,0,0,0,
0,0,0,10,8,9,8,9,9,9,9,8,9,8,8,8,8,9,9,10,0,0,0,
0,8,9,8,7,7,7,7,7,7,7,7,7,7,7,7,7,7,7,9,9,9,0,
7,7,7,7,7,7,7,7,7,7,7,7,7,7,7,7,7,7,7,7,7,7,7,
7,7,7,7,7,7,7,7,7,7,7,7,7,7,7,7,7,7,7,7,7,7,7,
7,7,7,7,7,7,7,7,7,7,7,7,7,7,7,7,7,7,7,7,7,7,7,
7,7,7,7,7,7,7,7,7,7,7,7,7,7,7,7,7,7,7,7,7,7,7,
7,7,7,7,7,7,7,7,7,7,7,7,7,7,7,7,7,7,7,7,7,7,7,
7,7,7,7,7,7,7,7,7,7,7,7,7,7,7,7,7,7,7,7,7,7,7,
7,7,7,7,7,7,7,7,7,7,7,7,7,7,7,7,7,7,7,7,7,7,7,
7,7,7,7,7,7,7,7,7,7,7,7,7,7,7,7,7,7,7,7,7,7,7,
0,22,17,17,17,17,17,17,17,17,17,17,17,17,17,17,17,17,17,17,17,22,0,
0,0,22,5,6,5,6,0,0,0,0,0,0,0,0,0,0,5,5,6,22,0,0,
0,0,0,22,5,6,6,0,0,0,0,0,0,0,0,0,0,6,5,21,0,0,0,
0,0,0,0,22,6,6,0,0,0,0,0,0,0,0,0,0,6,21,0,0,0,0,
0,0,0,0,0,0,0,0,0,0,0,0,0,0,0,0,0,0,0,0,0,0,0,
0,0,0,0,0,0,0,0,0,0,0,0,0,0,0,0,0,0,0,0,0,0,0,
0,0,0,0,0,0,0,0,0,0,0,0,0,0,0,0,0,0,0,0,0,0,0,
0,0,0,0,0,0,0,0,0,0,0,0,0,0,0,0,0,0,0,0,0,0,0,
0,0,0,0,0,0,0,0,0,0,0,0,0,0,0,0,0,0,0,0,0,0,0,
0,0,0,0,0,0,0,0,0,0,0,0,0,0,0,0,0,0,0,0,0,0,0,
0,0,0,0,0,0,0,0,0,0,0,0,0,0,0,0,0,0,0,0,0,0,0,
0,0,0,0,0,0,0,0,0,0,0,0,0,0,0,0,0,0,0,0,0,0,0,
0,0,0,0,0,0,0,0,0,0,0,0,0,0,0,0,0,0,0,0,0,0,0,
0,0,0,0,0,0,0,0,0,0,0,0,0,0,0,0,0,0,0,0,0,0,0,
0,0,0,0,0,0,0,0,0,0,0,0,0,0,0,0,0,0,0,0,0,0,0,
0,0,0,0,0,0,0,0,0,0,0,0,0,0,0,0,0,0,0,0,0,0,0,
0,0,0,0,0,0,0,0,0,0,0,0,0,0,0,0,0,0,0,0,0,0,0,
0,0,0,0,0,0,0,0,0,0,0,0,0,0,0,0,0,0,0,0,0,0,0,
0,0,0,0,0,0,0,0,0,0,0,0,0,0,0,0,0,0,0,0,0,0,0,
0,0,0,0,0,0,0,0,0,0,0,0,0,0,0,0,0,0,0,0,0,0,0,
0,0,0,0,0,0,0,0,0,0,0,0,0,0,0,0,0,0,0,0,0,0,0,
0,0,0,0,0,0,0,0,0,0,0,0,0,0,0,0,0,0,0,0,0,0,0,
0,0,0,0,0,0,0,0,0,0,0,0,0,0,0,0,0,0,0,0,0,0,0,
0,0,0,0,0,0,0,0,0,0,0,0,0,0,0,0,0,0,0,0,0,0,0,
0,0,0,0,0,0,0,0,0,0,0,0,0,0,0,0,0,0,0,0,0,0,0,
0,0,0,0,0,0,0,0,0,0,0,0,0,0,0,0,0,0,0,0,0,0,0,
0,0,0,0,0,0,0,0,0,0,0,0,0,0,0,0,0,0,0,0,0,0,0,
0,0,0,0,0,0,0,0,0,0,0,0,0,0,0,0,0,0,0,0,0,0,0,
0,0,0,0,0,0,0,0,0,0,0,0,0,0,0,0,0,0,0,0,0,0,0,
0,0,0,0,0,0,0,0,0,0,0,0,0,0,0,0,0,0,0,0,0,0,0,
0,0,0,0,0,0,0,0,0,0,0,0,0,0,0,0,0,0,0,0,0,0,0,
0,0,0,0,0,0,0,0,0,0,0,0,0,0,0,0,0,0,0,0,0,0,0,
0,0,0,0,0,0,0,0,0,0,0,0,0,0,0,0,0,0,0,0,0,0,0,
0,0,0,0,0,0,0,0,0,0,0,0,0,0,0,0,0,0,0,0,0,0,0,
0,0,0,0,0,0,0,0,0,0,0,0,0,0,0,0,0,0,0,0,0,0,0,
0,0,0,0,0,0,0,0,0,0,0,0,0,0,0,0,0,0,0,0,0,0,0,
0,0,0,0,0,0,0,0,0,0,0,0,0,0,0,0,0,0,0,0,0,0,0,
0,0,0,0,0,0,0,0,0,0,0,0,0,0,0,0,0,0,0,0,0,0,0,
0,0,0,0,0,0,0,0,0,0,0,0,0,0,0,0,0,0,0,0,0,0,0,
0,0,0,0,0,0,0,0,0,0,0,0,0,0,0,0,0,0,0,0,0,0,0,
0,0,0,0,0,0,0,0,0,0,0,0,0,0,0,0,0,0,0,0,0,0,0,
0,0,0,0,0,0,0,0,0,0,0,0,0,0,0,0,0,0,0,0,0,0,0,
0,0,0,0,0,0,0,0,0,0,0,0,0,0,0,0,0,0,0,0,0,0,0
</data>
 </layer>
 <objectgroup id="4" name="objects_dark">
  <object id="8" gid="230" x="200" y="880" width="520" height="360"/>
  <object id="13" gid="233" x="280" y="1000" width="80" height="120"/>
  <object id="14" gid="2147483881" x="560" y="1000" width="80" height="120"/>
 </objectgroup>
 <objectgroup id="6" name="objects_stage" locked="1">
  <object id="9" gid="231" x="200" y="880" width="520" height="360"/>
  <object id="5" x="200" y="520" width="520" height="360"/>
 </objectgroup>
 <objectgroup id="2" name="objects_party">
  <object id="2" name="savepoint" x="320" y="1600" width="40" height="40">
   <properties>
    <property name="heals" type="bool" value="true"/>
    <property name="marker" value="spawn"/>
    <property name="text1" value="* (The show will start soon.)"/>
    <property name="text2" value="* (You are filled with the power of reserved seating.)"/>
    <property name="text_once" type="bool" value="true"/>
   </properties>
  </object>
  <object id="3" name="transition" x="360" y="2480" width="200" height="40">
   <properties>
    <property name="map" value="chapter1/farm_world/farm7_gate3"/>
    <property name="marker" value="to_stage"/>
   </properties>
  </object>
  <object id="15" name="npc" x="440" y="640" width="40" height="40">
   <properties>
    <property name="actor" value="zobate"/>
    <property name="text1_1" value="* ...[wait:5]what?"/>
    <property name="text2_1" value="* ..."/>
   </properties>
  </object>
 </objectgroup>
 <objectgroup color="#0000ff" id="7" name="collision">
  <object id="16" x="320" y="1720" width="40" height="760"/>
  <object id="17" x="240" y="1720" width="80" height="40"/>
  <object id="18" x="200" y="1520" width="40" height="200"/>
  <object id="19" x="240" y="1480" width="120" height="40"/>
  <object id="20" x="320" y="1240" width="40" height="240"/>
  <object id="21" x="560" y="1240" width="40" height="1240"/>
  <object id="22" x="240" y="1240" width="80" height="40"/>
  <object id="23" x="200" y="1200" width="40" height="40"/>
  <object id="24" x="160" y="920" width="40" height="280"/>
  <object id="25" x="600" y="1240" width="80" height="40"/>
  <object id="26" x="680" y="1200" width="40" height="40"/>
  <object id="27" x="720" y="920" width="40" height="280"/>
  <object id="28" x="120" y="880" width="40" height="40"/>
  <object id="29" x="80" y="840" width="40" height="40"/>
  <object id="30" x="40" y="800" width="40" height="40"/>
  <object id="31" x="0" y="760" width="40" height="40"/>
  <object id="32" x="760" y="880" width="40" height="40"/>
  <object id="33" x="800" y="840" width="40" height="40"/>
  <object id="34" x="840" y="800" width="40" height="40"/>
  <object id="35" x="880" y="760" width="40" height="40"/>
  <object id="36" x="40" y="720" width="160" height="40"/>
  <object id="37" x="720" y="720" width="160" height="40"/>
 </objectgroup>
 <objectgroup id="3" name="markers">
  <object id="1" name="entry" x="460" y="2440">
   <point/>
  </object>
  <object id="4" name="spawn" x="400" y="1620">
   <point/>
  </object>
 </objectgroup>
</map>
