<?xml version="1.0" encoding="UTF-8"?>
<map version="1.11" tiledversion="1.12.2" orientation="orthogonal" renderorder="right-down" width="130" height="20" tilewidth="40" tileheight="40" infinite="0" nextlayerid="7" nextobjectid="121">
 <editorsettings>
  <export target="farm10_real.lua" format="lua"/>
 </editorsettings>
 <properties>
  <property name="name" value="Wheat Field - Destroyed Field"/>
 </properties>
 <tileset firstgid="1" source="../../../tilesets/farm_world.tsx"/>
 <tileset firstgid="101" source="../../../tilesets/farm_world_extras.tsx"/>
 <layer id="1" name="Camada de Blocos 1" width="130" height="20">
  <data encoding="csv">
2,2,2,2,2,2,2,2,21,21,6,6,6,6,25,35,26,35,36,36,26,36,35,25,36,26,26,36,25,26,26,26,25,25,35,35,35,25,36,36,25,36,35,36,26,26,35,36,26,36,35,35,25,35,26,35,36,36,25,25,36,36,26,26,35,26,26,35,26,25,36,35,25,26,26,36,35,36,35,35,36,26,25,35,25,35,25,36,35,25,35,35,36,26,36,25,25,26,26,26,26,35,25,25,35,25,36,25,25,25,35,35,36,36,26,25,26,36,26,36,5,5,6,6,6,6,6,6,6,6,
2,2,2,2,2,2,2,2,21,21,6,6,6,36,26,36,26,25,35,35,25,26,26,36,25,35,25,26,36,36,25,35,36,26,35,26,26,36,26,36,26,35,26,35,26,25,26,35,26,36,25,25,26,36,26,35,36,25,35,25,35,26,35,35,35,26,35,26,26,36,25,36,35,35,25,26,26,25,26,26,35,35,35,36,25,26,35,36,36,26,26,25,26,25,35,25,35,26,26,25,35,26,36,36,25,35,35,35,25,26,36,36,36,25,26,36,36,35,25,26,26,25,5,6,6,6,6,6,6,6,
2,2,2,2,2,2,2,2,21,21,6,6,6,35,35,36,25,25,26,26,26,36,25,35,26,36,36,36,25,35,26,26,25,25,25,36,25,25,35,26,26,36,25,26,26,35,26,35,36,26,25,26,25,26,26,35,26,36,25,35,26,25,26,36,26,35,36,35,35,25,25,36,35,26,35,26,35,25,36,36,26,25,26,35,35,26,25,25,25,25,26,35,35,36,26,35,25,26,36,26,25,25,26,35,36,35,25,35,36,36,25,36,36,35,26,36,26,26,35,25,36,26,6,6,6,6,6,6,6,6,
21,2,2,2,2,2,2,2,21,21,15,15,15,35,35,26,26,25,36,36,26,36,25,26,26,36,36,35,25,35,26,35,35,25,26,25,26,25,25,25,36,36,35,36,26,35,36,25,36,25,26,25,26,36,35,36,35,25,35,36,25,26,35,26,36,35,25,25,35,35,25,25,26,26,25,26,36,26,25,25,35,36,36,35,35,25,35,36,35,25,35,35,26,26,36,25,26,25,25,26,25,36,26,35,36,35,36,35,35,35,36,35,36,25,25,36,25,35,25,25,26,36,26,6,6,6,6,6,6,6,
21,2,2,2,2,2,2,2,21,6,15,15,25,35,35,35,26,25,35,35,26,26,26,36,36,26,26,35,26,26,26,36,36,26,35,35,26,35,35,25,35,35,35,36,36,36,25,25,36,36,25,35,26,36,26,36,26,36,36,25,35,36,36,25,26,26,36,25,25,35,35,35,35,25,25,36,36,26,36,35,35,25,36,36,36,36,35,36,26,35,26,35,35,26,35,26,25,35,26,26,26,36,25,26,25,36,25,26,26,36,35,26,35,36,35,35,26,26,26,35,36,26,36,6,6,6,6,6,6,6,
21,21,21,21,21,21,21,21,6,6,15,15,35,36,25,26,26,36,35,35,26,36,36,36,25,26,26,35,36,25,25,35,35,26,35,35,35,36,36,26,35,26,26,36,26,25,36,25,26,25,36,36,36,36,25,35,36,26,26,25,26,36,25,25,25,35,25,35,36,26,36,26,36,36,26,35,26,35,36,26,26,35,26,25,25,35,25,25,36,26,25,36,26,26,26,25,35,35,36,26,35,25,26,35,26,26,26,25,36,26,25,25,35,35,35,35,25,35,25,35,26,36,35,6,6,6,6,6,6,6,
6,21,21,21,6,6,21,21,6,6,15,36,35,26,25,36,36,26,26,36,35,35,36,36,35,35,36,36,26,26,25,35,36,36,36,25,36,26,26,26,35,25,35,36,35,26,36,25,35,36,35,26,25,25,36,25,26,25,35,25,25,36,26,26,36,35,36,25,35,25,35,35,35,35,25,36,36,36,25,26,25,25,26,26,35,35,36,36,36,26,25,35,35,35,25,26,26,36,35,25,26,36,35,36,35,25,35,35,26,36,36,26,26,26,36,26,26,36,26,36,35,35,35,35,6,6,6,6,6,6,
6,6,6,6,6,6,6,6,6,6,15,35,25,36,25,26,36,26,35,26,26,26,36,25,35,26,36,35,25,36,36,25,36,25,35,36,25,36,36,36,36,26,26,35,35,26,35,26,36,36,35,26,35,25,26,26,26,35,36,35,35,25,26,26,25,35,36,25,36,26,36,25,36,35,25,26,26,35,25,26,36,25,36,25,36,35,35,26,26,25,35,35,35,25,26,26,36,25,25,25,26,35,25,25,25,35,36,36,35,26,36,25,25,25,36,26,35,35,26,35,35,36,35,25,6,6,6,6,6,6,
6,6,6,6,6,6,6,6,6,6,15,35,36,36,36,25,26,25,35,25,25,35,36,26,36,36,36,26,25,26,35,26,36,26,35,35,35,35,36,26,35,36,35,36,36,36,36,26,25,36,25,35,35,35,26,26,36,26,36,36,35,35,26,36,26,26,25,25,26,26,35,36,26,26,35,25,26,26,26,35,26,35,25,35,26,26,35,25,36,36,36,25,26,25,35,26,26,25,25,25,26,25,25,36,26,26,26,35,26,35,35,35,36,35,26,26,26,25,25,25,36,36,26,25,6,6,6,6,6,6,
15,15,15,15,15,15,15,15,15,15,15,26,36,26,35,26,35,35,26,25,26,36,25,26,35,26,25,35,25,26,35,25,25,26,26,25,25,25,35,36,35,36,26,36,35,25,25,26,35,36,26,26,26,26,35,35,26,25,36,25,26,26,25,26,25,26,26,36,35,26,36,36,35,35,35,26,26,25,26,26,36,35,35,36,35,25,26,25,25,36,25,25,26,35,35,35,35,26,36,25,26,25,36,35,35,26,25,26,36,36,36,25,26,25,36,26,25,36,26,26,36,26,36,26,15,15,15,15,15,15,
15,15,15,15,15,15,15,15,15,15,15,36,35,36,35,36,25,36,26,25,25,35,35,35,25,26,35,25,25,36,25,26,35,25,25,36,26,36,25,25,35,36,35,25,35,35,25,25,35,35,35,36,26,36,36,36,36,35,25,36,25,26,36,35,26,26,25,26,25,26,26,35,25,26,26,35,26,26,25,26,36,36,36,35,26,25,35,36,25,36,25,26,25,36,36,25,25,35,35,36,35,35,35,36,36,26,36,26,26,26,26,35,36,25,25,36,26,25,25,36,35,36,26,26,15,15,15,15,15,15,
15,15,15,15,15,15,15,15,15,15,36,36,36,35,26,26,35,25,35,25,35,36,35,26,36,35,36,36,26,36,25,35,35,35,35,26,36,36,26,25,35,26,36,25,36,36,26,25,35,25,36,26,36,25,36,26,26,25,26,35,36,35,26,36,25,35,25,35,36,36,26,26,36,25,36,26,35,35,25,26,25,26,36,35,25,35,35,36,36,25,26,35,35,36,26,26,36,36,35,25,35,35,36,26,35,35,36,35,35,35,25,36,25,25,36,36,25,25,26,36,26,35,36,26,15,15,15,15,15,15,
6,6,6,6,6,6,6,6,6,6,26,35,25,25,35,36,26,36,35,26,26,25,36,36,25,25,25,36,26,26,26,35,26,25,35,26,36,35,36,25,35,25,25,36,36,26,35,26,25,25,25,25,35,36,25,36,26,25,36,25,25,25,35,35,35,35,26,35,35,35,26,35,25,36,35,26,36,26,35,35,35,35,36,35,36,35,35,35,36,36,35,26,26,36,36,26,25,25,36,25,26,35,26,26,35,35,25,26,36,25,26,36,25,25,26,35,25,25,26,35,35,36,35,35,6,6,6,6,6,6,
6,6,6,6,6,6,6,6,6,6,15,26,36,25,35,35,35,36,25,35,36,35,26,25,26,36,36,36,25,26,26,25,35,25,25,35,25,36,35,26,36,36,35,26,35,25,25,26,35,25,26,25,36,25,36,35,36,36,26,35,25,25,25,35,36,35,25,35,36,26,35,26,26,26,26,36,26,25,25,36,26,25,26,36,26,25,36,25,25,25,26,25,25,35,36,36,35,26,26,36,25,35,25,26,26,26,26,25,36,26,26,26,36,35,26,35,26,25,25,35,26,36,26,26,6,6,6,6,6,6,
21,21,21,21,21,6,6,6,6,6,15,35,36,35,35,35,26,25,36,26,25,36,36,26,35,35,35,25,25,26,36,35,36,35,26,25,35,26,36,25,26,25,35,35,36,26,25,25,35,36,35,35,36,25,35,35,26,25,25,26,35,36,36,35,25,35,26,26,35,25,35,36,35,25,35,35,26,36,26,25,36,26,36,35,36,36,36,35,36,35,25,26,35,36,25,26,35,26,25,26,25,35,25,35,35,26,36,35,25,36,35,35,26,25,35,25,36,25,26,26,25,26,35,35,6,6,6,6,6,6,
21,21,1,1,21,21,21,21,21,6,15,25,35,25,25,25,36,36,35,26,25,25,26,25,35,35,25,26,35,26,26,26,36,36,36,25,25,26,36,26,35,25,26,26,36,35,35,35,25,35,35,36,26,25,35,35,26,36,26,35,26,35,36,25,26,35,36,25,35,36,35,35,35,25,26,26,36,26,35,25,36,35,26,26,25,26,36,25,36,36,26,26,36,35,36,35,25,26,25,26,36,26,36,36,36,26,25,26,35,25,35,25,36,35,25,36,25,36,26,35,26,25,26,6,6,6,6,6,6,6,
1,1,1,1,1,1,1,1,21,6,15,36,26,26,35,35,26,36,26,35,26,36,26,26,35,25,26,35,36,25,35,26,36,25,35,26,35,26,26,26,26,35,26,25,25,35,36,26,35,35,26,26,26,36,36,36,36,36,36,36,35,26,25,36,26,25,26,25,26,36,25,26,36,26,35,36,35,35,35,26,25,35,25,36,25,35,36,36,35,25,36,36,36,35,26,26,35,36,35,35,25,25,26,36,35,26,26,26,26,25,36,35,25,35,25,35,26,36,36,35,35,25,26,6,6,6,6,6,6,6,
1,2,1,1,2,2,1,1,21,21,6,6,36,25,36,35,26,36,26,35,35,25,25,35,26,36,36,36,25,25,35,35,36,35,35,26,35,25,35,25,26,26,26,25,25,25,25,26,35,25,36,35,35,25,25,36,36,35,26,35,26,26,25,26,25,26,35,25,35,26,36,35,26,26,36,26,26,25,25,35,35,35,36,36,26,26,25,35,36,36,36,35,35,25,35,25,26,36,26,26,26,26,25,26,26,26,26,25,36,35,25,36,35,26,36,36,26,25,36,36,26,26,36,6,6,6,6,6,6,6,
1,2,2,1,2,2,1,1,1,21,6,6,36,25,35,25,26,35,35,25,25,26,26,25,25,36,26,25,36,25,25,35,35,26,35,36,25,36,35,26,36,25,35,36,35,25,36,35,25,35,26,26,35,26,35,26,35,36,36,36,36,25,35,26,25,36,25,35,26,36,35,25,26,25,26,35,36,35,25,36,25,26,36,35,36,26,26,36,36,26,26,26,35,36,26,25,26,26,35,36,35,25,26,36,36,26,25,35,25,25,36,26,36,35,26,26,35,36,26,26,36,35,25,6,6,6,6,6,6,6,
1,1,1,1,1,1,1,1,1,21,6,6,36,25,35,35,26,26,35,26,35,25,35,36,36,35,36,25,25,25,36,25,35,26,36,25,36,35,26,25,36,35,36,26,26,36,36,25,25,35,25,25,36,35,35,35,36,36,35,35,26,25,35,26,26,36,25,36,35,25,36,25,26,36,35,25,26,36,36,35,35,35,36,26,36,26,25,35,35,36,26,26,25,25,36,25,26,26,36,26,36,25,36,26,25,25,35,26,36,35,26,35,26,35,25,25,36,25,36,36,35,26,6,6,6,6,6,6,6,6
</data>
 </layer>
 <layer id="2" name="Camada de Blocos 2" width="130" height="20">
  <data encoding="csv">
24,24,24,24,24,24,24,24,24,0,0,0,0,0,0,0,0,0,0,0,0,0,0,0,0,0,0,0,0,0,0,0,0,0,0,0,0,0,0,0,0,0,0,0,0,0,0,0,0,0,0,0,0,0,0,0,0,0,0,0,0,0,0,0,0,0,0,0,0,0,0,0,0,0,0,0,0,0,0,0,0,0,0,0,0,0,0,0,0,0,0,0,0,0,0,0,0,0,0,0,0,0,0,0,0,0,0,0,0,0,0,0,0,0,0,0,0,0,0,0,0,24,24,0,0,0,0,0,0,0,
24,24,24,24,24,24,24,24,24,0,0,0,0,0,0,0,0,0,0,0,0,0,0,0,0,0,0,0,0,0,0,0,0,0,0,0,0,0,0,0,0,0,0,0,0,0,0,0,0,0,0,0,0,0,0,0,0,0,0,0,0,0,0,0,0,0,0,0,0,0,0,0,0,0,0,0,0,0,0,0,0,0,0,0,0,0,0,0,0,0,0,0,0,0,0,0,0,0,0,0,0,0,0,0,0,0,0,0,0,0,0,0,0,0,0,0,0,0,0,0,0,24,24,0,0,0,0,0,0,0,
24,24,24,24,24,24,24,24,0,0,0,0,0,0,0,0,0,24,24,0,0,0,0,0,0,0,0,0,0,0,0,0,0,0,0,0,0,0,0,0,0,0,0,0,0,0,0,0,0,0,0,0,0,0,0,0,0,0,0,0,0,0,0,0,0,0,0,0,0,0,0,0,0,0,0,0,0,0,0,0,0,0,0,0,0,0,0,0,0,0,0,0,0,0,0,0,0,0,0,0,0,0,0,0,0,0,0,0,0,0,0,0,0,0,0,0,0,0,0,0,0,24,24,24,0,0,0,0,0,0,
0,24,24,24,24,24,24,24,0,0,0,0,0,0,0,0,0,0,0,0,0,0,0,0,0,0,0,0,0,0,0,0,0,0,0,0,0,0,0,0,0,0,0,0,0,0,0,0,0,0,0,0,0,0,0,0,0,0,0,0,0,0,0,0,0,0,0,0,0,0,0,0,0,0,0,0,0,0,0,0,0,0,0,0,0,0,0,0,0,0,0,0,0,0,0,0,0,0,0,0,0,0,0,0,0,0,0,0,0,0,0,0,0,0,0,0,0,0,0,0,0,0,0,0,0,0,0,0,0,0,
0,24,24,24,24,24,24,24,0,0,0,0,0,0,0,0,0,0,0,0,0,0,0,0,0,0,0,0,0,0,0,0,0,0,0,0,0,0,0,0,0,0,0,0,0,0,0,0,0,0,0,0,0,0,0,0,0,0,0,0,0,0,0,0,0,0,0,0,0,0,0,0,0,0,0,0,0,0,0,0,0,0,0,0,0,0,0,0,0,0,0,0,0,0,0,0,0,0,0,0,0,0,0,0,0,0,0,0,0,0,0,0,0,0,0,0,0,0,0,0,0,0,0,0,0,0,0,0,0,0,
0,0,0,0,0,0,0,0,0,0,0,0,0,0,0,0,0,0,0,0,0,0,0,0,0,0,0,0,0,0,0,0,0,0,0,0,0,0,0,0,0,0,0,0,0,0,0,0,0,0,0,0,0,0,0,0,0,0,0,0,0,0,0,0,0,0,0,0,0,0,0,0,0,0,0,0,0,0,0,0,0,0,0,0,0,0,0,0,0,0,0,0,0,0,0,0,0,0,0,0,0,0,0,0,0,0,0,0,0,0,0,0,0,0,0,0,0,0,0,0,0,0,0,0,0,0,0,0,0,0,
0,0,0,0,0,0,0,0,0,0,0,0,0,0,0,0,0,0,0,0,0,0,0,0,0,0,0,0,0,0,0,0,0,0,0,0,0,0,0,0,0,0,0,0,0,0,0,0,0,0,0,0,0,0,0,0,0,0,0,0,0,0,0,0,0,0,0,0,0,0,0,0,0,0,0,0,0,0,0,0,0,0,0,0,0,0,0,0,0,0,0,0,0,0,0,0,0,0,0,0,0,0,0,0,0,0,0,0,0,0,0,0,0,0,0,0,0,0,0,0,0,0,0,0,0,0,0,0,0,0,
0,0,0,0,0,0,0,0,0,0,0,0,0,0,0,0,0,0,0,0,0,0,0,0,0,0,0,0,0,0,0,0,0,0,0,0,0,0,0,0,0,0,0,0,0,0,0,0,0,0,0,0,0,0,0,0,0,0,0,0,0,0,0,0,0,0,0,0,0,0,0,0,0,0,0,0,0,0,0,0,0,0,0,0,0,0,0,0,0,0,0,0,0,0,0,0,0,0,0,0,0,0,0,0,0,0,0,0,0,0,0,0,0,0,0,0,0,0,0,0,0,0,0,0,0,0,0,0,0,0,
0,0,0,0,0,0,0,0,0,0,0,0,0,0,0,0,0,0,0,0,0,0,0,0,0,0,0,0,0,0,0,0,0,0,0,0,0,0,0,0,0,0,0,0,0,0,0,0,0,0,0,0,0,0,0,0,0,0,0,0,0,0,0,0,0,0,0,0,0,0,0,0,0,0,0,0,0,0,0,0,0,0,0,0,0,0,0,0,0,0,0,0,0,0,0,0,0,0,0,0,0,0,0,0,0,0,0,0,0,0,0,0,0,0,0,0,0,0,0,0,0,0,0,0,0,0,0,0,0,0,
0,0,0,0,0,0,0,0,0,0,0,0,0,0,0,0,0,0,0,0,0,0,0,0,0,0,0,0,0,0,0,0,0,0,0,0,0,0,0,0,0,0,0,0,0,0,0,0,0,0,0,0,0,0,0,0,0,0,0,0,0,0,0,0,0,0,0,0,0,0,0,0,0,0,0,0,0,0,0,0,0,0,0,0,0,0,0,0,0,0,0,0,0,0,0,0,0,0,0,0,0,0,0,0,0,0,0,0,0,0,0,0,0,0,0,0,0,0,0,0,0,0,0,0,0,0,0,0,0,0,
0,0,0,0,0,0,0,0,0,0,0,0,0,0,0,0,0,0,0,0,0,0,0,0,0,0,0,0,0,0,0,0,0,0,0,0,0,0,0,0,0,0,0,0,0,0,0,0,0,0,0,0,0,0,0,0,0,0,0,0,0,0,0,0,0,0,0,0,0,0,0,0,0,0,0,0,0,0,0,0,0,0,0,0,0,0,0,0,0,0,0,0,0,0,0,0,0,0,0,0,0,0,0,0,0,0,0,0,0,0,0,0,0,0,0,0,0,0,0,0,0,0,0,0,0,0,0,0,0,0,
0,0,0,0,0,0,0,0,0,0,0,0,0,0,0,0,0,0,0,0,0,0,0,0,0,0,0,0,0,0,0,0,0,0,0,0,0,0,0,0,0,0,0,0,0,0,0,0,0,0,0,0,0,0,0,0,0,0,0,0,0,0,0,0,0,0,0,0,0,0,0,0,0,0,0,0,0,0,0,0,0,0,0,0,0,0,0,0,0,0,0,0,0,0,0,0,0,0,0,0,0,0,0,0,0,0,0,0,0,0,0,0,0,0,0,0,0,0,0,0,0,0,0,0,0,0,0,0,0,0,
0,0,0,0,0,0,0,0,0,0,0,0,0,0,0,0,0,0,0,0,0,0,0,0,0,0,0,0,0,0,0,0,0,0,0,0,0,0,0,0,0,0,0,0,0,0,0,0,0,0,0,0,0,0,0,0,0,0,0,0,0,0,0,0,0,0,0,0,0,0,0,0,0,0,0,0,0,0,0,0,0,0,0,0,0,0,0,0,0,0,0,0,0,0,0,0,0,0,0,0,0,0,0,0,0,0,0,0,0,0,0,0,0,0,0,0,0,0,0,0,0,0,0,0,0,0,0,0,0,0,
0,0,0,0,0,0,0,0,0,0,0,0,0,0,0,0,0,0,0,0,0,0,0,0,0,0,0,0,0,0,0,0,0,0,0,0,0,0,0,0,0,0,0,0,0,0,0,0,0,0,0,0,0,0,0,0,0,0,0,0,0,0,0,0,0,0,0,0,0,0,0,0,0,0,0,0,0,0,0,0,0,0,0,0,0,0,0,0,0,0,0,0,0,0,0,0,0,0,0,0,0,0,0,0,0,0,0,0,0,0,0,0,0,0,0,0,0,0,0,0,0,0,0,0,0,0,0,0,0,0,
0,0,0,0,0,0,0,0,0,0,0,0,0,0,0,0,0,0,0,0,0,0,0,0,0,0,0,0,0,0,0,0,0,0,0,0,0,0,0,0,0,0,0,0,0,0,0,0,0,0,0,0,0,0,0,0,0,0,0,0,0,0,0,0,0,0,0,0,0,0,0,0,0,0,0,0,0,0,0,0,0,0,0,0,0,0,0,0,0,0,0,0,0,0,0,0,0,0,0,0,0,0,0,0,0,0,0,0,0,0,0,0,0,0,0,0,0,0,0,0,0,0,0,0,0,0,0,0,0,0,
0,24,24,24,24,0,0,24,24,0,0,0,0,0,0,0,0,0,0,0,0,0,0,0,0,0,0,0,0,0,0,0,0,0,0,0,0,0,0,0,0,0,0,0,0,0,0,0,0,0,0,0,0,0,0,0,0,0,0,0,0,0,0,0,0,0,0,0,0,0,0,0,0,0,0,0,0,0,0,0,0,0,0,0,0,0,0,0,0,0,0,0,0,0,0,0,0,0,0,0,0,0,0,0,0,0,0,0,0,0,0,0,0,0,0,0,0,0,0,0,0,0,0,0,0,0,0,0,0,0,
24,24,24,24,24,24,24,24,24,24,0,0,0,0,0,0,0,0,0,0,0,0,0,0,0,0,0,0,0,0,0,0,0,0,0,0,0,0,0,0,0,0,0,0,0,0,0,0,0,0,0,0,0,0,0,0,0,0,0,0,0,0,0,0,0,0,0,0,0,0,0,0,0,0,0,0,0,0,0,0,0,0,0,0,0,0,0,0,0,0,0,0,0,0,0,0,0,0,0,0,0,0,0,0,0,0,0,0,0,0,0,0,0,0,0,0,0,0,0,0,0,0,0,0,0,0,0,0,0,0,
24,24,24,24,24,24,24,24,24,24,0,0,0,0,0,0,0,0,0,0,0,0,0,0,0,0,0,0,0,0,0,0,0,0,0,0,0,0,0,0,0,0,0,0,0,0,0,0,0,0,0,0,0,0,0,0,0,0,0,0,0,0,0,0,0,0,0,0,0,0,0,0,0,0,0,0,0,0,0,0,0,0,0,0,0,0,0,0,0,0,0,0,0,0,0,0,0,0,0,0,0,0,0,0,0,0,0,0,0,0,0,0,0,0,0,0,0,0,0,0,0,0,0,0,0,0,0,0,0,0,
24,24,24,24,24,24,24,24,24,0,0,0,0,0,0,0,0,0,0,0,0,0,0,0,0,0,0,0,0,0,0,0,0,0,0,0,0,0,0,0,0,0,0,0,0,0,0,0,0,0,0,0,0,0,0,0,0,0,0,0,0,0,0,0,0,0,0,0,0,0,0,0,0,0,0,0,0,0,0,0,0,0,0,0,0,0,0,0,0,0,0,0,0,0,0,0,0,0,0,0,0,0,0,0,0,0,0,0,0,0,0,0,0,0,0,0,0,0,0,0,0,0,0,0,0,0,0,0,0,0,
24,24,24,24,24,24,24,24,24,0,0,0,0,0,0,0,0,0,0,0,0,0,0,0,0,0,0,0,0,0,0,0,0,0,0,0,0,0,0,0,0,0,0,0,0,0,0,0,0,0,0,0,0,0,0,0,0,0,0,0,0,0,0,0,0,0,0,0,0,0,0,0,0,0,0,0,0,0,0,0,0,0,0,0,0,0,0,0,0,0,0,0,0,0,0,0,0,0,0,0,0,0,0,0,0,0,0,0,0,0,0,0,0,0,0,0,0,0,0,0,0,0,24,0,0,0,0,0,0,0
</data>
 </layer>
 <objectgroup color="#ff007f" id="3" name="objects_party">
  <object id="92" name="transition" x="-38.3333" y="241" width="38.5" height="318">
   <properties>
    <property name="map" value="chapter1/farm_world/farm9"/>
    <property name="marker" value="to_farm10"/>
   </properties>
  </object>
  <object id="95" name="npc" x="160" y="400" width="40" height="40">
   <properties>
    <property name="actor" value="colonel"/>
    <property name="talk" type="bool" value="true"/>
    <property name="talksprite" value="talk"/>
    <property name="text1_1" value="* Well done, lieutenant. We did what we had to do."/>
    <property name="text2_1" value="* ... Go on, lieutenant."/>
   </properties>
  </object>
  <object id="97" name="npc" x="95.5" y="38.5" width="40" height="40">
   <properties>
    <property name="actor" value="colonel"/>
    <property name="talk" type="bool" value="true"/>
    <property name="talksprite" value="talk"/>
    <property name="text1_1" value="* ..."/>
   </properties>
  </object>
  <object id="98" name="npc" x="88.5" y="122.5" width="40" height="40">
   <properties>
    <property name="actor" value="colonel"/>
    <property name="talk" type="bool" value="true"/>
    <property name="talksprite" value="talk"/>
    <property name="text1_1" value="* ..."/>
   </properties>
  </object>
  <object id="100" name="npc" x="240" y="680" width="40" height="40">
   <properties>
    <property name="actor" value="colonel"/>
    <property name="talk" type="bool" value="true"/>
    <property name="talksprite" value="talk"/>
    <property name="text1_1" value="* Uh,[wait:5] don't tell the Colonel,[wait:5] but I..."/>
    <property name="text1_2" value="* I forgot to bring the giant speaker that plays My Little Dark Age."/>
    <property name="text2_1" value="* ..."/>
   </properties>
  </object>
  <object id="101" name="npc" x="80" y="720" width="40" height="40">
   <properties>
    <property name="actor" value="colonel"/>
    <property name="talk" type="bool" value="true"/>
    <property name="talksprite" value="talk"/>
    <property name="text1_1" value="* ..."/>
   </properties>
  </object>
  <object id="104" gid="117" x="142.75" y="189.25" width="180.5" height="195.5"/>
  <object id="108" name="interactable" x="144" y="3.5" width="179" height="167.5">
   <properties>
    <property name="solid" type="bool" value="true"/>
    <property name="text1" value="* (...a machine built to end war is always a machine built to continue war.)"/>
   </properties>
  </object>
  <object id="112" name="savepoint" x="120" y="280" width="40" height="40">
   <properties>
    <property name="heals" type="bool" value="true"/>
    <property name="marker" value="spawn"/>
    <property name="text1" value="* (Seeing the brutality of 21st century warfare...)"/>
    <property name="text2" value="* (It fills you with shock and awe.[wait:5] It also fills you with a certain power...)"/>
    <property name="text_once" type="bool" value="true"/>
   </properties>
  </object>
  <object id="114" name="transition" x="5200" y="359.5" width="38.5" height="120.5">
   <properties>
    <property name="map" value="chapter1/farm_world/farm_gardner_test"/>
    <property name="marker" value="spawn"/>
   </properties>
  </object>
 </objectgroup>
 <objectgroup color="#0000ff" id="4" name="collision">
  <object id="83" x="0" y="0" width="41.667" height="239.667"/>
  <object id="109" x="0.1665" y="560.167" width="41.667" height="239.667"/>
  <object id="110" x="41.1665" y="800.833" width="5154.88" height="40.667"/>
  <object id="111" x="320.318" y="-39.1214" width="4877.36" height="40.667"/>
  <object id="115" x="5200.56" y="481.667" width="40.88" height="320.667"/>
  <object id="116" x="5200" y="-2.66667" width="40.88" height="363.334"/>
 </objectgroup>
 <objectgroup color="#aa00ff" id="5" name="markers">
  <object id="90" name="spawn" x="30.4167" y="422">
   <point/>
  </object>
  <object id="117" name="to_gardner" x="5169.33" y="420">
   <point/>
  </object>
 </objectgroup>
 <objectgroup color="#ffff00" id="6" name="controllers">
  <object id="120" name="toggle" x="192" y="-107">
   <properties>
    <property name="flag" value="gardner_chase_end"/>
    <property name="inverted" type="bool" value="true"/>
    <property name="target1" type="object" value="97"/>
    <property name="target2" type="object" value="98"/>
    <property name="target3" type="object" value="101"/>
    <property name="target4" type="object" value="95"/>
    <property name="target5" type="object" value="100"/>
   </properties>
   <point/>
  </object>
 </objectgroup>
</map>
