<?xml version="1.0" encoding="UTF-8"?>
<map version="1.11" tiledversion="1.12.2" orientation="orthogonal" renderorder="right-down" width="30" height="40" tilewidth="40" tileheight="40" infinite="0" nextlayerid="10" nextobjectid="218">
 <editorsettings>
  <export target="farm9.lua" format="lua"/>
 </editorsettings>
 <properties>
  <property name="music" value="field_jarona"/>
 </properties>
 <tileset firstgid="1" source="../../../tilesets/farm_world.tsx"/>
 <tileset firstgid="101" source="../../../tilesets/farm_world_extras.tsx"/>
 <layer id="1" name="Camada de Blocos 1" width="30" height="40">
  <data encoding="csv">
13,13,13,13,13,13,13,13,13,13,13,13,13,13,13,13,13,13,13,13,13,13,13,13,13,13,1,1,1,1,
13,13,13,13,13,13,13,13,13,13,13,13,13,13,13,13,13,13,13,13,13,13,13,13,13,1,1,1,1,1,
13,13,13,13,13,13,13,13,13,13,13,13,13,13,13,13,13,13,13,13,13,13,13,21,21,1,21,1,1,1,
13,13,13,13,13,13,13,13,13,13,13,13,13,13,13,13,13,21,21,21,21,13,21,21,21,21,21,1,1,1,
13,13,13,13,13,13,13,13,13,13,13,13,13,13,21,21,21,21,21,21,21,21,21,21,5,5,21,21,21,1,
13,13,13,13,13,13,13,13,21,21,21,21,21,21,21,21,21,21,21,21,21,5,5,5,5,5,5,5,21,1,
13,13,13,13,13,21,21,21,21,21,21,21,5,5,5,5,5,5,5,5,5,5,5,5,5,5,5,5,21,1,
1,1,1,1,21,21,21,21,21,21,21,5,15,15,15,15,15,15,15,15,15,15,15,15,5,5,5,5,21,1,
1,1,1,1,1,21,5,15,15,15,15,15,15,15,15,15,15,15,15,15,15,15,15,15,15,15,5,21,21,1,
1,1,1,1,21,21,5,15,15,15,15,15,15,15,15,15,15,15,15,15,15,15,15,15,15,5,5,21,1,1,
1,1,1,1,21,21,5,15,15,15,15,15,15,15,15,15,15,15,15,15,15,15,15,15,5,5,5,21,1,1,
1,1,1,1,21,5,5,15,15,15,15,15,15,15,15,15,15,15,15,15,15,15,15,15,5,5,5,21,1,1,
1,1,1,21,21,5,5,15,15,15,2,2,2,2,2,2,2,2,2,2,2,2,2,2,5,5,5,21,21,1,
21,21,21,21,5,5,5,15,15,1,15,15,15,2,2,2,2,2,2,15,15,15,15,15,5,5,5,5,21,21,
21,21,21,21,5,5,5,5,15,1,15,15,15,2,2,2,2,2,2,15,15,15,15,15,5,5,5,5,5,5,
21,21,5,5,5,5,5,5,15,15,1,15,15,2,2,2,2,2,2,15,15,15,15,15,5,5,5,5,5,5,
5,5,5,5,5,5,5,5,15,15,1,15,15,15,15,15,15,15,15,15,15,15,15,15,5,5,5,5,5,5,
5,5,5,5,5,5,5,15,15,15,2,15,15,15,15,15,15,15,15,15,15,15,15,15,15,15,15,15,15,15,
5,5,5,5,5,5,5,15,1,1,1,1,1,5,1,1,1,1,15,15,15,15,15,15,15,15,15,15,15,15,
5,5,5,5,5,5,5,15,15,15,1,1,1,15,15,15,15,15,15,15,15,15,15,15,15,15,15,15,15,15,
5,5,5,5,5,5,5,15,15,15,1,15,1,1,1,15,15,15,15,15,15,14,15,15,15,15,15,5,5,5,
5,5,5,5,5,5,5,15,15,15,1,15,15,15,15,5,15,15,15,15,15,15,14,15,15,15,15,5,5,5,
5,5,5,5,5,5,5,15,15,15,1,15,15,15,15,5,14,15,15,15,15,15,15,14,14,15,15,5,5,21,
5,5,5,5,5,5,15,1,1,1,1,15,15,15,15,14,14,15,15,15,15,14,15,15,15,5,15,5,21,21,
5,5,5,5,5,5,15,1,15,15,15,15,15,15,15,14,14,15,15,15,15,14,15,14,15,5,15,2,2,2,
5,5,5,5,5,5,15,1,15,1,15,15,1,1,15,14,14,14,2,14,15,15,15,14,15,14,15,5,21,21,
5,5,5,5,5,5,15,1,15,15,15,1,15,15,1,15,15,15,15,14,15,14,14,15,15,14,5,5,21,21,
5,5,5,5,5,5,15,1,15,15,15,5,15,15,1,15,15,15,15,15,15,15,15,15,15,14,5,21,21,21,
5,5,5,5,5,5,15,1,15,15,1,15,15,15,1,15,15,15,15,15,15,15,15,15,15,14,5,21,21,21,
5,5,5,5,5,5,15,1,15,15,15,15,15,15,1,14,15,15,15,15,15,15,15,14,14,14,5,5,21,21,
5,5,5,5,5,5,15,1,15,15,15,15,15,15,1,14,15,15,15,15,15,15,15,14,5,5,5,5,5,21,
5,5,5,5,5,15,15,1,15,15,15,15,15,15,1,15,14,14,14,14,14,14,14,14,5,5,5,21,21,21,
5,5,5,15,15,15,15,15,1,15,15,15,15,15,1,15,15,15,15,15,15,15,5,5,5,5,21,21,21,21,
15,15,15,15,15,15,15,15,15,5,5,5,5,5,15,15,15,15,15,15,15,15,5,5,5,21,21,21,21,21,
15,15,15,15,15,15,15,15,15,15,15,15,15,15,15,15,15,15,15,5,5,5,5,5,21,21,1,1,1,1,
15,15,15,15,15,5,5,5,5,5,5,5,5,5,5,5,5,5,5,5,5,5,5,21,21,1,1,1,1,13,
15,15,15,15,21,21,21,21,21,21,21,21,5,5,5,5,5,5,5,5,21,21,21,21,1,1,1,13,13,13,
15,15,21,21,21,1,1,1,1,1,1,21,21,5,5,5,21,21,21,21,21,21,1,1,1,1,13,13,13,13,
21,21,21,21,1,1,1,1,1,1,1,1,21,21,21,21,21,21,21,21,21,1,1,1,13,13,13,13,13,13,
1,1,1,1,1,1,1,1,1,1,1,1,1,1,1,1,1,1,1,1,1,1,1,13,13,13,13,13,13,13
</data>
 </layer>
 <layer id="4" name="Camada de Blocos 2" width="30" height="40">
  <data encoding="csv">
0,102,0,101,101,110,0,110,102,102,111,101,110,110,103,101,112,102,102,102,112,111,105,111,112,103,105,105,105,105,
102,103,112,102,102,110,105,105,105,111,112,105,103,110,112,102,112,112,112,111,112,111,105,105,105,105,103,103,105,105,
103,104,101,105,101,103,110,105,102,111,101,112,112,102,112,112,110,110,0,110,110,104,0,24,24,104,24,104,105,102,
104,112,105,105,110,105,110,110,111,112,104,108,105,110,105,110,110,0,104,0,0,104,24,24,0,0,0,103,102,102,
103,112,101,101,110,110,103,105,104,0,0,112,110,105,24,0,0,0,0,0,0,0,0,0,0,0,0,24,24,102,
104,112,102,105,105,101,105,0,24,24,24,24,0,0,0,0,0,0,0,0,0,0,0,0,0,0,0,0,24,102,
112,111,0,111,112,0,0,0,37,37,0,0,0,0,0,0,0,0,0,0,0,0,0,0,0,0,0,0,24,102,
0,0,104,104,0,37,37,0,37,37,0,0,0,0,0,0,0,0,0,0,0,0,0,0,0,0,0,0,24,102,
104,102,0,104,37,37,37,37,37,37,0,0,37,37,37,0,0,0,0,0,0,0,0,0,0,0,0,0,0,102,
0,103,101,101,37,37,0,37,37,37,37,37,37,37,37,0,0,0,0,0,0,0,0,0,0,0,0,0,102,102,
102,104,102,102,37,37,37,37,37,37,37,37,0,37,0,0,0,0,0,0,0,0,0,0,0,0,0,0,103,102,
103,112,112,0,37,37,37,37,37,37,37,37,37,37,0,0,0,0,0,0,0,0,0,0,0,0,0,0,104,103,
104,112,110,0,0,37,0,0,37,37,108,108,110,108,110,108,110,110,108,110,110,108,110,110,0,0,0,0,0,104,
0,0,0,0,0,0,0,0,0,110,0,0,0,110,110,108,110,110,110,0,0,0,0,0,0,0,0,0,0,0,
0,0,0,0,0,0,0,0,0,110,0,0,0,104,102,110,110,102,110,0,0,0,0,0,0,0,0,0,0,0,
0,0,0,0,0,0,0,0,0,0,110,0,0,110,110,102,108,104,110,0,0,0,0,0,0,0,0,0,0,0,
0,0,0,0,0,0,0,0,0,0,110,0,0,0,0,0,0,0,0,0,0,0,0,0,0,0,0,0,0,0,
0,0,0,0,0,0,0,0,0,0,110,0,0,0,0,0,0,0,0,0,0,0,0,0,0,0,0,0,0,0,
0,0,0,0,0,0,0,0,110,102,110,110,102,24,110,102,110,110,0,0,0,0,0,0,0,0,0,0,0,0,
0,0,0,0,0,0,0,0,0,0,110,102,102,24,24,0,0,0,0,0,0,0,0,0,0,0,0,0,0,0,
0,0,0,0,0,0,0,0,0,0,112,0,110,110,102,0,0,0,0,0,0,108,0,0,0,0,0,0,0,0,
0,0,0,0,0,0,0,0,0,0,102,0,0,0,0,0,24,0,0,0,0,0,110,24,24,0,0,0,0,0,
0,0,0,0,0,0,0,0,0,0,112,0,0,0,0,24,110,0,0,0,0,24,24,110,111,0,0,0,0,0,
0,0,0,0,0,0,0,112,105,112,112,0,0,0,0,110,110,0,0,0,0,110,24,24,0,24,0,0,0,0,
0,0,0,0,0,0,0,105,0,0,0,0,0,0,0,108,111,0,0,0,0,110,24,111,0,24,0,108,110,110,
0,0,0,0,0,0,0,112,0,108,10,0,105,109,0,110,110,111,101,110,0,0,0,110,0,110,0,0,0,0,
0,0,0,0,0,0,0,102,0,0,0,110,0,0,110,0,0,0,0,110,0,110,111,0,0,105,0,0,0,0,
0,0,0,0,0,0,0,105,0,0,0,24,0,0,110,0,0,0,0,0,0,0,0,0,0,111,0,0,0,0,
0,0,0,0,0,0,0,112,0,0,111,0,0,0,103,0,0,0,0,0,0,0,0,0,0,110,0,0,0,0,
0,0,0,0,0,0,0,102,0,0,0,0,0,0,110,110,0,0,0,0,0,0,0,105,110,110,0,0,0,0,
0,0,0,0,0,0,0,102,0,0,0,0,0,0,110,103,0,0,0,0,0,0,0,110,0,0,0,0,0,0,
0,0,0,0,0,0,0,112,0,0,0,0,0,0,110,0,105,109,110,109,105,110,108,110,0,0,0,0,0,0,
0,0,0,0,0,0,0,0,112,0,0,0,0,0,110,0,0,0,0,0,0,0,0,0,0,0,0,0,0,0,
0,0,0,0,0,0,0,0,0,0,0,0,0,0,0,0,0,0,0,0,0,0,0,0,0,0,0,0,0,0,
0,0,0,0,0,0,0,0,0,0,0,0,0,0,0,0,0,0,0,0,0,0,0,0,0,0,0,110,110,108,
0,0,0,0,0,0,0,0,0,0,0,0,0,0,0,0,0,0,0,0,0,0,0,0,0,110,108,108,108,110,
0,0,0,0,0,0,0,0,0,0,0,0,0,0,0,0,0,0,0,0,0,0,0,0,108,111,108,111,110,110,
0,0,0,0,0,108,108,108,108,108,108,0,0,0,0,0,0,0,0,0,0,0,110,110,110,110,110,110,110,110,
0,0,0,0,108,108,108,110,108,108,108,108,0,0,0,0,0,0,0,0,0,110,110,110,110,108,108,108,111,108,
108,108,108,108,108,108,110,110,108,108,108,108,108,108,108,108,108,110,108,110,110,110,108,108,108,108,110,110,110,110
</data>
 </layer>
 <objectgroup color="#ff007f" id="9" name="objects">
  <object id="179" name="spike1" gid="113" x="1080" y="880" width="40" height="40"/>
  <object id="180" name="spike2" gid="113" x="1080" y="920" width="40" height="40"/>
  <object id="181" name="spike3" gid="113" x="1080" y="960" width="40" height="40"/>
  <object id="182" name="spike1" gid="113" x="1080" y="760" width="40" height="40"/>
  <object id="183" name="spike2" gid="113" x="1080" y="800" width="40" height="40"/>
  <object id="184" name="spike3" gid="113" x="1080" y="840" width="40" height="40"/>
  <object id="185" name="spike1" gid="113" x="1080" y="640" width="40" height="40"/>
  <object id="186" name="spike2" gid="113" x="1080" y="680" width="40" height="40"/>
  <object id="187" name="spike3" gid="113" x="1080" y="720" width="40" height="40"/>
  <object id="189" name="spike2" gid="113" x="1080" y="560" width="40" height="40"/>
  <object id="190" name="spike3" gid="113" x="1080" y="600" width="40" height="40"/>
  <object id="207" name="spike1" gid="113" x="960" y="320" width="40" height="40"/>
  <object id="210" name="spike1" gid="113" x="1000" y="320" width="40" height="40"/>
  <object id="211" name="spike1" gid="113" x="1040" y="320" width="40" height="40"/>
  <object id="212" name="spike1" gid="113" x="960" y="240" width="40" height="40"/>
  <object id="213" name="spike1" gid="113" x="1000" y="240" width="40" height="40"/>
  <object id="214" name="spike1" gid="113" x="1040" y="280" width="40" height="40"/>
  <object id="215" name="spike1" gid="113" x="960" y="280" width="40" height="40"/>
  <object id="216" name="spike1" gid="113" x="1045.25" y="239" width="40" height="40"/>
 </objectgroup>
 <objectgroup color="#ff007f" id="2" name="objects_party">
  <object id="1" name="enemy" x="880" y="880" width="40" height="40">
   <properties>
    <property name="actor" value="spike"/>
    <property name="chase" type="bool" value="false"/>
    <property name="chasedist" type="int" value="500"/>
    <property name="chasespeed" type="int" value="20"/>
    <property name="encounter" value="disgustingSpikes"/>
    <property name="enemy" value="spike"/>
    <property name="once" type="bool" value="true"/>
   </properties>
  </object>
  <object id="6" name="enemy" x="440" y="840" width="40" height="40">
   <properties>
    <property name="actor" value="spike"/>
    <property name="chase" type="bool" value="false"/>
    <property name="chasedist" type="int" value="500"/>
    <property name="chasespeed" type="int" value="20"/>
    <property name="encounter" value="disgustingSpikes"/>
    <property name="enemy" value="spike"/>
    <property name="once" type="bool" value="true"/>
   </properties>
  </object>
  <object id="25" name="tilebutton" x="320" y="1040" width="40" height="40">
   <properties>
    <property name="blocks" type="bool" value="true"/>
    <property name="cutscene" value="chapter1/farm_world.setMajorWheatPuzzleFlag"/>
    <property name="group" type="int" value="1"/>
    <property name="once" type="bool" value="true"/>
   </properties>
  </object>
  <object id="26" name="tilebutton" x="640" y="1201.33" width="40" height="40">
   <properties>
    <property name="blocks" type="bool" value="true"/>
    <property name="cutscene" value="chapter1/farm_world.setMajorWheatPuzzleFlag"/>
    <property name="group" type="int" value="1"/>
    <property name="once" type="bool" value="true"/>
   </properties>
  </object>
  <object id="27" name="pushblock" x="440" y="1120" width="40" height="40">
   <properties>
    <property name="lock" type="bool" value="true"/>
   </properties>
  </object>
  <object id="61" name="tilebutton" x="400" y="960" width="40" height="40">
   <properties>
    <property name="blocks" type="bool" value="true"/>
    <property name="cutscene" value="chapter1/farm_world.setMajorWheatPuzzleFlag"/>
    <property name="group" type="int" value="1"/>
    <property name="once" type="bool" value="true"/>
   </properties>
  </object>
  <object id="63" name="tilebutton" x="400" y="560" width="40" height="40">
   <properties>
    <property name="blocks" type="bool" value="true"/>
    <property name="cutscene" value="chapter1/farm_world.setMajorWheatPuzzleFlag"/>
    <property name="group" type="int" value="1"/>
    <property name="once" type="bool" value="true"/>
   </properties>
  </object>
  <object id="67" name="pushblock" x="360" y="1280" width="40" height="40">
   <properties>
    <property name="lock" type="bool" value="true"/>
   </properties>
  </object>
  <object id="88" name="pushblock" x="920" y="1120" width="40" height="40">
   <properties>
    <property name="lock" type="bool" value="true"/>
   </properties>
  </object>
  <object id="89" name="pushblock" x="760" y="560" width="40" height="40">
   <properties>
    <property name="lock" type="bool" value="true"/>
   </properties>
  </object>
  <object id="90" name="pushblock" x="960" y="920" width="40" height="40">
   <properties>
    <property name="lock" type="bool" value="true"/>
   </properties>
  </object>
  <object id="91" name="pushblock" x="720" y="880" width="40" height="40">
   <properties>
    <property name="lock" type="bool" value="true"/>
   </properties>
  </object>
  <object id="92" name="pushblock" x="560" y="920" width="40" height="40">
   <properties>
    <property name="lock" type="bool" value="true"/>
   </properties>
  </object>
  <object id="94" name="enemy" x="800" y="1080" width="40" height="40">
   <properties>
    <property name="actor" value="spike"/>
    <property name="chase" type="bool" value="false"/>
    <property name="chasedist" type="int" value="500"/>
    <property name="chasespeed" type="int" value="20"/>
    <property name="encounter" value="disgustingSpikes"/>
    <property name="enemy" value="spike"/>
    <property name="once" type="bool" value="true"/>
   </properties>
  </object>
  <object id="98" name="tilebutton" x="960" y="960" width="40" height="40">
   <properties>
    <property name="blocks" type="bool" value="true"/>
    <property name="cutscene" value="chapter1/farm_world.setMajorWheatPuzzleFlag"/>
    <property name="group" type="int" value="1"/>
    <property name="once" type="bool" value="true"/>
   </properties>
  </object>
  <object id="99" name="tilebutton" x="880" y="1000" width="40" height="40">
   <properties>
    <property name="blocks" type="bool" value="true"/>
    <property name="cutscene" value="chapter1/farm_world.setMajorWheatPuzzleFlag"/>
    <property name="group" type="int" value="1"/>
    <property name="once" type="bool" value="true"/>
   </properties>
  </object>
  <object id="100" name="tilebutton" x="440" y="800" width="40" height="40">
   <properties>
    <property name="blocks" type="bool" value="true"/>
    <property name="cutscene" value="chapter1/farm_world.setMajorWheatPuzzleFlag"/>
    <property name="group" type="int" value="1"/>
    <property name="once" type="bool" value="true"/>
   </properties>
  </object>
  <object id="101" name="tilebutton" x="840" y="240" width="40" height="40">
   <properties>
    <property name="blocks" type="bool" value="true"/>
    <property name="cutscene" value="chapter1/farm_world.rescue_colonel"/>
    <property name="group" type="int" value="2"/>
    <property name="once" type="bool" value="true"/>
   </properties>
  </object>
  <object id="136" name="npc" x="1000" y="240" width="40" height="40">
   <properties>
    <property name="actor" value="colonel"/>
    <property name="talk" type="bool" value="true"/>
    <property name="talksprite" value="talk"/>
    <property name="text1" value="* Thanks, private."/>
   </properties>
  </object>
  <object id="138" name="npc" x="960" y="680" width="40" height="40">
   <properties>
    <property name="actor" value="colonel"/>
    <property name="talk" type="bool" value="true"/>
    <property name="talksprite" value="talk"/>
    <property name="text1_1" value="* Darn... The GARDNER has increased his defenses."/>
    <property name="text1_2" value="* These spikes... I've never seen anything like 'em before !!"/>
    <property name="text1_3" value="* This is awful, lieutenant !! Our men are on the other side of these spikes !!"/>
    <property name="text1_4" value="* Cut off, without supply... The GARDNER must be exceptional at micro."/>
    <property name="text2_1" value="* Huh? The puzzle? Oh yeah, that might get rid of the spikes."/>
    <property name="text2_2" value="* I'm gonna sit here and keep looking at the spikes though."/>
   </properties>
  </object>
  <object id="139" name="enemy" x="480" y="640" width="40" height="40">
   <properties>
    <property name="actor" value="spike"/>
    <property name="chase" type="bool" value="false"/>
    <property name="chasedist" type="int" value="500"/>
    <property name="chasespeed" type="int" value="20"/>
    <property name="encounter" value="disgustingSpikes"/>
    <property name="enemy" value="spike"/>
    <property name="once" type="bool" value="true"/>
   </properties>
  </object>
  <object id="140" name="tilebutton" x="600" y="1040" width="40" height="40">
   <properties>
    <property name="blocks" type="bool" value="true"/>
    <property name="cutscene" value="chapter1/farm_world.setMajorWheatPuzzleFlag"/>
    <property name="group" type="int" value="1"/>
    <property name="once" type="bool" value="true"/>
   </properties>
  </object>
  <object id="142" name="pushblock" x="560" y="760" width="40" height="40">
   <properties>
    <property name="lock" type="bool" value="true"/>
   </properties>
  </object>
  <object id="166" name="interactable" x="1080" y="520" width="40" height="440.667">
   <properties>
    <property name="solid" type="bool" value="true"/>
    <property name="text1_1" value="* (Spikes.)"/>
   </properties>
  </object>
  <object id="171" name="transition" x="-35" y="1360" width="35" height="120">
   <properties>
    <property name="map" value="chapter1/farm_world/farm7"/>
    <property name="marker" value="to_farm9"/>
   </properties>
  </object>
  <object id="191" name="transition" x="1201.5" y="559.333" width="38.5" height="318">
   <properties>
    <property name="map" value="chapter1/farm_world/farm10"/>
    <property name="marker" value="spawn"/>
   </properties>
  </object>
  <object id="193" name="script" x="920" y="520" width="37.75" height="278.583">
   <properties>
    <property name="cutscene" value="chapter1/farm_world.majorWheatPuzzle"/>
    <property name="once" type="bool" value="false"/>
   </properties>
  </object>
  <object id="194" name="script" x="961.125" y="478.042" width="117.75" height="42.583">
   <properties>
    <property name="cutscene" value="chapter1/farm_world.majorWheatPuzzle"/>
    <property name="once" type="bool" value="false"/>
   </properties>
  </object>
  <object id="196" name="script" x="961.333" y="800" width="118.417" height="39.2497">
   <properties>
    <property name="cutscene" value="chapter1/farm_world.majorWheatPuzzle"/>
    <property name="once" type="bool" value="false"/>
   </properties>
  </object>
  <object id="198" name="enemy" x="520" y="720" width="40" height="40">
   <properties>
    <property name="actor" value="spike"/>
    <property name="chase" type="bool" value="false"/>
    <property name="chasedist" type="int" value="500"/>
    <property name="chasespeed" type="int" value="20"/>
    <property name="encounter" value="disgustingSpikes"/>
    <property name="enemy" value="spike"/>
    <property name="once" type="bool" value="true"/>
   </properties>
  </object>
  <object id="201" name="transition" x="1199.33" y="560.167" width="38.5" height="318">
   <properties>
    <property name="map" value="chapter1/farm_world/farm10_real"/>
    <property name="marker" value="spawn"/>
   </properties>
  </object>
  <object id="206" name="interactable" x="959.667" y="199.666" width="120.333" height="120.667">
   <properties>
    <property name="solid" type="bool" value="true"/>
    <property name="text1_1" value="* (Save him...)"/>
   </properties>
  </object>
 </objectgroup>
 <objectgroup color="#55ffff" id="3" name="blockcollision">
  <object id="43" x="280" y="920" width="120" height="40"/>
  <object id="45" x="280" y="960" width="40" height="320"/>
  <object id="46" x="760" y="1000" width="40" height="80"/>
  <object id="48" x="840" y="1040" width="80" height="40"/>
  <object id="49" x="920" y="960" width="40" height="80"/>
  <object id="51" x="1000" y="920" width="40" height="79.3333"/>
  <object id="52" x="920" y="880" width="80" height="40"/>
  <object id="53" x="880" y="840" width="40" height="40"/>
  <object id="54" x="840" y="800" width="40" height="40"/>
  <object id="55" x="400" y="800" width="40" height="160"/>
  <object id="56" x="840" y="920" width="40" height="80"/>
  <object id="57" x="480" y="1000" width="80" height="40"/>
  <object id="58" x="440" y="1040" width="40" height="80"/>
  <object id="59" x="320" y="1280" width="40" height="40"/>
  <object id="60" x="400" y="1120" width="40" height="40"/>
  <object id="62" x="360" y="1000" width="40" height="40"/>
  <object id="64" x="600" y="1000" width="160.5" height="40"/>
  <object id="65" x="560" y="1040" width="40" height="280"/>
  <object id="66" x="360" y="1320" width="200" height="40"/>
  <object id="69" x="401.333" y="758.667" width="116" height="40"/>
  <object id="70" x="479.333" y="799.333" width="119.333" height="39.0909"/>
  <object id="71" x="603.667" y="920" width="76.3333" height="77.3333"/>
  <object id="73" x="640" y="880" width="40" height="40"/>
  <object id="74" x="319.333" y="720" width="399.333" height="40"/>
  <object id="75" x="600" y="1160" width="40" height="80"/>
  <object id="76" x="640" y="1240" width="319.333" height="40"/>
  <object id="77" x="920" y="1160" width="40" height="80"/>
  <object id="78" x="960" y="1160" width="79.9997" height="40"/>
  <object id="79" x="1000" y="1000" width="40" height="160"/>
  <object id="80" x="400" y="600" width="40" height="120"/>
  <object id="81" x="360" y="520" width="40" height="82.6667"/>
  <object id="82" x="400" y="480" width="560.667" height="40"/>
  <object id="83" x="960" y="280" width="80.0003" height="40"/>
  <object id="84" x="1040" y="280" width="40.0003" height="40"/>
  <object id="85" x="1040" y="240" width="40.0003" height="40"/>
  <object id="86" x="1040" y="200" width="40.0003" height="40"/>
  <object id="87" x="960" y="200" width="80.0003" height="40"/>
  <object id="95" x="601.818" y="840" width="38.1818" height="40"/>
  <object id="96" x="601.818" y="880.909" width="38.1818" height="38.1818"/>
  <object id="102" x="520" y="520" width="240.667" height="120.667"/>
  <object id="205" x="960" y="240" width="40.0003" height="40"/>
 </objectgroup>
 <objectgroup color="#0000ff" id="5" name="collision">
  <object id="103" x="640" y="1240" width="319.333" height="40"/>
  <object id="104" x="280" y="920" width="120" height="40"/>
  <object id="105" x="280" y="960" width="40" height="320"/>
  <object id="106" x="760" y="1000" width="40" height="80"/>
  <object id="107" x="840" y="1040" width="80" height="40"/>
  <object id="108" x="920" y="960" width="40" height="80"/>
  <object id="109" x="920" y="880" width="80" height="40"/>
  <object id="110" x="880" y="840" width="40" height="40"/>
  <object id="111" x="840" y="800" width="40" height="40"/>
  <object id="112" x="400" y="800" width="40" height="160"/>
  <object id="113" x="320" y="1280" width="40" height="40"/>
  <object id="114" x="480" y="1000" width="79" height="40"/>
  <object id="115" x="560" y="1040" width="40" height="280"/>
  <object id="116" x="401.333" y="758.667" width="118.667" height="40"/>
  <object id="117" x="479.333" y="799.333" width="119.333" height="39.2727"/>
  <object id="118" x="600.667" y="920" width="79.3333" height="80.0833"/>
  <object id="119" x="640" y="880" width="40" height="40"/>
  <object id="120" x="319.333" y="720" width="196" height="40"/>
  <object id="121" x="600" y="1160" width="40" height="80"/>
  <object id="122" x="920" y="1160" width="40" height="80"/>
  <object id="123" x="960" y="1160" width="79.9997" height="40"/>
  <object id="124" x="1000" y="1000" width="40" height="160"/>
  <object id="125" x="360" y="520" width="40" height="82.6667"/>
  <object id="126" x="400" y="480" width="560.667" height="40"/>
  <object id="127" x="520" y="520" width="240.667" height="120.667"/>
  <object id="128" x="400" y="600" width="40" height="119"/>
  <object id="129" x="440" y="1040" width="40" height="40"/>
  <object id="130" x="400" y="1120" width="40" height="40"/>
  <object id="131" x="360" y="1000" width="40" height="40"/>
  <object id="132" x="600" y="1000" width="160.5" height="40"/>
  <object id="133" x="840" y="920" width="40" height="80"/>
  <object id="143" x="560" y="720" width="158.667" height="40"/>
  <object id="144" x="0" y="0" width="559.667" height="201.667"/>
  <object id="145" x="560" y="-2" width="121.667" height="163.667"/>
  <object id="146" x="680" y="-1" width="237.667" height="124.667"/>
  <object id="147" x="920" y="0" width="279.667" height="84.667"/>
  <object id="148" x="1080" y="80" width="119.667" height="84.667"/>
  <object id="149" x="1160" y="160" width="39.667" height="361.667"/>
  <object id="150" x="1120" y="361" width="46.667" height="158.667"/>
  <object id="151" x="999.667" y="84.6665" width="38.667" height="35.667"/>
  <object id="152" x="840" y="120" width="38.667" height="40.667"/>
  <object id="153" x="0.6665" y="203.166" width="317.667" height="38.667"/>
  <object id="154" x="0" y="241" width="116.667" height="277.667"/>
  <object id="155" x="120" y="245" width="40.667" height="232.667"/>
  <object id="156" x="160" y="320" width="38.667" height="40.667"/>
  <object id="157" x="160" y="240" width="38.667" height="40.667"/>
  <object id="158" x="5" y="1560" width="1196.67" height="38.667"/>
  <object id="159" x="840" y="1520" width="357.667" height="38.667"/>
  <object id="160" x="880" y="1480" width="317.667" height="38.667"/>
  <object id="161" x="960" y="1440" width="237.667" height="38.667"/>
  <object id="162" x="1000" y="1400" width="197.667" height="38.667"/>
  <object id="163" x="1040" y="1360" width="157.667" height="38.667"/>
  <object id="164" x="160" y="1520" width="325.667" height="38.667"/>
  <object id="165" x="200" y="1480" width="250.667" height="38.667"/>
  <object id="172" x="-40.3333" y="509" width="39.3337" height="849.515"/>
  <object id="173" x="-36.6667" y="1480" width="37.3337" height="124.515"/>
  <object id="174" x="1200" y="877" width="46.667" height="524.667"/>
  <object id="175" x="1201" y="0" width="45.667" height="560.667"/>
  <object id="199" x="1080" y="960" width="120.667" height="38.667"/>
 </objectgroup>
 <objectgroup color="#aa00ff" id="6" name="markers">
  <object id="135" name="spawn" x="40" y="1440">
   <point/>
  </object>
  <object id="197" name="colonel_run" x="1512.33" y="719.667">
   <point/>
  </object>
  <object id="200" name="to_farm10" x="1165.33" y="725.667">
   <point/>
  </object>
 </objectgroup>
 <objectgroup color="#ffff00" id="8" name="controllers">
  <object id="170" name="toggle" x="1299.5" y="520">
   <properties>
    <property name="flag" value="completeMajorWheatPuzzle"/>
    <property name="inverted" type="bool" value="true"/>
    <property name="target1" type="object" value="189"/>
    <property name="target10" type="object" value="180"/>
    <property name="target11" type="object" value="181"/>
    <property name="target12" type="object" value="166"/>
    <property name="target2" type="object" value="190"/>
    <property name="target3" type="object" value="185"/>
    <property name="target4" type="object" value="186"/>
    <property name="target5" type="object" value="187"/>
    <property name="target6" type="object" value="182"/>
    <property name="target7" type="object" value="183"/>
    <property name="target8" type="object" value="184"/>
    <property name="target9" type="object" value="179"/>
   </properties>
   <point/>
  </object>
  <object id="202" name="toggle" x="1320.67" y="534">
   <properties>
    <property name="flag" value="sawartilleryWheatPuzzleCutscene"/>
    <property name="inverted" type="bool" value="true"/>
    <property name="target" type="object" value="191"/>
   </properties>
   <point/>
  </object>
  <object id="203" name="toggle" x="1354" y="532.667">
   <properties>
    <property name="flag" value="sawartilleryWheatPuzzleCutscene"/>
    <property name="inverted" type="bool" value="false"/>
    <property name="target" type="object" value="201"/>
   </properties>
   <point/>
  </object>
  <object id="204" name="toggle" x="1326" y="454.667">
   <properties>
    <property name="flag" value="sawartilleryWheatPuzzleCutscene"/>
    <property name="inverted" type="bool" value="true"/>
    <property name="target" type="object" value="138"/>
   </properties>
   <point/>
  </object>
  <object id="217" name="toggle" x="1278" y="217.5">
   <properties>
    <property name="flag" value="rescuedColonel"/>
    <property name="inverted" type="bool" value="true"/>
    <property name="target1" type="object" value="212"/>
    <property name="target2" type="object" value="214"/>
    <property name="target3" type="object" value="207"/>
    <property name="target4" type="object" value="210"/>
    <property name="target5" type="object" value="211"/>
    <property name="target6" type="object" value="206"/>
    <property name="target7" type="object" value="213"/>
    <property name="target8" type="object" value="216"/>
    <property name="target9" type="object" value="215"/>
   </properties>
   <point/>
  </object>
 </objectgroup>
</map>
