<?xml version="1.0" encoding="UTF-8"?>
<map version="1.10" tiledversion="1.12.2" orientation="orthogonal" renderorder="right-down" width="21" height="24" tilewidth="40" tileheight="40" infinite="0" nextlayerid="9" nextobjectid="32">
 <editorsettings>
  <export target="farm7_gate3.lua" format="lua"/>
 </editorsettings>
 <tileset firstgid="1" source="../../../tilesets/GONER.tsx"/>
 <tileset firstgid="26" source="../../../tilesets/farm_world_extras.tsx"/>
 <tileset firstgid="59" source="../../../tilesets/farm_world.tsx"/>
 <layer id="8" name="Tile Layer 2" width="21" height="24">
  <data encoding="csv">
0,0,0,0,0,0,0,0,0,0,0,0,0,0,0,0,0,0,0,0,0,
0,0,0,0,0,0,0,0,0,0,0,0,0,0,0,0,0,0,0,0,0,
0,0,0,0,0,0,0,0,0,0,0,0,0,0,0,0,0,0,0,0,0,
0,0,0,0,0,0,0,0,0,0,0,0,0,0,0,0,0,0,0,0,0,
0,0,0,0,0,0,0,0,0,0,0,0,0,0,0,0,0,0,0,0,0,
0,0,0,0,0,0,0,0,0,0,0,0,0,0,0,0,0,0,0,0,0,
0,0,0,0,0,0,0,0,0,0,0,0,0,0,0,0,0,0,0,0,0,
0,0,0,0,0,0,0,0,0,0,0,0,0,0,0,0,0,0,0,0,0,
0,0,0,0,0,0,0,0,0,0,0,0,0,0,0,0,0,0,0,0,0,
0,0,0,0,0,0,0,0,0,0,0,0,0,0,0,0,0,0,0,0,0,
0,0,0,0,0,0,0,0,0,0,0,0,0,0,0,0,0,0,0,0,0,
0,0,0,0,0,0,0,0,0,0,0,0,0,0,0,0,0,0,0,0,0,
0,0,0,0,0,0,0,0,0,0,0,0,0,0,0,0,0,0,0,0,0,
0,0,0,0,0,0,0,0,0,0,0,0,0,0,0,0,0,0,0,0,0,
0,0,0,0,0,0,0,0,0,0,0,0,0,0,0,0,0,0,0,0,0,
0,0,0,0,0,0,0,0,0,0,0,0,0,0,0,0,0,0,0,0,0,
0,0,0,0,0,0,0,0,0,0,0,0,0,0,0,0,0,0,0,0,0,
0,0,0,0,0,0,0,0,0,0,0,0,0,0,0,0,0,0,0,0,0,
0,0,0,0,0,0,0,0,0,0,0,0,0,0,0,0,0,0,0,0,0,
0,0,0,0,0,0,0,0,0,0,0,0,0,0,0,0,0,0,0,0,0,
0,0,0,0,0,0,0,0,0,0,0,0,0,0,0,0,0,0,0,0,0,
0,0,0,0,0,0,0,0,0,0,0,0,0,0,0,0,0,0,0,0,0,
0,0,0,0,0,0,0,0,0,0,0,0,0,0,0,0,0,0,0,0,0,
0,0,0,0,0,0,0,0,0,0,0,0,0,0,0,0,0,0,0,0,0
</data>
 </layer>
 <layer id="1" name="Tile Layer 1" width="21" height="24">
  <data encoding="csv">
0,0,0,0,0,0,66,65,65,65,65,65,67,0,0,0,0,0,0,0,0,
0,0,0,0,0,66,65,65,1,1,1,65,65,67,0,0,0,0,0,0,0,
0,0,0,0,66,65,65,65,1,1,1,65,65,65,66,0,0,0,0,0,0,
0,0,0,67,65,65,65,65,1,1,1,65,65,65,65,67,0,0,0,0,0,
0,0,0,0,79,76,76,76,76,75,75,76,75,75,80,0,0,0,0,0,0,
0,0,0,0,0,80,63,64,64,63,63,64,64,79,0,0,0,0,0,0,0,
0,0,0,0,0,0,79,64,64,63,63,64,80,0,0,0,0,0,0,0,0,
0,0,0,0,0,0,0,79,64,63,63,80,0,0,0,0,0,0,0,0,0,
0,0,0,0,0,0,0,80,64,63,64,79,0,0,0,0,0,0,0,0,0,
0,0,0,0,0,0,0,79,63,63,64,80,0,0,0,0,0,0,0,0,0,
0,0,0,0,0,0,0,80,64,64,64,80,0,0,0,0,0,0,0,0,0,
0,0,0,0,0,0,0,80,64,63,64,80,0,0,0,0,0,0,0,0,0,
0,0,0,0,0,0,0,79,64,64,63,79,0,0,0,0,0,0,0,0,0,
0,0,0,0,0,0,0,79,64,63,64,79,0,0,0,0,0,0,0,0,0,
0,0,0,0,0,0,0,79,63,63,64,80,0,0,0,0,0,0,0,0,0,
0,0,0,0,0,0,0,80,64,63,63,79,0,0,0,0,0,0,0,0,0,
0,0,0,0,0,0,0,80,63,63,64,79,0,0,0,0,0,0,0,0,0,
0,0,0,0,0,0,0,79,63,63,63,80,0,0,0,0,0,0,0,0,0,
0,0,0,0,0,0,0,79,63,64,64,80,0,0,0,0,0,0,0,0,0,
0,0,0,0,0,0,0,79,63,64,63,79,0,0,0,0,0,0,0,0,0,
0,0,0,0,0,0,0,80,63,64,63,80,0,0,0,0,0,0,0,0,0,
0,0,0,0,0,0,0,79,63,64,63,79,0,0,0,0,0,0,0,0,0,
0,0,0,0,0,0,0,79,64,63,64,80,0,0,0,0,0,0,0,0,0,
0,0,0,0,0,0,0,79,64,64,64,79,0,0,0,0,0,0,0,0,0
</data>
 </layer>
 <objectgroup id="3" name="objects_two">
  <object id="1" gid="53" x="300" y="160" width="160" height="160"/>
 </objectgroup>
 <objectgroup color="#ff007f" id="2" name="objects_party">
  <object id="2" name="mysterygate" x="300" y="0">
   <properties>
    <property name="key" value="barn"/>
    <property name="solid" type="bool" value="true"/>
   </properties>
   <point/>
  </object>
  <object id="18" name="transition" x="280" y="960" width="200" height="40">
   <properties>
    <property name="map" value="chapter1/farm_world/farm7_gate2"/>
    <property name="marker" value="to_gate3"/>
   </properties>
  </object>
  <object id="26" name="transition" x="320" y="120" width="120" height="40">
   <properties>
    <property name="map" value="chapter1/farm_world/farm7_stage"/>
    <property name="marker" value="entry"/>
   </properties>
  </object>
  <object id="30" name="script" x="280" y="280" width="200" height="40">
   <properties>
    <property name="cutscene" value="chapter1/zobate.colonels_dip"/>
    <property name="once" type="bool" value="false"/>
   </properties>
  </object>
 </objectgroup>
 <objectgroup color="#aa00ff" id="5" name="markers">
  <object id="20" name="to_gate2" x="380" y="920">
   <point/>
  </object>
  <object id="28" name="camera" x="380" y="640">
   <point/>
  </object>
  <object id="29" name="to_stage" x="380" y="200">
   <point/>
  </object>
 </objectgroup>
 <objectgroup color="#ffff00" id="6" name="controllers">
  <object id="21" name="toggle" x="380" y="-40">
   <properties>
    <property name="flag" value="zobate_gate3"/>
    <property name="inverted" type="bool" value="true"/>
    <property name="target1" type="object" value="23"/>
    <property name="target2" type="object" value="2"/>
   </properties>
   <point/>
  </object>
  <object id="22" name="toggle" x="480" y="-70">
   <properties>
    <property name="flag" value="zobate_gate3"/>
    <property name="inverted" type="bool" value="false"/>
    <property name="target1" type="object" value="26"/>
   </properties>
   <point/>
  </object>
  <object id="31" name="toggle" x="730" y="150">
   <properties>
    <property name="flag" value="leading_colonels_squad"/>
    <property name="inverted" type="bool" value="false"/>
    <property name="target1" type="object" value="30"/>
   </properties>
   <point/>
  </object>
 </objectgroup>
 <objectgroup id="7" name="objects_camera_shenanigans" locked="1">
  <object id="27" name="cameratarget" x="0" y="0" width="840" height="960">
   <properties>
    <property name="lockx" type="bool" value="true"/>
    <property name="locky" type="bool" value="false"/>
    <property name="marker" value="camera"/>
    <property name="returnspeed" type="int" value="12"/>
    <property name="speed" type="int" value="8"/>
   </properties>
  </object>
 </objectgroup>
 <objectgroup color="#0000ff" id="4" name="collision" locked="1">
  <object id="3" x="240" y="280" width="40" height="680"/>
  <object id="4" x="200" y="240" width="40" height="40"/>
  <object id="5" x="160" y="200" width="40" height="40"/>
  <object id="6" x="120" y="160" width="40" height="40"/>
  <object id="8" x="120" y="120" width="200" height="40"/>
  <object id="9" x="440" y="120" width="200" height="40"/>
  <object id="13" x="600" y="160" width="40" height="40"/>
  <object id="14" x="560" y="200" width="40" height="40"/>
  <object id="15" x="520" y="240" width="40" height="40"/>
  <object id="16" x="480" y="280" width="40" height="40"/>
  <object id="17" x="480" y="320" width="40" height="640"/>
  <object id="23" x="320" y="120" width="120" height="40"/>
 </objectgroup>
</map>
