<?xml version="1.0" encoding="UTF-8"?>
<map version="1.11" tiledversion="1.12.2" orientation="orthogonal" renderorder="right-down" width="80" height="12" tilewidth="40" tileheight="40" infinite="0" nextlayerid="8" nextobjectid="17">
 <editorsettings>
  <export target="farm1.lua" format="lua"/>
 </editorsettings>
 <properties>
  <property name="name" value="Barn?"/>
 </properties>
 <tileset firstgid="1" source="../../../tilesets/rural.tsx"/>
 <tileset firstgid="101" source="../../../tilesets/rural_buildings.tsx"/>
 <tileset firstgid="126" source="../../../tilesets/farm_world.tsx"/>
 <tileset firstgid="226" source="../../../tilesets/farm_world_extras.tsx"/>
 <layer id="1" name="Tile Layer 1" width="80" height="12">
  <data encoding="csv">
0,0,0,0,0,0,0,0,0,0,0,0,0,0,0,0,0,0,0,0,0,0,0,0,0,0,0,0,0,0,0,0,0,0,0,0,0,0,0,0,0,0,0,0,0,0,0,0,0,0,0,0,0,0,0,0,0,0,0,0,0,0,0,0,0,0,0,0,0,0,0,0,0,0,0,0,0,0,0,0,
0,0,0,0,0,0,0,0,0,0,0,0,0,0,0,0,0,0,0,0,0,0,0,0,0,0,0,0,0,0,0,0,0,0,0,0,0,0,0,0,0,0,0,0,0,0,0,0,0,0,0,0,0,0,0,0,0,0,0,0,0,0,0,0,0,0,0,0,0,0,0,0,0,0,0,0,0,0,0,0,
0,0,0,0,0,0,0,0,0,0,0,0,0,0,0,0,0,0,0,0,0,0,0,0,0,0,0,0,0,0,0,0,0,0,0,0,0,0,0,0,0,0,0,0,0,0,0,0,0,0,0,0,0,0,0,0,0,0,0,0,0,0,0,0,0,0,0,0,0,0,0,0,0,0,0,0,0,0,0,0,
0,0,229,229,230,226,227,0,0,0,0,0,0,0,0,0,0,0,0,0,0,0,0,0,0,0,0,0,0,0,0,0,0,0,0,0,0,0,0,0,0,0,0,0,0,0,0,0,0,0,0,0,0,0,0,0,0,0,0,0,0,0,0,0,0,0,0,0,0,0,0,0,0,0,0,0,0,0,0,0,
0,0,136,139,128,129,229,230,230,226,229,229,227,227,230,226,229,230,230,228,228,226,227,229,229,226,227,230,230,230,228,228,228,228,230,228,229,230,229,228,226,229,229,226,227,226,230,230,226,229,226,226,226,229,226,227,227,226,229,229,229,230,227,228,226,227,226,230,226,226,228,230,230,229,226,230,228,226,230,227,
0,0,127,137,137,139,126,127,138,139,137,138,137,129,139,127,136,128,138,126,136,126,139,138,137,126,138,136,126,137,129,139,137,136,129,126,136,128,138,128,139,136,127,139,137,128,126,138,137,126,128,139,139,137,139,126,127,136,139,136,126,128,139,127,126,137,136,136,139,126,127,129,136,129,126,139,139,129,138,137,
0,0,126,129,127,129,136,126,139,129,129,139,138,129,138,129,127,126,139,128,136,138,137,129,129,126,139,139,126,138,126,127,138,139,128,127,137,127,128,138,137,137,129,137,126,128,136,137,139,129,137,139,138,139,126,128,128,137,139,126,129,137,127,139,129,129,126,137,127,128,137,138,139,127,129,138,138,136,138,128,
0,0,128,137,136,139,0,0,0,0,0,0,0,0,0,0,0,0,0,0,0,0,0,0,0,0,0,0,0,0,0,0,0,0,0,0,0,0,0,0,0,0,0,0,0,0,0,0,0,0,0,0,0,0,0,0,0,0,0,0,0,0,0,0,0,0,0,0,0,0,0,0,0,0,0,0,0,0,0,0,
0,0,0,0,0,0,0,0,0,0,0,0,0,0,0,0,0,0,0,0,0,0,0,0,0,0,0,0,0,0,0,0,0,0,0,0,0,0,0,0,0,0,0,0,0,0,0,0,0,0,0,0,0,0,0,0,0,0,0,0,0,0,0,0,0,0,0,0,0,0,0,0,0,0,0,0,0,0,0,0,
0,0,0,0,0,0,0,0,0,0,0,0,0,0,0,0,0,0,0,0,0,0,0,0,0,0,0,0,0,0,0,0,0,0,0,0,0,0,0,0,0,0,0,0,0,0,0,0,0,0,0,0,0,0,0,0,0,0,0,0,0,0,0,0,0,0,0,0,0,0,0,0,0,0,0,0,0,0,0,0,
0,0,0,0,0,0,0,0,0,0,0,0,0,0,0,0,0,0,0,0,0,0,0,0,0,0,0,0,0,0,0,0,0,0,0,0,0,0,0,0,0,0,0,0,0,0,0,0,0,0,0,0,0,0,0,0,0,0,0,0,0,0,0,0,0,0,0,0,0,0,0,0,0,0,0,0,0,0,0,0,
0,0,0,0,0,0,0,0,0,0,0,0,0,0,0,0,0,0,0,0,0,0,0,0,0,0,0,0,0,0,0,0,0,0,0,0,0,0,0,0,0,0,0,0,0,0,0,0,0,0,0,0,0,0,0,0,0,0,0,0,0,0,0,0,0,0,0,0,0,0,0,0,0,0,0,0,0,0,0,0
</data>
 </layer>
 <objectgroup color="#0000ff" id="5" name="collision">
  <object id="3" x="40" y="120" width="240" height="40"/>
  <object id="4" x="40" y="160" width="40" height="200"/>
  <object id="5" x="80" y="320" width="200" height="40"/>
  <object id="6" x="240" y="280" width="2960" height="40"/>
  <object id="7" x="240" y="160" width="2960" height="40"/>
 </objectgroup>
 <objectgroup color="#ff007f" id="2" name="objects_party">
  <object id="2" name="savepoint" x="140" y="170" width="40" height="40">
   <properties>
    <property name="heals" type="bool" value="true"/>
    <property name="marker" value="spawn"/>
    <property name="text1">* You feel a sense of unease.[wait:5]
What was once has now formed anew.</property>
    <property name="text2">* You are filled with the
power of being averse to
a sudden change in routine.</property>
    <property name="text_once" type="bool" value="true"/>
   </properties>
  </object>
  <object id="8" gid="231" x="400" y="80" width="120" height="120"/>
  <object id="11" gid="232" x="2520" y="120" width="319" height="101"/>
  <object id="16" name="transition" x="3200" y="200" width="40" height="80">
   <properties>
    <property name="map" value="chapter1/farm_world/farm2"/>
    <property name="marker" value="to_farm1"/>
   </properties>
  </object>
 </objectgroup>
 <layer id="4" name="Tile Layer 2" width="80" height="12">
  <data encoding="csv">
0,0,0,0,0,0,0,0,0,0,0,0,0,0,0,0,0,0,0,0,0,0,0,0,0,0,0,0,0,0,0,0,0,0,0,0,0,0,0,0,0,0,0,0,0,0,0,0,0,0,0,0,0,0,0,0,0,0,0,0,0,0,0,0,0,0,0,0,0,0,0,0,0,0,0,0,0,0,0,0,
0,0,0,0,0,0,0,0,0,0,0,0,0,0,0,0,0,0,0,0,0,0,0,0,0,0,0,0,0,0,0,0,0,0,0,0,0,0,0,0,0,0,0,0,0,0,0,0,0,0,0,0,0,0,0,0,0,0,0,0,0,0,0,0,0,0,0,0,0,0,0,0,0,0,0,0,0,0,0,0,
0,0,0,0,0,0,0,0,0,0,0,0,0,0,0,0,0,0,0,0,0,0,0,0,0,0,0,0,0,0,0,0,0,0,0,0,0,0,0,0,0,0,0,0,0,0,0,0,0,0,0,0,0,0,0,0,0,0,0,0,0,0,0,0,0,0,0,0,0,0,0,0,0,0,0,0,0,0,0,0,
0,229,0,0,0,0,0,0,0,0,0,0,0,0,0,0,0,0,0,0,0,0,0,0,0,0,0,0,0,0,0,0,0,0,0,0,0,0,0,0,0,0,0,0,0,0,0,0,0,0,0,0,0,0,0,0,0,0,0,0,0,0,0,0,0,0,0,0,0,0,0,0,0,0,0,0,0,0,0,0,
0,229,0,0,0,0,0,0,0,0,0,0,0,0,0,0,0,0,0,0,0,0,0,0,0,0,0,0,0,0,0,0,0,0,0,0,0,0,0,0,0,0,0,0,0,0,0,0,0,0,0,0,0,0,0,0,0,0,0,0,0,0,0,0,0,0,0,0,0,0,0,0,0,0,0,0,0,0,0,0,
0,228,0,0,0,0,0,0,0,0,0,0,0,0,0,0,0,0,0,0,0,0,0,0,0,0,0,0,0,0,0,0,0,0,0,0,0,0,0,0,0,0,0,0,0,0,0,0,0,0,0,0,0,0,0,0,0,0,0,0,0,0,0,0,0,0,0,0,0,0,0,0,0,0,0,0,0,0,0,0,
0,229,0,0,0,0,0,0,0,0,0,0,0,0,0,0,0,0,0,0,0,0,0,0,0,0,0,0,0,0,0,0,0,0,0,0,0,0,0,0,0,0,0,0,0,0,0,0,0,0,0,0,0,0,0,0,0,0,0,0,0,0,0,0,0,0,0,0,0,0,0,0,0,0,0,0,0,0,0,0,
0,227,0,0,0,0,226,227,230,229,227,226,228,230,228,229,227,226,229,228,228,229,230,227,226,229,226,230,230,230,227,230,227,228,228,229,226,230,229,230,228,227,230,230,226,226,229,228,228,229,228,230,229,229,226,228,229,226,230,230,226,230,230,229,228,226,230,227,230,227,230,230,229,228,229,230,227,229,230,226,
0,227,227,228,227,227,229,0,0,0,0,0,0,0,0,0,0,0,0,0,0,0,0,0,0,0,0,0,0,0,0,0,0,0,0,0,0,0,0,0,0,0,0,0,0,0,0,0,0,0,0,0,0,0,0,0,0,0,0,0,0,0,0,0,0,0,0,0,0,0,0,0,0,0,0,0,0,0,0,0,
0,0,0,0,0,0,0,0,0,0,0,0,0,0,0,0,0,0,0,0,0,0,0,0,0,0,0,0,0,0,0,0,0,0,0,0,0,0,0,0,0,0,0,0,0,0,0,0,0,0,0,0,0,0,0,0,0,0,0,0,0,0,0,0,0,0,0,0,0,0,0,0,0,0,0,0,0,0,0,0,
0,0,0,0,0,0,0,0,0,0,0,0,0,0,0,0,0,0,0,0,0,0,0,0,0,0,0,0,0,0,0,0,0,0,0,0,0,0,0,0,0,0,0,0,0,0,0,0,0,0,0,0,0,0,0,0,0,0,0,0,0,0,0,0,0,0,0,0,0,0,0,0,0,0,0,0,0,0,0,0,
0,0,0,0,0,0,0,0,0,0,0,0,0,0,0,0,0,0,0,0,0,0,0,0,0,0,0,0,0,0,0,0,0,0,0,0,0,0,0,0,0,0,0,0,0,0,0,0,0,0,0,0,0,0,0,0,0,0,0,0,0,0,0,0,0,0,0,0,0,0,0,0,0,0,0,0,0,0,0,0
</data>
 </layer>
 <objectgroup id="6" name="objects">
  <object id="10" gid="231" x="1440" y="440" width="120" height="160"/>
  <object id="13" gid="231" x="2160" y="400" width="160" height="200"/>
 </objectgroup>
 <objectgroup color="#aa00ff" id="3" name="markers">
  <object id="1" name="spawn" x="160" y="260">
   <point/>
  </object>
  <object id="15" name="entry" x="3160" y="240">
   <point/>
  </object>
 </objectgroup>
</map>
