<?xml version="1.0" encoding="UTF-8"?>
<map version="1.11" tiledversion="1.12.2" orientation="orthogonal" renderorder="right-down" width="16" height="28" tilewidth="40" tileheight="40" infinite="0" nextlayerid="6" nextobjectid="4">
 <editorsettings>
  <export target="farm_climb.lua" format="lua"/>
 </editorsettings>
 <properties>
  <property name="music" value="mus_st_troubledingle"/>
  <property name="name" value="Wheat Field - Climb"/>
 </properties>
 <tileset firstgid="1" source="../../../tilesets/farm_world.tsx"/>
 <layer id="1" name="Tile Layer 1" width="16" height="28">
  <data encoding="csv">
0,0,0,0,0,0,0,0,0,0,0,0,0,0,0,0,
0,0,0,0,0,0,0,0,0,0,0,0,0,0,0,0,
0,0,0,0,0,0,0,0,0,0,0,0,0,0,0,0,
0,0,0,0,0,0,0,0,0,0,0,0,0,0,0,0,
0,0,0,0,0,0,0,0,0,0,0,0,0,0,0,0,
0,0,0,0,0,0,0,0,0,0,0,0,0,0,0,0,
0,0,0,0,0,0,0,0,0,0,0,0,0,0,0,0,
0,0,0,0,0,0,0,0,0,0,0,0,0,0,0,0,
0,0,0,0,0,0,0,0,0,0,0,0,0,0,0,0,
0,0,0,0,0,0,0,0,0,0,0,0,0,0,0,0,
0,0,0,0,0,0,0,0,0,0,0,0,0,0,0,0,
0,0,0,0,0,0,0,0,0,0,0,0,0,0,0,0,
0,0,0,0,0,0,0,0,0,0,0,0,0,0,0,0,
0,0,0,0,0,0,0,0,0,0,0,0,0,0,0,0,
0,0,0,0,0,0,0,0,0,0,0,0,0,0,0,0,
0,0,0,0,0,0,0,0,0,0,0,0,0,0,0,0,
0,0,0,0,0,0,0,0,0,0,0,12,0,0,0,0,
0,0,0,0,0,0,0,0,0,0,0,0,0,0,0,0,
11,0,0,3,13,0,0,0,12,0,0,0,0,0,0,0,
4,0,0,0,0,0,0,13,2,0,0,0,1,0,0,0,
0,0,0,0,0,0,0,0,0,0,0,0,0,0,0,0,
0,0,0,0,0,3,0,0,0,0,0,0,0,0,0,0,
0,0,0,0,0,0,0,0,0,0,0,0,0,0,0,0,
0,0,0,0,2,0,0,0,0,0,0,0,2,0,0,0,
0,1,0,0,3,0,0,0,0,1,0,0,0,0,14,3,
0,0,0,0,0,0,0,0,0,0,0,0,14,0,0,0,
14,0,0,14,0,0,0,0,0,0,1,0,0,0,0,0,
0,0,0,12,0,0,0,0,3,0,0,0,0,0,0,0
</data>
 </layer>
 <layer id="2" name="Tile Layer 2" width="16" height="28">
  <data encoding="csv">
0,0,0,0,0,0,0,0,0,0,0,0,0,0,0,0,
0,0,0,10,10,10,0,0,0,0,0,0,0,0,0,0,
0,0,0,10,10,10,0,0,0,0,0,0,0,0,0,0,
0,0,0,10,10,10,0,0,0,0,0,0,0,0,0,0,
0,0,0,10,10,10,0,0,0,0,0,0,0,0,0,0,
0,0,0,10,10,10,0,0,0,0,0,0,0,0,0,0,
0,0,0,10,10,10,0,0,0,0,0,0,0,0,0,0,
0,0,0,10,10,10,0,0,0,0,0,0,0,0,0,0,
0,0,0,10,10,10,0,0,0,0,0,0,0,0,0,0,
0,0,0,10,10,10,0,0,0,0,0,0,0,0,0,0,
0,0,0,10,10,10,0,0,0,0,0,0,0,0,0,0,
0,0,0,10,10,10,0,0,0,0,0,0,0,0,0,0,
0,0,0,10,10,10,0,0,0,0,0,0,0,0,0,0,
0,0,0,10,10,10,0,0,0,0,0,0,0,0,0,0,
0,0,0,10,10,10,0,0,0,0,0,0,0,0,0,0,
0,0,0,10,10,10,0,0,0,0,0,0,0,0,0,0,
0,0,0,10,10,10,0,0,0,0,0,0,0,0,0,0,
0,0,0,10,10,10,0,0,0,0,0,0,0,0,0,0,
0,0,0,10,10,10,0,0,0,0,0,0,0,0,0,0,
0,0,0,10,10,10,0,0,0,0,0,0,0,0,0,0,
0,0,0,10,10,10,0,0,0,0,0,0,0,0,0,0,
0,0,0,10,10,10,0,0,0,0,0,0,0,0,0,0,
0,0,0,10,10,10,0,0,0,0,0,0,0,0,0,0,
0,0,0,10,10,10,0,0,0,0,0,0,0,0,0,0,
0,0,0,10,10,10,0,0,0,0,0,0,0,0,0,0,
0,0,0,10,10,10,0,0,0,0,0,0,0,0,0,0,
0,0,0,10,10,10,0,0,0,0,0,0,0,0,0,0,
0,0,0,10,10,10,0,0,0,0,0,0,0,0,0,0
</data>
 </layer>
 <objectgroup color="#ff007f" id="5" name="objects_ladder">
  <object id="3" name="climbarea" x="120" y="40" width="120" height="1080"/>
 </objectgroup>
 <objectgroup color="#ff007f" id="3" name="objects">
  <object id="2" name="transition" x="120" y="1110" width="120" height="40">
   <properties>
    <property name="map" value="chapter1/farm_world/farm_gardner_test"/>
    <property name="marker" value="to_climb"/>
   </properties>
  </object>
 </objectgroup>
 <objectgroup color="#aa00ff" id="4" name="markers">
  <object id="1" name="spawn" x="180" y="1080">
   <properties>
    <property name="player_state" value="CLIMB"/>
   </properties>
   <point/>
  </object>
 </objectgroup>
</map>
