<?xml version="1.0" encoding="UTF-8"?>
<map version="1.11" tiledversion="1.12.2" orientation="orthogonal" renderorder="right-down" width="130" height="20" tilewidth="40" tileheight="40" infinite="0" nextlayerid="6" nextobjectid="105">
 <editorsettings>
  <export target="farm10.lua" format="lua"/>
 </editorsettings>
 <tileset firstgid="1" source="../../../tilesets/farm_world.tsx"/>
 <tileset firstgid="101" source="../../../tilesets/farm_world_extras.tsx"/>
 <layer id="1" name="Camada de Blocos 1" width="130" height="20">
  <data encoding="csv">
2,2,2,2,2,2,2,2,21,21,6,6,6,6,6,6,6,6,6,6,6,6,6,6,6,6,6,6,6,6,6,6,6,6,6,6,6,6,6,6,6,6,6,6,6,6,6,6,6,6,6,6,6,6,6,6,6,6,6,6,6,6,6,6,6,6,6,6,6,6,6,6,6,6,6,6,6,6,6,6,6,6,6,6,6,6,6,6,6,6,6,6,6,6,6,6,6,6,6,6,6,6,6,6,6,6,6,6,6,6,6,6,6,6,6,6,6,6,6,6,6,6,6,6,6,6,6,6,6,6,
2,2,2,2,2,2,2,2,21,21,6,6,6,6,6,6,6,6,6,6,6,6,6,6,6,6,6,6,6,6,6,6,6,6,6,6,6,6,6,6,6,6,6,6,6,6,6,6,6,6,6,6,6,6,6,6,6,6,6,6,6,6,6,6,6,6,6,6,6,6,6,6,6,6,6,6,6,6,6,6,6,6,6,6,6,6,6,6,6,6,6,6,6,6,6,6,6,6,6,6,6,6,6,6,6,6,6,6,6,6,6,6,6,6,6,6,6,6,6,6,6,6,6,6,6,6,6,6,6,6,
2,2,2,2,2,2,2,2,21,21,6,6,6,6,6,6,6,6,6,6,6,6,6,6,6,6,6,6,6,6,6,6,6,6,6,6,6,6,6,6,6,6,6,6,6,6,6,6,6,6,6,6,6,6,6,6,6,6,6,6,6,6,6,6,6,6,6,6,6,6,6,5,5,6,6,6,6,6,6,6,6,6,6,6,6,6,6,6,6,6,6,6,6,6,6,6,6,6,6,6,6,6,6,6,6,6,6,6,6,6,6,6,6,6,6,6,6,6,6,6,6,6,6,6,6,6,6,6,6,6,
21,2,2,2,2,2,2,2,21,21,15,15,15,15,1,1,1,1,1,1,1,1,1,15,15,15,15,15,15,15,1,15,15,15,15,1,15,15,15,15,15,15,15,15,15,15,15,15,15,1,15,15,15,15,15,15,15,15,15,15,15,15,1,1,15,1,15,15,15,15,15,1,15,15,15,15,15,15,1,15,15,15,15,1,15,15,15,15,15,15,1,15,15,15,15,15,1,1,15,15,15,15,15,15,15,15,15,15,15,15,15,15,1,1,15,15,15,15,15,15,6,6,6,6,6,6,6,6,6,6,
21,2,2,2,2,2,2,2,21,6,15,15,15,15,1,1,1,1,1,1,1,1,1,15,15,15,15,15,15,15,1,15,15,15,15,1,15,15,15,15,15,15,15,15,15,15,15,15,15,1,15,15,15,15,15,15,15,15,15,15,15,1,1,15,15,1,1,15,15,15,15,1,15,15,15,15,15,15,1,15,15,15,15,1,15,15,15,15,15,15,1,15,15,15,15,15,1,15,15,15,15,15,15,15,15,15,15,15,15,15,15,15,1,15,15,15,15,15,15,15,6,6,6,6,6,6,6,6,6,6,
21,21,21,21,21,21,21,21,6,6,15,15,15,15,1,1,1,1,1,1,1,1,1,15,15,15,15,15,15,15,1,15,15,15,15,5,15,15,15,15,15,15,15,15,15,15,15,15,1,1,15,15,15,15,15,15,15,15,15,15,1,1,15,15,15,15,1,1,1,1,1,1,15,15,15,15,15,1,1,15,15,15,15,1,15,15,15,15,15,15,1,15,15,15,15,1,1,15,15,15,15,15,15,15,15,15,15,15,15,15,15,15,1,15,15,1,5,1,15,1,6,6,6,6,6,6,6,6,6,6,
6,21,21,21,6,6,21,21,6,6,15,15,15,15,1,15,1,1,1,1,1,1,1,15,15,15,1,15,15,15,1,15,15,15,15,5,15,15,15,15,15,15,15,15,15,15,15,15,1,15,15,15,15,15,15,15,15,15,15,1,1,15,15,15,15,15,15,15,15,1,15,15,15,15,15,15,15,1,15,15,15,15,15,1,15,15,15,15,15,15,1,15,15,15,15,1,15,15,15,1,1,1,1,1,1,15,15,15,15,15,15,15,1,15,15,1,15,1,15,1,6,6,6,6,6,6,6,6,6,6,
6,6,6,6,6,6,6,6,6,6,15,15,15,15,1,15,15,1,1,1,1,15,15,15,15,15,15,1,1,15,1,15,15,15,15,1,1,1,1,1,15,15,15,15,15,15,15,15,1,1,15,15,15,15,15,15,15,1,1,1,15,15,15,15,15,15,15,15,15,1,1,15,15,15,1,1,1,1,15,15,15,15,15,1,1,1,1,5,5,1,1,15,15,15,15,1,15,15,15,1,15,15,15,15,15,15,15,15,15,15,15,15,1,15,15,1,15,1,15,1,6,6,6,6,6,6,6,6,6,6,
6,6,6,6,6,6,6,6,6,6,15,15,15,15,1,15,15,15,1,1,15,15,15,15,15,15,15,15,1,1,1,15,15,15,15,15,15,1,15,1,1,1,1,1,1,15,15,15,15,15,15,1,15,15,15,15,15,15,15,15,1,15,15,15,15,15,15,15,15,15,1,1,15,15,15,15,15,15,15,15,15,15,15,15,15,15,15,15,15,1,1,1,1,1,1,1,15,15,15,1,15,15,15,15,15,15,15,15,15,1,1,1,1,15,15,1,15,1,15,1,6,6,6,6,6,6,6,6,6,6,
15,15,15,15,15,15,15,15,15,15,15,15,15,15,1,15,15,15,15,15,15,15,15,15,15,15,15,15,15,15,15,15,15,15,15,15,15,1,15,15,15,15,15,15,15,1,1,15,15,15,15,1,1,1,1,1,15,15,15,15,1,15,15,1,1,1,15,15,15,15,15,1,15,15,15,15,15,15,15,15,15,15,15,15,15,15,15,15,15,15,15,15,1,1,15,15,15,15,15,1,15,15,15,15,15,15,15,15,15,15,15,15,15,15,15,1,15,1,15,1,15,15,15,15,15,15,15,15,15,15,
15,15,15,15,15,15,15,15,15,15,15,15,15,15,15,15,15,15,15,15,15,15,15,15,15,15,15,15,15,15,15,15,15,15,15,15,15,1,15,15,15,15,15,15,15,15,1,15,15,15,15,1,15,15,15,1,15,15,15,15,1,15,15,1,15,15,15,15,15,15,15,1,15,15,15,15,1,1,1,15,15,15,15,15,15,15,15,15,15,15,15,15,15,15,15,15,15,15,15,1,15,15,15,15,15,15,15,15,15,15,15,15,15,1,1,1,15,1,15,1,15,15,15,15,15,15,15,15,15,15,
15,15,15,15,15,15,15,15,15,15,15,15,15,1,15,15,15,15,15,15,15,15,15,15,15,15,15,15,15,15,15,15,15,15,15,15,15,1,15,15,15,15,15,15,1,1,1,15,15,15,15,1,15,15,15,1,15,15,1,1,1,15,15,1,15,15,15,15,15,5,1,1,15,15,15,15,1,15,1,1,1,15,15,15,15,15,15,15,1,1,1,1,1,1,1,1,1,1,1,1,1,1,15,15,1,1,1,1,1,1,1,1,1,1,15,15,15,1,15,1,15,15,15,15,15,15,15,15,15,15,
6,6,6,6,6,6,6,6,6,6,15,15,15,15,1,15,15,15,15,15,15,15,15,1,1,1,1,1,1,1,1,1,15,15,15,15,15,1,15,15,15,15,1,1,1,15,15,15,15,15,15,15,15,15,15,1,15,15,1,15,15,15,15,1,15,15,15,15,15,5,15,15,15,15,15,1,1,15,15,15,1,15,15,15,15,15,1,1,1,15,15,15,15,15,15,15,15,15,15,1,15,1,15,15,15,15,1,15,15,15,1,15,15,15,15,15,15,1,15,1,6,6,6,6,6,6,6,6,6,6,
6,6,6,6,6,6,6,6,6,6,15,15,15,15,1,15,15,15,15,15,15,15,15,1,15,15,15,15,15,1,1,1,15,15,15,15,15,15,15,1,1,1,1,15,15,15,15,15,1,1,1,1,1,1,5,1,15,15,1,1,1,1,1,1,15,15,15,15,15,5,15,15,15,15,1,1,15,15,15,15,1,15,15,15,15,15,1,15,15,15,15,15,15,15,15,15,15,15,1,1,15,1,15,15,15,15,1,15,15,15,1,15,15,15,15,15,15,15,15,1,6,6,6,6,6,6,6,6,6,6,
21,21,21,21,21,6,6,6,6,6,15,15,15,15,1,15,15,15,15,15,15,15,15,1,15,15,15,15,15,1,1,1,15,15,15,15,15,15,15,1,15,15,15,15,15,15,15,15,15,15,15,15,15,15,15,5,15,15,15,15,15,15,15,15,15,15,15,15,15,5,15,15,15,15,15,15,15,15,15,15,1,15,15,15,15,15,1,15,15,15,15,15,15,15,15,1,1,1,1,15,15,1,15,15,15,15,1,15,15,15,1,1,15,15,15,15,15,15,15,1,6,6,6,6,6,6,6,6,6,6,
21,21,1,1,21,21,21,21,21,6,15,15,15,1,1,1,1,1,15,15,15,15,15,1,15,15,15,15,15,15,15,15,15,15,15,15,15,15,15,15,15,15,15,15,15,15,15,15,15,15,15,15,15,15,15,1,15,15,15,15,15,15,15,15,15,15,15,15,5,5,15,15,15,15,15,15,15,15,15,15,1,15,15,15,15,1,1,15,15,15,15,15,15,15,15,15,15,15,15,15,15,1,15,15,15,15,1,15,15,15,15,15,15,15,15,15,15,15,15,1,6,6,6,6,6,6,6,6,6,6,
1,1,1,1,1,1,1,1,21,6,15,15,15,1,1,1,1,1,15,15,15,15,15,1,15,15,15,15,15,15,15,15,15,15,15,15,15,15,15,15,15,15,15,15,15,15,15,15,15,15,15,15,15,15,15,1,15,15,15,15,15,15,15,15,15,15,15,5,5,5,15,15,15,15,15,15,15,15,15,1,1,15,15,15,15,1,1,1,1,5,1,15,15,15,15,15,15,15,15,15,15,1,15,15,15,15,1,1,1,1,1,1,1,1,1,1,1,1,1,1,6,6,6,6,6,6,6,6,6,6,
1,2,1,1,2,2,1,1,21,21,6,6,6,6,6,6,6,6,6,6,6,6,6,6,6,6,6,6,6,6,6,6,6,6,6,6,6,6,6,6,6,6,6,6,6,6,6,6,6,6,6,6,6,6,6,6,6,6,6,6,6,6,6,6,6,6,6,6,6,6,6,6,6,6,6,6,6,6,6,6,6,6,6,6,6,6,6,6,6,6,6,6,6,6,6,6,6,6,6,6,6,6,6,6,6,6,6,6,6,6,6,6,6,6,6,6,6,6,6,6,6,6,6,6,6,6,6,6,6,6,
1,2,2,1,2,2,1,1,1,21,6,6,6,6,6,6,6,6,6,6,6,6,6,6,6,6,6,6,6,6,6,6,6,6,6,6,6,6,6,6,6,6,6,6,6,6,6,6,6,6,6,6,6,6,6,6,6,6,6,6,6,6,6,6,6,6,6,6,6,6,6,6,6,6,6,6,6,6,6,6,6,6,6,6,6,6,6,6,6,6,6,6,6,6,6,6,6,6,6,6,6,6,6,6,6,6,6,6,6,6,6,6,6,6,6,6,6,6,6,6,6,6,6,6,6,6,6,6,6,6,
1,1,1,1,1,1,1,1,1,21,6,6,6,6,6,6,6,6,6,6,6,6,6,6,6,6,6,6,6,6,6,6,6,6,6,6,6,6,6,6,6,6,6,6,6,6,6,6,6,6,6,6,6,6,6,6,6,6,6,6,6,6,6,6,6,6,6,6,6,6,6,6,6,6,6,6,6,6,6,6,6,6,6,6,6,6,6,6,6,6,6,6,6,6,6,6,6,6,6,6,6,6,6,6,6,6,6,6,6,6,6,6,6,6,6,6,6,6,6,6,6,6,6,6,6,6,6,6,6,6
</data>
 </layer>
 <layer id="2" name="Camada de Blocos 2" width="130" height="20">
  <data encoding="csv">
24,24,24,24,24,24,24,24,24,0,0,0,0,0,0,0,0,0,0,0,0,0,0,0,0,0,0,0,0,0,0,0,0,0,0,0,0,0,0,0,0,0,0,0,0,0,0,0,0,0,0,0,0,0,0,0,0,0,0,0,0,0,0,0,0,0,0,0,0,0,0,0,0,0,0,0,0,0,0,0,0,0,0,0,0,0,0,0,0,0,0,0,0,0,0,0,0,0,0,0,0,0,0,0,0,0,0,0,0,0,0,0,0,0,0,0,0,0,0,0,0,0,23,0,0,0,0,0,0,0,
24,24,24,24,24,24,24,24,24,0,0,0,0,0,0,0,0,0,0,0,0,0,0,0,0,0,0,0,0,0,0,0,0,0,0,0,0,0,0,0,0,0,0,0,0,0,0,0,0,0,0,0,0,0,0,0,0,0,0,0,0,0,0,0,0,0,0,0,0,0,0,0,0,0,0,0,0,0,0,0,0,0,0,0,0,0,0,0,0,0,0,0,0,0,0,0,0,0,0,0,0,0,0,0,0,0,0,0,0,0,0,0,0,0,0,0,0,0,0,0,0,0,23,0,0,0,0,0,0,0,
24,24,24,24,24,24,24,24,0,0,0,0,0,0,0,0,0,0,0,0,0,0,0,0,0,0,0,0,0,0,0,0,0,0,0,0,0,0,0,0,0,0,0,0,0,0,0,0,0,0,0,0,0,0,0,0,0,0,0,0,0,0,0,0,0,0,0,0,0,0,0,0,0,0,0,0,0,0,0,0,0,0,0,0,0,0,0,0,0,0,0,0,0,0,0,0,0,0,0,0,0,0,0,0,0,0,0,0,0,0,0,0,0,0,0,0,0,0,0,0,0,0,23,0,0,0,0,0,0,0,
0,24,24,24,24,24,24,24,0,0,0,0,0,0,101,111,109,102,112,109,101,103,105,0,0,0,0,0,0,0,105,0,0,0,0,102,0,0,0,0,0,0,0,0,0,0,0,0,0,112,0,0,0,0,0,0,0,0,0,0,0,0,105,109,0,111,0,0,0,0,0,103,0,0,0,0,0,0,112,0,0,0,0,103,0,0,0,0,0,0,110,0,0,0,0,0,102,108,0,0,0,0,0,0,0,0,0,0,0,0,0,0,109,103,0,0,0,0,0,0,0,0,23,0,0,0,0,0,0,0,
0,24,24,24,24,24,24,24,0,0,0,0,0,0,101,104,112,104,105,105,102,110,105,0,0,0,0,0,0,0,109,0,0,0,0,112,0,0,0,0,0,0,0,0,0,0,0,0,0,109,0,0,0,0,0,0,0,0,0,0,0,101,110,0,0,111,104,0,0,0,0,105,0,0,0,0,0,0,102,0,0,0,0,110,0,0,0,0,0,0,103,0,0,0,0,0,109,0,0,0,0,0,0,0,0,0,0,0,0,0,0,0,102,0,0,0,0,0,0,0,0,0,23,0,0,0,0,0,0,0,
0,0,0,0,0,0,0,0,0,0,0,0,0,0,105,109,108,108,109,109,108,105,102,0,0,0,0,0,0,0,108,0,0,0,0,0,0,0,0,0,0,0,0,0,0,0,0,0,102,109,0,0,0,0,0,0,0,0,0,0,109,111,0,0,0,0,112,111,110,112,104,102,0,0,0,0,0,112,105,0,0,0,0,110,0,0,0,0,0,0,109,0,0,0,0,103,111,0,0,0,0,0,0,0,0,0,0,0,0,0,0,0,109,0,0,104,0,102,0,105,0,0,23,0,0,0,0,0,0,0,
0,0,0,0,0,0,0,0,0,0,0,0,0,0,103,0,111,110,102,104,112,104,104,0,0,0,105,0,0,0,109,0,0,0,0,0,0,0,0,0,0,0,0,0,0,0,0,0,109,0,0,0,0,0,0,0,0,0,0,101,101,0,0,0,0,0,0,0,0,103,0,0,0,0,0,0,0,104,0,0,0,0,0,111,0,0,0,0,0,0,109,0,0,0,0,104,0,0,0,105,110,109,111,112,105,0,0,0,0,0,0,0,102,0,0,102,0,109,0,111,0,0,23,0,0,0,0,0,0,0,
0,0,0,0,0,0,0,0,0,0,0,0,0,0,102,0,0,109,110,109,111,0,0,0,0,0,0,109,102,0,101,0,0,0,0,111,102,104,111,104,0,0,0,0,0,0,0,0,108,111,0,0,0,0,0,0,0,108,110,110,0,0,0,0,0,0,0,0,0,101,108,0,0,0,104,111,104,112,0,0,0,0,0,105,105,110,110,0,0,104,104,0,0,0,0,108,0,0,0,101,0,0,0,0,0,0,0,0,0,0,0,0,111,0,0,103,0,102,0,111,0,0,23,0,0,0,0,0,0,0,
0,0,0,0,0,0,0,0,0,0,0,0,0,0,105,0,0,0,104,104,0,0,0,0,0,0,0,0,104,104,111,0,0,0,0,0,0,105,0,111,105,108,102,101,101,0,0,0,0,0,0,110,0,0,0,0,0,0,0,0,103,0,0,0,0,0,0,0,0,0,105,112,0,0,0,0,0,0,0,0,0,0,0,0,0,0,0,0,0,109,108,110,105,108,105,103,0,0,0,105,0,0,0,0,0,0,0,0,0,103,105,104,112,0,0,111,0,105,0,108,0,0,23,0,0,0,0,0,0,0,
0,0,0,0,0,0,0,0,0,0,0,0,0,0,105,0,0,0,0,0,0,0,0,0,0,0,0,0,0,0,0,0,0,0,0,0,0,105,0,0,0,0,0,0,0,103,110,0,0,0,0,104,101,103,108,111,0,0,0,0,110,0,0,105,111,110,0,0,0,0,0,101,0,0,0,0,0,0,0,0,0,0,0,0,0,0,0,0,0,0,0,0,104,109,0,0,0,0,0,102,0,0,0,0,0,0,0,0,0,0,0,0,0,0,0,108,0,109,0,102,0,0,23,0,0,0,0,0,0,0,
0,0,0,0,0,0,0,0,0,0,0,0,0,0,0,0,0,0,0,0,0,0,0,0,0,0,0,0,0,0,0,0,0,0,0,0,0,108,0,0,0,0,0,0,0,0,109,0,0,0,0,104,0,0,0,108,0,0,0,0,105,0,0,111,0,0,0,0,0,0,0,105,0,0,0,0,108,110,102,0,0,0,0,0,0,0,0,0,0,0,0,0,0,0,0,0,0,0,0,112,0,0,0,0,0,0,0,0,0,0,0,0,0,102,104,110,0,102,0,103,0,0,23,0,0,0,0,0,0,0,
0,0,0,0,0,0,0,0,0,0,0,0,0,109,0,0,0,0,0,0,0,0,0,0,0,0,0,0,0,0,0,0,0,0,0,0,0,101,0,0,0,0,0,0,108,103,105,0,0,0,0,101,0,0,0,104,0,0,104,105,112,0,0,109,0,0,0,0,0,0,102,103,0,0,0,0,112,0,112,102,104,0,0,0,0,0,0,0,110,101,101,110,111,108,112,110,112,102,103,104,111,108,0,0,108,108,103,101,102,103,101,105,105,108,0,0,0,102,0,110,0,0,23,0,0,0,0,0,0,0,
0,0,0,0,0,0,0,0,0,0,0,0,0,0,110,0,0,0,0,0,0,0,0,110,103,111,110,112,101,104,102,108,0,0,0,0,0,104,0,0,0,0,102,104,103,0,0,0,0,0,0,0,0,0,0,109,0,0,104,0,0,0,0,111,0,0,0,0,0,0,0,0,0,0,0,110,112,0,0,0,101,104,0,0,0,0,109,111,104,0,0,0,0,0,0,0,0,0,0,110,0,102,0,0,0,0,101,0,0,0,105,0,0,0,0,0,0,112,0,110,0,0,23,0,0,0,0,0,0,0,
0,0,0,0,0,0,0,0,0,0,0,0,0,0,101,0,0,0,0,0,0,0,0,105,0,0,0,0,0,110,108,108,0,0,0,0,0,0,0,103,110,110,109,0,0,0,0,0,110,103,109,109,111,112,0,104,0,0,105,103,112,103,109,105,0,0,0,0,0,0,0,0,0,0,109,103,0,0,0,0,103,0,0,0,0,0,104,0,0,0,0,0,0,0,0,0,0,0,108,112,0,102,0,0,0,0,112,0,0,0,112,0,0,0,0,0,0,0,0,110,0,0,23,0,0,0,0,0,0,0,
0,0,0,0,0,0,0,0,0,0,0,0,0,0,109,0,0,0,0,0,0,0,0,101,0,0,0,0,0,101,102,102,0,0,0,0,0,0,0,108,0,0,0,0,0,0,0,0,0,0,0,0,0,0,0,0,0,0,0,0,0,0,0,0,0,0,0,0,0,0,0,0,0,0,0,0,0,0,0,0,110,0,0,0,0,0,111,0,0,0,0,0,0,0,0,103,101,102,105,0,0,103,0,0,0,0,110,0,0,0,103,110,0,0,0,0,0,0,0,104,0,0,23,0,0,0,0,0,0,0,
0,24,24,24,24,0,0,24,24,0,0,0,0,111,110,105,105,108,0,0,0,0,0,110,0,0,0,0,0,0,0,0,0,0,0,0,0,0,0,0,0,0,0,0,0,0,0,0,0,0,0,0,0,0,0,108,0,0,0,0,0,0,0,0,0,0,0,0,0,0,0,0,0,0,0,0,0,0,0,0,104,0,0,0,0,110,104,0,0,0,0,0,0,0,0,0,0,0,0,0,0,108,0,0,0,0,109,0,0,0,0,0,0,0,0,0,0,0,0,102,0,0,23,0,0,0,0,0,0,0,
24,24,24,24,24,24,24,24,24,24,0,0,0,111,102,108,104,112,0,0,0,0,0,101,0,0,0,0,0,0,0,0,0,0,0,0,0,0,0,0,0,0,0,0,0,0,0,0,0,0,0,0,0,0,0,102,0,0,0,0,0,0,0,0,0,0,0,0,0,0,0,0,0,0,0,0,0,0,0,103,103,0,0,0,0,108,111,102,102,0,110,0,0,0,0,0,0,0,0,0,0,109,0,0,0,0,108,111,109,110,112,103,103,110,102,108,102,103,104,104,0,0,23,0,0,0,0,0,0,0,
24,24,24,24,24,24,24,24,24,24,0,0,0,0,0,0,0,0,0,0,0,0,0,0,0,0,0,0,0,0,0,0,0,0,0,0,0,0,0,0,0,0,0,0,0,0,0,0,0,0,0,0,0,0,0,0,0,0,0,0,0,0,0,0,0,0,0,0,0,0,0,0,0,0,0,0,0,0,0,0,0,0,0,0,0,0,0,0,0,0,0,0,0,0,0,0,0,0,0,0,0,0,0,0,0,0,0,0,0,0,0,0,0,0,0,0,0,0,0,0,0,0,23,0,0,0,0,0,0,0,
24,24,24,24,24,24,24,24,24,0,0,0,0,0,0,0,0,0,0,0,0,0,0,0,0,0,0,0,0,0,0,0,0,0,0,0,0,0,0,0,0,0,0,0,0,0,0,0,0,0,0,0,0,0,0,0,0,0,0,0,0,0,0,0,0,0,0,0,0,0,0,0,0,0,0,0,0,0,0,0,0,0,0,0,0,0,0,0,0,0,0,0,0,0,0,0,0,0,0,0,0,0,0,0,0,0,0,0,0,0,0,0,0,0,0,0,0,0,0,0,0,0,23,0,0,0,0,0,0,0,
24,24,24,24,24,24,24,24,24,0,0,0,0,0,0,0,0,0,0,0,0,0,0,0,0,0,0,0,0,0,0,0,0,0,0,0,0,0,0,0,0,0,0,0,0,0,0,0,0,0,0,0,0,0,0,0,0,0,0,0,0,0,0,0,0,0,0,0,0,0,0,0,0,0,0,0,0,0,0,0,0,0,0,0,0,0,0,0,0,0,0,0,0,0,0,0,0,0,0,0,0,0,0,0,0,0,0,0,0,0,0,0,0,0,0,0,0,0,0,0,0,0,23,0,0,0,0,0,0,0
</data>
 </layer>
 <objectgroup id="4" name="collision">
  <object id="83" x="0" y="0" width="41.667" height="124.667"/>
  <object id="84" x="40" y="126" width="44.3333" height="73.3337"/>
  <object id="85" x="0" y="640" width="81" height="34.0004"/>
  <object id="87" x="79.3333" y="600" width="85.6667" height="42.0007"/>
 </objectgroup>
 <objectgroup id="3" name="objects_party">
  <object id="1" name="pushblock" x="720" y="640" width="40" height="40">
   <properties>
    <property name="lock" type="bool" value="true"/>
   </properties>
  </object>
  <object id="2" name="pushblock" x="1000" y="520" width="40" height="40">
   <properties>
    <property name="lock" type="bool" value="true"/>
   </properties>
  </object>
  <object id="3" name="pushblock" x="1120" y="160" width="40" height="40">
   <properties>
    <property name="lock" type="bool" value="true"/>
   </properties>
  </object>
  <object id="4" name="pushblock" x="1440" y="240" width="40" height="40">
   <properties>
    <property name="lock" type="bool" value="true"/>
   </properties>
  </object>
  <object id="5" name="pushblock" x="2160" y="480" width="40" height="40">
   <properties>
    <property name="lock" type="bool" value="true"/>
   </properties>
  </object>
  <object id="6" name="pushblock" x="2240" y="560" width="40" height="40">
   <properties>
    <property name="lock" type="bool" value="true"/>
   </properties>
  </object>
  <object id="7" name="pushblock" x="2360" y="320" width="40" height="40">
   <properties>
    <property name="lock" type="bool" value="true"/>
   </properties>
  </object>
  <object id="8" name="pushblock" x="2720" y="440" width="40" height="40">
   <properties>
    <property name="lock" type="bool" value="true"/>
   </properties>
  </object>
  <object id="9" name="pushblock" x="3440" y="240" width="40" height="40">
   <properties>
    <property name="lock" type="bool" value="true"/>
   </properties>
  </object>
  <object id="10" name="pushblock" x="3560" y="600" width="40" height="40">
   <properties>
    <property name="lock" type="bool" value="true"/>
   </properties>
  </object>
  <object id="11" name="pushblock" x="3760" y="480" width="40" height="40">
   <properties>
    <property name="lock" type="bool" value="true"/>
   </properties>
  </object>
  <object id="12" name="pushblock" x="3840" y="520" width="40" height="40">
   <properties>
    <property name="lock" type="bool" value="true"/>
   </properties>
  </object>
  <object id="13" name="pushblock" x="3920" y="200" width="40" height="40">
   <properties>
    <property name="lock" type="bool" value="true"/>
   </properties>
  </object>
  <object id="14" name="pushblock" x="3880" y="160" width="40" height="40">
   <properties>
    <property name="lock" type="bool" value="true"/>
   </properties>
  </object>
  <object id="15" name="pushblock" x="4360" y="360" width="40" height="40">
   <properties>
    <property name="lock" type="bool" value="true"/>
   </properties>
  </object>
  <object id="16" name="tilebutton" x="720" y="360" width="40" height="40">
   <properties>
    <property name="blocks" type="bool" value="true"/>
    <property name="cutscene" value="chapter1/farm_world.cornplate_puzzle"/>
    <property name="group" type="int" value="1"/>
    <property name="once" type="bool" value="true"/>
   </properties>
  </object>
  <object id="17" name="tilebutton" x="960" y="280" width="40" height="40">
   <properties>
    <property name="blocks" type="bool" value="true"/>
    <property name="cutscene" value="chapter1/farm_world.cornplate_puzzle"/>
    <property name="group" type="int" value="1"/>
    <property name="once" type="bool" value="true"/>
   </properties>
  </object>
  <object id="18" name="tilebutton" x="1080" y="600" width="40" height="40">
   <properties>
    <property name="blocks" type="bool" value="true"/>
    <property name="cutscene" value="chapter1/farm_world.cornplate_puzzle"/>
    <property name="group" type="int" value="1"/>
    <property name="once" type="bool" value="true"/>
   </properties>
  </object>
  <object id="19" name="tilebutton" x="1680" y="360" width="40" height="40">
   <properties>
    <property name="blocks" type="bool" value="true"/>
    <property name="cutscene" value="chapter1/farm_world.cornplate_puzzle"/>
    <property name="group" type="int" value="1"/>
    <property name="once" type="bool" value="true"/>
   </properties>
  </object>
  <object id="20" name="tilebutton" x="1480" y="600" width="40" height="40">
   <properties>
    <property name="blocks" type="bool" value="true"/>
    <property name="cutscene" value="chapter1/farm_world.cornplate_puzzle"/>
    <property name="group" type="int" value="1"/>
    <property name="once" type="bool" value="true"/>
   </properties>
  </object>
  <object id="21" name="tilebutton" x="1800" y="480" width="40" height="40">
   <properties>
    <property name="blocks" type="bool" value="true"/>
    <property name="cutscene" value="chapter1/farm_world.cornplate_puzzle"/>
    <property name="group" type="int" value="1"/>
    <property name="once" type="bool" value="true"/>
   </properties>
  </object>
  <object id="22" name="tilebutton" x="2160" y="560" width="40" height="40">
   <properties>
    <property name="blocks" type="bool" value="true"/>
    <property name="cutscene" value="chapter1/farm_world.cornplate_puzzle"/>
    <property name="group" type="int" value="1"/>
    <property name="once" type="bool" value="true"/>
   </properties>
  </object>
  <object id="23" name="tilebutton" x="1240" y="120" width="40" height="40">
   <properties>
    <property name="blocks" type="bool" value="true"/>
    <property name="cutscene" value="chapter1/farm_world.cornplate_puzzle"/>
    <property name="group" type="int" value="1"/>
    <property name="once" type="bool" value="true"/>
   </properties>
  </object>
  <object id="24" name="pushblock" x="1160" y="360" width="40" height="40">
   <properties>
    <property name="lock" type="bool" value="true"/>
   </properties>
  </object>
  <object id="25" name="pushblock" x="600" y="400" width="40" height="40">
   <properties>
    <property name="lock" type="bool" value="true"/>
   </properties>
  </object>
  <object id="26" name="pushblock" x="640" y="320" width="40" height="40">
   <properties>
    <property name="lock" type="bool" value="true"/>
   </properties>
  </object>
  <object id="27" name="pushblock" x="2480" y="200" width="40" height="40">
   <properties>
    <property name="lock" type="bool" value="true"/>
   </properties>
  </object>
  <object id="28" name="tilebutton" x="2920" y="520" width="40" height="40">
   <properties>
    <property name="blocks" type="bool" value="true"/>
    <property name="cutscene" value="chapter1/farm_world.cornplate_puzzle"/>
    <property name="group" type="int" value="1"/>
    <property name="once" type="bool" value="true"/>
   </properties>
  </object>
  <object id="29" name="tilebutton" x="3160" y="200" width="40" height="40">
   <properties>
    <property name="blocks" type="bool" value="true"/>
    <property name="cutscene" value="chapter1/farm_world.cornplate_puzzle"/>
    <property name="group" type="int" value="1"/>
    <property name="once" type="bool" value="true"/>
   </properties>
  </object>
  <object id="30" name="tilebutton" x="3560" y="160" width="40" height="40">
   <properties>
    <property name="blocks" type="bool" value="true"/>
    <property name="cutscene" value="chapter1/farm_world.cornplate_puzzle"/>
    <property name="group" type="int" value="1"/>
    <property name="once" type="bool" value="true"/>
   </properties>
  </object>
  <object id="31" name="tilebutton" x="4080" y="360" width="40" height="40">
   <properties>
    <property name="blocks" type="bool" value="true"/>
    <property name="cutscene" value="chapter1/farm_world.cornplate_puzzle"/>
    <property name="group" type="int" value="1"/>
    <property name="once" type="bool" value="true"/>
   </properties>
  </object>
  <object id="32" name="tilebutton" x="4080" y="560" width="40" height="40">
   <properties>
    <property name="blocks" type="bool" value="true"/>
    <property name="cutscene" value="chapter1/farm_world.cornplate_puzzle"/>
    <property name="group" type="int" value="1"/>
    <property name="once" type="bool" value="true"/>
   </properties>
  </object>
  <object id="33" name="tilebutton" x="4120" y="440" width="40" height="40">
   <properties>
    <property name="blocks" type="bool" value="true"/>
    <property name="cutscene" value="chapter1/farm_world.cornplate_puzzle"/>
    <property name="group" type="int" value="1"/>
    <property name="once" type="bool" value="true"/>
   </properties>
  </object>
  <object id="34" name="pushblock" x="4320" y="160" width="40" height="40">
   <properties>
    <property name="lock" type="bool" value="true"/>
   </properties>
  </object>
  <object id="35" name="tilebutton" x="4280" y="480" width="40" height="40">
   <properties>
    <property name="blocks" type="bool" value="true"/>
    <property name="cutscene" value="chapter1/farm_world.cornplate_puzzle"/>
    <property name="group" type="int" value="1"/>
    <property name="once" type="bool" value="true"/>
   </properties>
  </object>
  <object id="37" name="pushblock" x="4640" y="240" width="40" height="40">
   <properties>
    <property name="lock" type="bool" value="true"/>
   </properties>
  </object>
  <object id="38" name="tilebutton" x="4560" y="440" width="40" height="40">
   <properties>
    <property name="blocks" type="bool" value="true"/>
    <property name="cutscene" value="chapter1/farm_world.cornplate_puzzle"/>
    <property name="group" type="int" value="1"/>
    <property name="once" type="bool" value="true"/>
   </properties>
  </object>
  <object id="39" name="enemy" x="960" y="240" width="40" height="40">
   <properties>
    <property name="actor" value="spike"/>
    <property name="chase" type="bool" value="false"/>
    <property name="chasedist" type="int" value="500"/>
    <property name="chasespeed" type="int" value="20"/>
    <property name="encounter" value="disgustingSpikes"/>
    <property name="enemy" value="spike"/>
    <property name="once" type="bool" value="true"/>
   </properties>
  </object>
  <object id="40" name="enemy" x="920" y="240" width="40" height="40">
   <properties>
    <property name="actor" value="spike"/>
    <property name="chase" type="bool" value="false"/>
    <property name="chasedist" type="int" value="500"/>
    <property name="chasespeed" type="int" value="20"/>
    <property name="encounter" value="disgustingSpikes"/>
    <property name="enemy" value="spike"/>
    <property name="once" type="bool" value="true"/>
   </properties>
  </object>
  <object id="41" name="enemy" x="1000" y="240" width="40" height="40">
   <properties>
    <property name="actor" value="spike"/>
    <property name="chase" type="bool" value="false"/>
    <property name="chasedist" type="int" value="500"/>
    <property name="chasespeed" type="int" value="20"/>
    <property name="encounter" value="disgustingSpikes"/>
    <property name="enemy" value="spike"/>
    <property name="once" type="bool" value="true"/>
   </properties>
  </object>
  <object id="42" name="enemy" x="1200" y="600" width="40" height="40">
   <properties>
    <property name="actor" value="spike"/>
    <property name="chase" type="bool" value="false"/>
    <property name="chasedist" type="int" value="500"/>
    <property name="chasespeed" type="int" value="20"/>
    <property name="encounter" value="disgustingSpikes"/>
    <property name="enemy" value="spike"/>
    <property name="once" type="bool" value="true"/>
   </properties>
  </object>
  <object id="43" name="enemy" x="1200" y="640" width="40" height="40">
   <properties>
    <property name="actor" value="spike"/>
    <property name="chase" type="bool" value="false"/>
    <property name="chasedist" type="int" value="500"/>
    <property name="chasespeed" type="int" value="20"/>
    <property name="encounter" value="disgustingSpikes"/>
    <property name="enemy" value="spike"/>
    <property name="once" type="bool" value="true"/>
   </properties>
  </object>
  <object id="46" name="enemy" x="920" y="440" width="40" height="40">
   <properties>
    <property name="actor" value="spike"/>
    <property name="chase" type="bool" value="false"/>
    <property name="chasedist" type="int" value="500"/>
    <property name="chasespeed" type="int" value="20"/>
    <property name="encounter" value="disgustingSpikes"/>
    <property name="enemy" value="spike"/>
    <property name="once" type="bool" value="true"/>
   </properties>
  </object>
  <object id="47" name="enemy" x="1400" y="240" width="40" height="40">
   <properties>
    <property name="actor" value="spike"/>
    <property name="chase" type="bool" value="false"/>
    <property name="chasedist" type="int" value="500"/>
    <property name="chasespeed" type="int" value="20"/>
    <property name="encounter" value="disgustingSpikes"/>
    <property name="enemy" value="spike"/>
    <property name="once" type="bool" value="true"/>
   </properties>
  </object>
  <object id="48" name="enemy" x="2200" y="560" width="40" height="40">
   <properties>
    <property name="actor" value="spike"/>
    <property name="chase" type="bool" value="false"/>
    <property name="chasedist" type="int" value="500"/>
    <property name="chasespeed" type="int" value="20"/>
    <property name="encounter" value="disgustingSpikes"/>
    <property name="enemy" value="spike"/>
    <property name="once" type="bool" value="true"/>
   </properties>
  </object>
  <object id="49" name="enemy" x="2240" y="320" width="40" height="40">
   <properties>
    <property name="actor" value="spike"/>
    <property name="chase" type="bool" value="false"/>
    <property name="chasedist" type="int" value="500"/>
    <property name="chasespeed" type="int" value="20"/>
    <property name="encounter" value="disgustingSpikes"/>
    <property name="enemy" value="spike"/>
    <property name="once" type="bool" value="true"/>
   </properties>
  </object>
  <object id="50" name="enemy" x="3080" y="320" width="40" height="40">
   <properties>
    <property name="actor" value="spike"/>
    <property name="chase" type="bool" value="false"/>
    <property name="chasedist" type="int" value="500"/>
    <property name="chasespeed" type="int" value="20"/>
    <property name="encounter" value="disgustingSpikes"/>
    <property name="enemy" value="spike"/>
    <property name="once" type="bool" value="true"/>
   </properties>
  </object>
  <object id="51" name="enemy" x="3080" y="360" width="40" height="40">
   <properties>
    <property name="actor" value="spike"/>
    <property name="chase" type="bool" value="false"/>
    <property name="chasedist" type="int" value="500"/>
    <property name="chasespeed" type="int" value="20"/>
    <property name="encounter" value="disgustingSpikes"/>
    <property name="enemy" value="spike"/>
    <property name="once" type="bool" value="true"/>
   </properties>
  </object>
  <object id="52" name="enemy" x="3480" y="280" width="40" height="40">
   <properties>
    <property name="actor" value="spike"/>
    <property name="chase" type="bool" value="false"/>
    <property name="chasedist" type="int" value="500"/>
    <property name="chasespeed" type="int" value="20"/>
    <property name="encounter" value="disgustingSpikes"/>
    <property name="enemy" value="spike"/>
    <property name="once" type="bool" value="true"/>
   </properties>
  </object>
  <object id="53" name="enemy" x="3560" y="640" width="40" height="40">
   <properties>
    <property name="actor" value="spike"/>
    <property name="chase" type="bool" value="false"/>
    <property name="chasedist" type="int" value="500"/>
    <property name="chasespeed" type="int" value="20"/>
    <property name="encounter" value="disgustingSpikes"/>
    <property name="enemy" value="spike"/>
    <property name="once" type="bool" value="true"/>
   </properties>
  </object>
  <object id="54" name="enemy" x="3880" y="200" width="40" height="40">
   <properties>
    <property name="actor" value="spike"/>
    <property name="chase" type="bool" value="false"/>
    <property name="chasedist" type="int" value="500"/>
    <property name="chasespeed" type="int" value="20"/>
    <property name="encounter" value="disgustingSpikes"/>
    <property name="enemy" value="spike"/>
    <property name="once" type="bool" value="true"/>
   </properties>
  </object>
  <object id="55" name="enemy" x="4080" y="480" width="40" height="40">
   <properties>
    <property name="actor" value="spike"/>
    <property name="chase" type="bool" value="false"/>
    <property name="chasedist" type="int" value="500"/>
    <property name="chasespeed" type="int" value="20"/>
    <property name="encounter" value="disgustingSpikes"/>
    <property name="enemy" value="spike"/>
    <property name="once" type="bool" value="true"/>
   </properties>
  </object>
  <object id="56" name="enemy" x="4400" y="600" width="40" height="40">
   <properties>
    <property name="actor" value="spike"/>
    <property name="chase" type="bool" value="false"/>
    <property name="chasedist" type="int" value="500"/>
    <property name="chasespeed" type="int" value="20"/>
    <property name="encounter" value="disgustingSpikes"/>
    <property name="enemy" value="spike"/>
    <property name="once" type="bool" value="true"/>
   </properties>
  </object>
  <object id="57" name="enemy" x="4640" y="440" width="40" height="40">
   <properties>
    <property name="actor" value="spike"/>
    <property name="chase" type="bool" value="false"/>
    <property name="chasedist" type="int" value="500"/>
    <property name="chasespeed" type="int" value="20"/>
    <property name="encounter" value="disgustingSpikes"/>
    <property name="enemy" value="spike"/>
    <property name="once" type="bool" value="true"/>
   </properties>
  </object>
  <object id="58" name="enemy" x="4720" y="200" width="40" height="40">
   <properties>
    <property name="actor" value="spike"/>
    <property name="chase" type="bool" value="false"/>
    <property name="chasedist" type="int" value="500"/>
    <property name="chasespeed" type="int" value="20"/>
    <property name="encounter" value="disgustingSpikes"/>
    <property name="enemy" value="spike"/>
    <property name="once" type="bool" value="true"/>
   </properties>
  </object>
  <object id="59" name="enemy" x="4720" y="480" width="40" height="40">
   <properties>
    <property name="actor" value="spike"/>
    <property name="chase" type="bool" value="false"/>
    <property name="chasedist" type="int" value="500"/>
    <property name="chasespeed" type="int" value="20"/>
    <property name="encounter" value="disgustingSpikes"/>
    <property name="enemy" value="spike"/>
    <property name="once" type="bool" value="true"/>
   </properties>
  </object>
  <object id="60" name="enemy" x="1880" y="600" width="40" height="40">
   <properties>
    <property name="actor" value="spike"/>
    <property name="chase" type="bool" value="false"/>
    <property name="chasedist" type="int" value="500"/>
    <property name="chasespeed" type="int" value="20"/>
    <property name="encounter" value="disgustingSpikes"/>
    <property name="enemy" value="spike"/>
    <property name="once" type="bool" value="true"/>
   </properties>
  </object>
  <object id="61" name="enemy" x="2160" y="200" width="40" height="40">
   <properties>
    <property name="actor" value="spike"/>
    <property name="chase" type="bool" value="false"/>
    <property name="chasedist" type="int" value="500"/>
    <property name="chasespeed" type="int" value="20"/>
    <property name="encounter" value="disgustingSpikes"/>
    <property name="enemy" value="spike"/>
    <property name="once" type="bool" value="true"/>
   </properties>
  </object>
  <object id="62" name="enemy" x="1800" y="160" width="40" height="40">
   <properties>
    <property name="actor" value="spike"/>
    <property name="chase" type="bool" value="false"/>
    <property name="chasedist" type="int" value="500"/>
    <property name="chasespeed" type="int" value="20"/>
    <property name="encounter" value="disgustingSpikes"/>
    <property name="enemy" value="spike"/>
    <property name="once" type="bool" value="true"/>
   </properties>
  </object>
  <object id="63" name="enemy" x="1960" y="360" width="40" height="40">
   <properties>
    <property name="actor" value="spike"/>
    <property name="chase" type="bool" value="false"/>
    <property name="chasedist" type="int" value="500"/>
    <property name="chasespeed" type="int" value="20"/>
    <property name="encounter" value="disgustingSpikes"/>
    <property name="enemy" value="spike"/>
    <property name="once" type="bool" value="true"/>
   </properties>
  </object>
  <object id="64" name="enemy" x="2880" y="360" width="40" height="40">
   <properties>
    <property name="actor" value="spike"/>
    <property name="chase" type="bool" value="false"/>
    <property name="chasedist" type="int" value="500"/>
    <property name="chasespeed" type="int" value="20"/>
    <property name="encounter" value="disgustingSpikes"/>
    <property name="enemy" value="spike"/>
    <property name="once" type="bool" value="true"/>
   </properties>
  </object>
  <object id="65" name="enemy" x="3040" y="600" width="40" height="40">
   <properties>
    <property name="actor" value="spike"/>
    <property name="chase" type="bool" value="false"/>
    <property name="chasedist" type="int" value="500"/>
    <property name="chasespeed" type="int" value="20"/>
    <property name="encounter" value="disgustingSpikes"/>
    <property name="enemy" value="spike"/>
    <property name="once" type="bool" value="true"/>
   </properties>
  </object>
  <object id="66" name="enemy" x="3320" y="320" width="40" height="40">
   <properties>
    <property name="actor" value="spike"/>
    <property name="chase" type="bool" value="false"/>
    <property name="chasedist" type="int" value="500"/>
    <property name="chasespeed" type="int" value="20"/>
    <property name="encounter" value="disgustingSpikes"/>
    <property name="enemy" value="spike"/>
    <property name="once" type="bool" value="true"/>
   </properties>
  </object>
  <object id="67" name="enemy" x="3440" y="440" width="40" height="40">
   <properties>
    <property name="actor" value="spike"/>
    <property name="chase" type="bool" value="false"/>
    <property name="chasedist" type="int" value="500"/>
    <property name="chasespeed" type="int" value="20"/>
    <property name="encounter" value="disgustingSpikes"/>
    <property name="enemy" value="spike"/>
    <property name="once" type="bool" value="true"/>
   </properties>
  </object>
  <object id="68" name="enemy" x="3320" y="600" width="40" height="40">
   <properties>
    <property name="actor" value="spike"/>
    <property name="chase" type="bool" value="false"/>
    <property name="chasedist" type="int" value="500"/>
    <property name="chasespeed" type="int" value="20"/>
    <property name="encounter" value="disgustingSpikes"/>
    <property name="enemy" value="spike"/>
    <property name="once" type="bool" value="true"/>
   </properties>
  </object>
  <object id="69" name="tilebutton" x="2960" y="160" width="40" height="40">
   <properties>
    <property name="blocks" type="bool" value="true"/>
    <property name="cutscene" value="chapter1/farm_world.cornplate_puzzle"/>
    <property name="group" type="int" value="1"/>
    <property name="once" type="bool" value="true"/>
   </properties>
  </object>
  <object id="70" name="tilebutton" x="2613.33" y="569.333" width="40" height="40">
   <properties>
    <property name="blocks" type="bool" value="true"/>
    <property name="cutscene" value="chapter1/farm_world.cornplate_puzzle"/>
    <property name="group" type="int" value="1"/>
    <property name="once" type="bool" value="true"/>
   </properties>
  </object>
  <object id="72" name="tilebutton" x="3240" y="440" width="40" height="40">
   <properties>
    <property name="blocks" type="bool" value="true"/>
    <property name="cutscene" value="chapter1/farm_world.cornplate_puzzle"/>
    <property name="group" type="int" value="1"/>
    <property name="once" type="bool" value="true"/>
   </properties>
  </object>
  <object id="73" name="tilebutton" x="4200" y="280" width="40" height="40">
   <properties>
    <property name="blocks" type="bool" value="true"/>
    <property name="cutscene" value="chapter1/farm_world.cornplate_puzzle"/>
    <property name="group" type="int" value="1"/>
    <property name="once" type="bool" value="true"/>
   </properties>
  </object>
  <object id="74" name="tilebutton" x="3880" y="360" width="40" height="40">
   <properties>
    <property name="blocks" type="bool" value="true"/>
    <property name="cutscene" value="chapter1/farm_world.cornplate_puzzle"/>
    <property name="group" type="int" value="1"/>
    <property name="once" type="bool" value="true"/>
   </properties>
  </object>
  <object id="75" name="pushblock" x="3840" y="640" width="40" height="40">
   <properties>
    <property name="lock" type="bool" value="true"/>
   </properties>
  </object>
  <object id="76" name="pushblock" x="4160" y="640" width="40" height="40">
   <properties>
    <property name="lock" type="bool" value="true"/>
   </properties>
  </object>
  <object id="77" name="pushblock" x="3917.33" y="633.333" width="40" height="40">
   <properties>
    <property name="lock" type="bool" value="true"/>
   </properties>
  </object>
  <object id="78" name="pushblock" x="4160" y="600" width="40" height="40">
   <properties>
    <property name="lock" type="bool" value="true"/>
   </properties>
  </object>
  <object id="79" name="pushblock" x="4560" y="160" width="40" height="40">
   <properties>
    <property name="lock" type="bool" value="true"/>
   </properties>
  </object>
  <object id="80" name="pushblock" x="1040" y="400" width="40" height="40">
   <properties>
    <property name="lock" type="bool" value="true"/>
   </properties>
  </object>
  <object id="82" name="script" x="40" y="199.333" width="42.25" height="400.25">
   <properties>
    <property name="cutscene" value="chapter1/farm_world.artilleryWheatPuzzle"/>
    <property name="once" type="bool" value="true"/>
   </properties>
  </object>
  <object id="95" name="npc" x="160" y="400" width="40" height="40">
   <properties>
    <property name="actor" value="colonel"/>
    <property name="talk" type="bool" value="true"/>
    <property name="talksprite" value="talk"/>
    <property name="text1_1" value="* Soldier. Stop talking to me. Stop breaking the game"/>
   </properties>
  </object>
  <object id="97" name="npc" x="95.5" y="38.5" width="40" height="40">
   <properties>
    <property name="actor" value="colonel"/>
    <property name="talk" type="bool" value="true"/>
    <property name="talksprite" value="talk"/>
    <property name="text1_1" value="* Soldier. Stop talking to me. Stop breaking the game"/>
   </properties>
  </object>
  <object id="98" name="npc" x="88.5" y="122.5" width="40" height="40">
   <properties>
    <property name="actor" value="colonel"/>
    <property name="talk" type="bool" value="true"/>
    <property name="talksprite" value="talk"/>
    <property name="text1_1" value="* Soldier. Stop talking to me. Stop breaking the game"/>
   </properties>
  </object>
  <object id="100" name="npc" x="240" y="680" width="40" height="40">
   <properties>
    <property name="actor" value="colonel"/>
    <property name="talk" type="bool" value="true"/>
    <property name="talksprite" value="talk"/>
    <property name="text1_1" value="* Soldier. Stop talking to me. Stop breaking the game"/>
   </properties>
  </object>
  <object id="101" name="npc" x="80" y="720" width="40" height="40">
   <properties>
    <property name="actor" value="colonel"/>
    <property name="talk" type="bool" value="true"/>
    <property name="talksprite" value="talk"/>
    <property name="text1_1" value="* Soldier. Stop talking to me. Stop breaking the game"/>
   </properties>
  </object>
  <object id="104" gid="117" x="142.75" y="189.25" width="180.5" height="195.5"/>
 </objectgroup>
 <objectgroup id="5" name="markers">
  <object id="90" name="spawn" x="22.4167" y="421">
   <point/>
  </object>
  <object id="91" name="this is a fake room that gets replaced after the cutscene!" x="640" y="80">
   <point/>
  </object>
  <object id="93" name="script_marker" x="63" y="421">
   <point/>
  </object>
  <object id="94" name="end_marker" x="4960" y="421">
   <point/>
  </object>
  <object id="99" name="artillery_marker" x="180" y="104">
   <point/>
  </object>
 </objectgroup>
</map>
