<?xml version="1.0" encoding="UTF-8"?>
<map version="1.11" tiledversion="1.12.2" orientation="orthogonal" renderorder="right-down" width="100" height="100" tilewidth="40" tileheight="40" infinite="0" nextlayerid="7" nextobjectid="119">
 <editorsettings>
  <export target="flowerden4.lua" format="lua"/>
 </editorsettings>
 <properties>
  <property name="music" value="metal_theme"/>
  <property name="name" value="Flower Den - Sublevel 4"/>
 </properties>
 <tileset firstgid="1" source="../../../tilesets/garden.tsx"/>
 <tileset firstgid="101" source="../../../tilesets/garden_extras.tsx"/>
 <tileset firstgid="144" name="treasures" tilewidth="1498" tileheight="1500" tilecount="9" columns="0">
  <grid orientation="orthogonal" width="1" height="1"/>
  <tile id="0">
   <image source="../../../../../assets/sprites/treasures/rake.png" width="431" height="808"/>
  </tile>
  <tile id="1">
   <image source="../../../../../assets/sprites/treasures/raid.png" width="445" height="1500"/>
  </tile>
  <tile id="2">
   <image source="../../../../../assets/sprites/treasures/acorn.png" width="710" height="628"/>
  </tile>
  <tile id="3">
   <image source="../../../../../assets/sprites/treasures/pikmin.png" width="238" height="432"/>
  </tile>
  <tile id="4">
   <image source="../../../../../assets/sprites/tilesets/farm_world/pikmin3_pot.png" width="197" height="219"/>
  </tile>
  <tile id="5">
   <image source="../../../../../assets/sprites/treasures/cokezero.png" width="250" height="426"/>
  </tile>
  <tile id="6">
   <image source="../../../../../assets/sprites/treasures/100dollar.png" width="1498" height="682"/>
  </tile>
  <tile id="7">
   <image source="../../../../../assets/sprites/treasures/rubber ugly.png" width="243" height="224"/>
  </tile>
  <tile id="8">
   <image source="../../../../../assets/sprites/treasures/Adamantine Girdle.png" width="186" height="152"/>
  </tile>
 </tileset>
 <tileset firstgid="153" source="../../../tilesets/treasures.tsx"/>
 <layer id="1" name="Camada de Blocos 1" width="100" height="100">
  <data encoding="csv">
0,0,0,0,0,0,0,0,0,0,0,0,0,0,0,0,0,0,0,0,0,0,0,0,0,0,0,0,0,0,0,0,0,0,0,0,0,0,0,0,0,0,0,0,0,0,0,0,0,0,0,0,0,0,0,0,0,0,0,0,0,0,0,0,0,0,0,0,0,0,0,0,0,0,0,0,0,0,0,0,0,0,0,0,0,0,0,0,0,0,0,0,0,0,0,0,0,0,0,0,
0,0,0,0,0,0,0,0,0,0,0,0,0,0,0,0,0,0,0,0,0,0,0,0,0,0,0,0,0,0,0,0,0,0,0,0,0,0,0,0,0,0,0,0,0,0,0,0,0,0,0,0,0,0,0,0,0,0,0,0,0,0,0,0,0,0,0,0,0,0,0,0,0,0,0,0,0,0,0,0,0,0,0,0,0,0,0,0,0,0,0,0,0,0,0,0,0,0,0,0,
0,0,0,0,0,0,0,0,0,0,0,0,0,0,0,0,0,0,0,0,0,0,0,0,0,0,0,0,0,0,0,0,0,0,0,0,0,0,0,0,0,0,0,0,0,0,0,0,0,0,0,0,0,0,0,0,0,0,0,0,0,0,0,0,0,0,0,0,0,0,0,0,0,0,0,0,0,0,0,0,0,0,0,0,0,0,0,0,0,0,0,0,0,0,0,0,0,0,0,0,
0,0,0,0,0,0,0,0,0,0,0,0,0,0,0,0,0,0,0,0,0,0,0,0,0,0,0,0,0,0,0,0,0,0,0,0,0,0,0,0,0,0,0,0,0,0,0,0,0,0,0,0,0,0,0,0,0,0,0,0,0,0,0,0,0,0,0,0,0,0,0,0,0,0,0,0,0,0,0,0,0,0,0,0,0,0,0,0,0,0,0,0,0,0,0,0,0,0,0,0,
0,0,0,0,0,0,0,0,0,0,0,0,0,0,0,0,0,0,0,0,0,0,0,0,0,0,0,0,0,0,0,0,0,0,0,0,0,0,0,0,0,0,0,0,0,0,0,0,0,0,0,0,0,0,0,0,0,0,0,0,0,0,0,0,0,0,0,0,0,0,0,0,0,0,0,0,0,0,0,0,0,0,0,0,0,0,0,0,0,0,0,0,0,0,0,0,0,0,0,0,
0,0,0,0,0,0,0,0,0,0,0,0,0,0,0,0,0,0,0,0,0,0,0,0,0,0,0,0,0,0,0,0,0,0,0,0,0,0,0,0,0,0,0,0,0,0,0,0,0,0,0,0,0,0,0,0,0,0,0,0,0,0,0,0,0,0,0,0,0,0,0,0,0,0,0,0,0,0,0,0,0,0,0,0,0,0,0,0,0,0,0,0,0,0,0,0,0,0,0,0,
0,0,0,0,0,0,0,82,82,82,82,82,82,82,82,82,48,48,48,48,48,48,48,48,82,82,82,82,82,82,82,82,82,82,82,82,82,82,82,82,82,82,82,82,82,82,82,82,82,82,82,82,82,82,82,82,82,82,82,82,82,82,82,82,82,82,82,82,82,82,82,82,82,82,82,82,82,82,82,82,82,82,82,82,82,82,82,82,82,82,82,82,82,0,0,0,0,0,0,0,
0,0,0,0,0,0,0,82,82,82,82,82,82,82,82,82,48,78,90,78,79,90,90,48,82,82,82,82,82,82,82,82,82,82,82,82,82,82,82,82,82,82,82,82,82,82,82,82,82,82,82,82,82,82,82,82,82,82,82,82,82,82,82,82,82,82,82,82,82,82,82,82,82,82,82,82,82,82,82,82,82,82,82,82,82,82,82,82,82,82,82,82,82,0,0,0,0,0,0,0,
0,0,0,0,0,0,0,82,82,82,82,82,82,82,82,82,48,78,90,79,90,80,79,48,82,82,82,82,82,82,82,82,82,82,82,82,82,82,82,82,82,82,82,82,82,82,82,82,82,82,82,82,82,82,82,82,82,82,82,82,82,82,82,82,82,82,82,82,82,82,82,82,82,82,82,82,82,82,82,82,82,82,82,82,82,82,82,82,82,82,82,82,82,0,0,0,0,0,0,0,
0,0,0,0,0,0,0,82,82,82,82,82,82,82,82,82,48,90,78,79,80,80,78,48,82,82,82,82,82,82,82,82,82,82,82,82,82,82,82,82,82,82,82,82,82,82,82,82,82,82,82,82,82,82,82,82,82,82,82,82,82,82,82,82,82,82,82,82,82,82,82,82,82,82,82,82,82,82,82,82,82,82,82,82,82,82,82,82,82,82,82,82,82,0,0,0,0,0,0,0,
0,0,0,0,0,0,0,82,82,82,82,82,82,82,82,82,48,79,90,78,78,90,78,48,82,82,82,82,82,82,82,82,82,82,82,82,82,82,82,82,82,82,82,82,82,82,82,82,82,82,82,82,82,82,82,82,82,82,82,82,82,82,82,82,82,82,82,82,82,82,82,82,82,82,82,82,82,82,82,82,82,82,82,82,82,82,82,82,82,82,82,82,82,0,0,0,0,0,0,0,
0,0,0,0,0,0,0,82,82,82,82,82,82,82,82,82,48,79,78,78,78,78,90,48,82,82,82,82,82,82,82,82,82,82,82,82,82,82,82,82,82,82,82,82,82,82,82,82,82,82,82,82,82,82,82,82,82,82,82,82,82,82,82,82,82,82,82,82,82,82,82,82,82,82,82,82,82,82,82,82,82,82,82,82,82,82,82,82,82,82,82,82,82,0,0,0,0,0,0,0,
0,0,0,0,0,0,0,82,82,82,82,82,82,82,82,82,48,80,90,78,90,78,78,48,82,82,82,82,82,82,82,82,82,82,82,82,82,82,82,82,82,82,82,82,82,82,82,82,82,82,82,82,82,82,82,82,82,82,82,82,82,82,82,82,82,82,82,82,82,82,82,82,82,82,82,82,82,82,82,82,82,82,82,82,82,82,82,82,82,82,82,82,82,0,0,0,0,0,0,0,
0,0,0,0,0,0,0,82,82,82,82,82,82,82,82,82,48,79,78,78,78,90,78,48,82,82,82,82,82,82,82,82,82,82,82,82,82,82,82,82,82,82,82,82,82,82,82,82,82,82,82,82,82,82,82,82,82,82,82,82,82,82,82,82,82,82,82,82,82,82,82,82,82,82,82,82,82,82,82,82,82,82,82,82,82,82,82,82,82,82,82,82,82,0,0,0,0,0,0,0,
0,0,0,0,0,0,0,82,82,82,82,82,82,82,82,82,48,78,90,78,78,90,80,48,82,82,82,82,82,82,82,82,82,82,82,82,82,82,82,82,82,82,82,82,82,82,82,82,82,82,82,82,82,82,82,82,82,82,82,82,82,82,82,82,82,82,82,82,82,82,82,82,82,82,82,82,82,82,82,82,82,82,82,82,82,82,82,82,82,82,82,82,82,0,0,0,0,0,0,0,
0,0,0,0,0,0,0,82,82,82,82,82,82,82,82,82,48,90,90,90,78,90,79,48,82,82,82,82,82,82,82,82,82,82,82,82,82,82,82,82,82,82,82,82,82,82,82,82,82,82,82,82,82,82,82,82,82,82,82,82,82,82,82,82,82,82,82,82,82,82,82,82,82,82,82,82,82,82,82,82,82,82,82,82,82,82,82,82,82,82,82,82,82,0,0,0,0,0,0,0,
0,0,0,0,0,0,0,82,82,82,82,82,82,82,82,82,48,90,90,78,90,90,90,48,82,82,82,82,82,82,82,82,82,82,82,82,82,82,82,82,82,82,82,82,82,82,82,82,82,82,82,82,82,82,82,82,82,82,82,82,82,82,82,82,82,82,82,82,82,82,82,82,82,82,82,82,82,82,82,82,82,82,82,82,82,82,82,82,82,82,82,82,82,0,0,0,0,0,0,0,
0,0,0,0,0,0,0,82,82,82,82,82,82,82,82,82,48,78,90,90,90,78,78,48,82,82,82,82,82,82,82,82,82,82,82,82,82,82,82,82,82,82,82,82,82,82,82,82,82,82,82,82,82,82,82,82,82,82,82,82,82,82,82,82,82,82,82,82,82,82,82,82,82,82,82,82,82,82,82,82,82,82,82,82,82,82,82,82,82,82,82,82,82,0,0,0,0,0,0,0,
0,0,0,0,0,0,0,82,82,82,82,82,82,82,82,82,48,80,79,79,78,90,79,48,82,82,82,82,82,82,82,82,82,82,82,82,82,82,82,82,82,82,82,82,82,82,82,82,82,82,82,82,82,82,82,82,82,82,82,82,82,82,82,82,82,82,82,82,82,82,82,82,82,82,82,82,82,82,82,82,82,82,82,82,82,82,82,82,82,82,82,82,82,0,0,0,0,0,0,0,
0,0,0,0,0,0,0,82,82,82,82,82,82,82,82,82,48,80,79,78,78,90,79,48,82,82,82,82,48,48,48,48,48,48,48,48,48,48,48,48,48,48,48,48,48,48,48,48,48,48,48,48,48,48,48,48,48,48,48,48,48,48,48,48,48,48,48,48,48,48,48,48,48,48,48,48,48,48,48,48,82,82,82,82,82,82,82,82,82,82,82,82,82,0,0,0,0,0,0,0,
0,0,0,0,0,0,0,82,82,82,82,82,82,82,82,82,48,79,78,80,78,78,90,48,82,82,82,82,48,79,80,80,80,80,80,90,78,80,80,79,79,78,78,90,80,79,78,78,90,79,90,78,90,78,80,80,78,90,80,90,80,78,78,90,90,90,80,78,80,80,80,79,79,90,90,90,90,80,90,48,82,82,82,82,82,82,82,82,82,82,82,82,82,0,0,0,0,0,0,0,
0,0,0,0,0,0,0,82,82,82,82,82,82,82,82,82,48,78,79,80,78,79,78,48,82,82,82,82,48,78,90,90,90,79,79,80,78,79,90,80,90,80,78,78,78,78,78,79,78,78,78,78,78,90,90,90,78,90,90,90,90,78,78,79,90,78,79,78,90,78,80,80,79,90,79,90,78,80,80,48,82,82,82,82,82,82,82,82,82,82,82,82,82,0,0,0,0,0,0,0,
0,0,0,0,0,0,0,82,82,82,82,82,82,82,82,82,48,78,90,78,90,79,90,48,82,82,82,82,48,78,78,79,78,79,80,79,80,90,78,90,80,78,90,90,90,78,78,90,78,78,78,78,90,78,90,78,78,78,78,78,90,80,78,90,80,78,80,79,78,80,79,80,80,80,80,79,78,79,90,48,82,82,82,82,82,82,82,82,82,82,82,82,82,0,0,0,0,0,0,0,
0,0,0,0,0,0,0,82,82,82,82,82,82,82,82,82,48,90,78,79,80,79,79,48,82,82,82,82,48,79,90,79,90,90,80,90,79,80,90,90,80,78,90,90,90,90,90,78,78,90,78,90,90,78,90,90,78,78,78,90,90,78,78,78,78,80,80,78,78,80,79,78,80,80,80,80,80,79,79,48,82,82,82,82,82,82,82,82,82,82,82,82,82,0,0,0,0,0,0,0,
0,0,0,0,0,0,0,82,82,82,82,82,82,82,82,82,48,80,90,78,78,80,90,48,82,82,82,82,48,80,79,90,78,90,80,79,79,78,78,78,90,78,90,78,80,90,78,90,90,78,90,78,78,90,78,90,78,80,90,90,90,90,90,90,78,79,80,80,80,80,79,80,80,80,79,80,80,80,79,48,82,82,82,82,82,82,82,82,82,82,82,82,82,0,0,0,0,0,0,0,
0,0,0,0,0,0,0,82,82,82,82,82,82,82,82,82,48,78,80,79,78,78,80,48,82,82,82,82,48,79,90,80,79,78,90,90,78,90,90,80,78,78,78,90,90,78,90,78,90,78,78,78,90,90,90,80,78,78,78,78,90,79,78,90,78,78,80,90,78,80,79,80,80,80,79,79,79,78,90,48,82,82,82,82,82,82,82,82,82,82,82,82,82,0,0,0,0,0,0,0,
0,0,0,0,0,0,0,82,82,82,82,82,82,82,82,82,48,79,80,90,80,90,80,48,82,82,82,82,48,78,80,80,78,80,78,78,90,78,79,79,79,90,79,80,80,90,90,78,78,78,80,78,79,90,80,79,80,90,90,78,90,78,90,78,90,79,79,79,79,79,78,80,90,78,79,79,79,90,78,48,82,82,82,82,82,82,82,82,82,82,82,82,82,0,0,0,0,0,0,0,
0,0,0,0,0,0,0,82,82,82,82,82,82,82,82,82,48,78,80,90,80,78,78,48,82,82,82,82,48,48,48,48,48,48,48,48,48,48,48,48,48,48,48,48,48,48,48,48,48,48,48,48,48,48,48,79,90,79,80,78,79,78,80,48,48,48,48,48,48,48,48,48,48,48,79,79,79,78,80,48,82,82,82,82,82,82,82,82,82,82,82,82,82,0,0,0,0,0,0,0,
0,0,0,0,0,0,0,82,82,82,82,82,82,82,82,82,48,80,78,78,80,78,90,48,82,82,82,82,82,82,48,48,48,48,48,48,82,82,82,82,82,82,48,48,48,48,48,48,48,48,48,48,48,48,48,78,78,80,90,79,90,80,80,48,82,82,82,82,82,82,82,82,82,48,78,78,78,78,80,48,82,82,82,82,82,82,82,82,82,82,82,82,82,0,0,0,0,0,0,0,
0,0,0,0,0,0,0,82,82,82,82,82,82,82,82,82,48,78,79,90,90,80,79,48,82,82,82,82,48,48,48,79,79,79,90,48,48,82,82,82,82,82,48,78,79,79,78,79,80,79,79,78,79,78,90,78,90,80,79,80,79,90,78,48,82,82,82,82,82,82,82,82,82,48,78,90,78,79,79,48,82,82,82,82,82,82,82,82,82,82,82,82,82,0,0,0,0,0,0,0,
0,0,0,0,0,0,0,82,82,82,82,82,82,82,82,82,48,48,78,80,79,79,90,48,48,82,82,48,48,90,78,78,90,90,90,90,48,48,48,82,82,82,48,90,78,78,80,80,78,79,90,90,79,78,80,90,79,79,80,79,90,79,80,48,82,82,82,82,82,82,82,82,82,48,90,78,78,79,80,48,82,82,82,82,82,82,82,82,82,82,82,82,82,0,0,0,0,0,0,0,
0,0,0,0,0,0,0,82,82,82,82,82,82,82,82,82,82,48,79,80,90,80,79,80,48,48,48,48,79,78,78,78,78,78,80,90,80,80,48,48,48,82,48,80,80,90,90,78,90,90,80,79,78,78,79,79,79,80,78,78,80,78,90,48,82,82,82,82,82,82,82,82,82,48,79,80,78,79,90,48,82,82,82,82,82,82,82,82,82,82,82,82,82,0,0,0,0,0,0,0,
0,0,0,0,0,0,0,82,82,82,82,82,82,82,82,82,82,48,79,78,90,90,78,78,48,48,79,78,80,78,78,80,90,78,90,90,78,78,80,79,48,82,48,90,80,90,90,90,78,90,78,80,80,78,79,80,79,79,79,90,79,79,78,48,82,82,82,82,82,82,82,82,82,48,90,90,90,79,78,48,82,82,82,82,82,82,82,82,82,82,82,82,82,0,0,0,0,0,0,0,
0,0,0,0,0,0,0,82,82,82,82,82,82,82,82,82,82,48,48,90,78,80,90,79,90,48,79,78,79,80,78,90,90,90,78,78,90,90,79,80,48,82,48,79,79,90,78,90,79,90,90,78,78,90,79,80,80,80,80,79,80,90,90,48,82,82,82,82,82,82,82,82,82,48,79,79,90,90,79,48,82,82,82,82,82,82,82,82,82,82,82,82,82,0,0,0,0,0,0,0,
0,0,0,0,0,0,0,82,82,82,82,82,82,82,82,82,82,82,48,79,78,80,78,90,80,48,90,80,78,79,78,90,78,79,80,78,78,90,80,48,48,82,48,80,78,78,90,78,78,90,78,90,78,78,80,80,80,79,79,79,79,80,80,48,82,82,82,82,82,82,82,82,82,48,79,79,80,90,80,48,82,82,82,82,82,82,82,82,82,82,82,82,82,0,0,0,0,0,0,0,
0,0,0,0,0,0,0,82,82,82,82,82,82,82,82,82,82,82,48,90,80,80,78,80,80,48,90,79,78,80,80,78,90,90,78,78,90,78,90,48,82,82,48,90,78,90,78,78,78,80,80,90,78,79,80,80,80,80,79,79,90,79,90,48,82,82,82,82,82,82,82,82,82,48,78,79,80,80,78,48,82,82,82,82,82,82,82,82,82,82,82,82,82,0,0,0,0,0,0,0,
0,0,0,0,0,0,0,82,82,82,82,82,82,82,82,82,82,82,48,48,80,80,90,78,78,48,48,80,78,79,78,78,90,90,79,78,90,90,78,48,82,82,48,90,90,78,90,78,78,48,48,48,48,48,48,48,79,79,80,78,79,78,79,48,82,82,82,82,82,82,82,82,82,48,80,79,79,78,90,48,82,82,82,82,82,82,82,82,82,82,82,82,82,0,0,0,0,0,0,0,
0,0,0,0,0,0,0,82,82,82,82,82,82,82,82,82,82,82,82,48,90,80,78,90,79,78,48,79,78,90,79,79,79,78,79,80,78,90,90,48,82,82,48,78,79,90,90,78,90,48,82,82,82,82,82,48,80,78,78,78,90,90,80,48,82,82,82,82,82,82,82,82,82,48,79,79,90,78,79,48,82,82,82,82,82,82,82,82,82,82,82,82,82,0,0,0,0,0,0,0,
0,0,0,0,0,0,0,82,82,82,82,82,82,82,82,82,82,82,82,48,78,90,79,79,80,90,48,48,48,48,78,79,79,78,78,80,48,48,48,48,82,82,48,90,78,90,78,78,78,48,82,82,82,82,82,48,80,90,90,90,78,80,90,48,82,82,82,82,82,82,82,82,82,48,80,78,80,80,78,48,82,82,82,82,82,82,82,82,82,82,82,82,82,0,0,0,0,0,0,0,
0,0,0,0,0,0,0,82,82,82,82,82,82,82,82,82,82,82,82,48,48,79,78,80,79,78,80,79,48,48,90,79,78,80,79,79,48,82,82,82,82,82,48,78,78,78,78,90,90,48,82,82,82,82,82,48,78,79,90,90,78,80,78,48,82,82,82,82,82,82,82,82,82,48,79,90,78,79,90,48,82,82,82,82,82,82,82,82,82,82,82,82,82,0,0,0,0,0,0,0,
0,0,0,0,0,0,0,82,82,82,82,82,82,82,82,82,82,82,82,82,48,78,79,78,90,90,80,90,48,48,80,90,78,80,80,78,48,82,82,82,82,82,48,90,78,78,79,90,80,48,82,82,82,82,82,48,79,90,90,78,90,90,79,48,82,82,82,82,82,82,82,82,82,48,78,79,80,90,78,48,82,82,82,82,82,82,82,82,82,82,82,82,82,0,0,0,0,0,0,0,
0,0,0,0,0,0,0,48,48,48,48,48,48,48,48,48,48,48,48,48,48,80,78,78,90,78,79,90,48,48,78,90,79,90,79,78,48,82,82,82,82,82,48,78,90,78,78,78,80,48,82,82,82,82,82,48,79,79,80,80,90,79,79,48,82,82,82,82,82,82,82,82,82,48,90,80,90,79,80,48,82,82,82,82,82,82,82,82,82,82,82,82,82,0,0,0,0,0,0,0,
0,0,0,0,0,0,0,48,90,78,80,80,90,78,78,80,78,80,80,78,78,79,90,78,80,79,90,80,48,48,90,80,79,78,80,80,48,82,82,82,82,82,48,90,90,79,90,78,78,48,82,82,82,82,82,48,78,78,80,78,80,80,80,48,82,82,82,82,82,82,82,82,82,48,78,78,78,79,80,48,82,82,82,82,82,82,82,82,82,82,82,82,82,0,0,0,0,0,0,0,
0,0,0,0,0,0,0,48,90,90,80,79,90,78,79,90,80,80,78,78,90,90,78,90,78,80,80,78,48,48,80,80,79,90,90,90,48,82,82,82,82,82,48,79,80,80,90,90,80,48,82,82,82,82,82,48,80,90,80,78,80,80,79,48,82,82,82,82,82,82,82,82,82,48,80,80,90,78,80,48,82,82,82,82,82,82,82,82,82,82,82,82,82,0,0,0,0,0,0,0,
0,0,0,0,0,0,0,48,79,80,80,78,90,78,78,80,79,90,78,90,78,78,90,79,90,79,79,78,48,48,78,79,90,90,90,90,48,82,82,82,82,82,48,79,80,79,80,80,90,48,82,82,82,82,82,48,79,79,90,80,80,79,80,48,82,82,82,82,82,82,82,82,82,48,80,80,80,78,78,48,82,82,82,82,82,82,82,82,82,82,82,82,82,0,0,0,0,0,0,0,
0,0,0,0,0,0,0,48,90,78,90,78,78,90,90,80,90,79,79,78,79,78,90,80,78,79,80,90,48,48,90,78,78,78,79,90,48,82,82,82,82,82,48,90,90,90,79,79,78,48,82,82,82,82,82,48,90,78,78,80,79,80,80,48,82,82,82,82,82,82,82,82,82,48,78,78,78,90,80,48,82,82,82,82,82,82,82,82,82,82,82,82,82,0,0,0,0,0,0,0,
0,0,0,0,0,0,0,48,80,79,79,80,90,78,90,80,90,78,90,78,80,78,90,90,90,78,79,80,48,48,79,90,80,78,78,90,48,82,82,82,82,82,48,90,79,79,90,78,80,48,82,82,82,82,82,48,80,80,90,79,79,80,80,48,82,82,82,82,82,82,82,82,82,48,79,90,79,80,78,48,82,82,82,82,82,82,82,82,82,82,82,82,82,0,0,0,0,0,0,0,
0,0,0,0,0,0,0,48,79,90,90,90,78,79,80,79,90,78,90,78,90,78,79,79,90,80,78,80,48,48,80,78,78,78,90,78,48,82,82,82,82,82,48,79,78,78,90,90,78,48,82,82,82,82,82,48,78,79,90,78,79,79,80,48,82,82,82,82,82,82,82,82,82,48,78,78,79,80,79,48,82,82,82,82,82,82,82,82,82,82,82,82,82,0,0,0,0,0,0,0,
0,0,0,0,0,0,0,48,48,48,48,48,48,48,48,48,48,48,48,48,48,80,90,78,90,80,79,80,48,48,90,79,79,90,78,78,48,82,82,82,82,82,48,78,79,90,78,90,90,48,82,82,82,82,82,48,79,80,90,78,79,79,79,48,82,82,82,82,82,82,82,82,82,48,90,79,80,90,79,48,82,82,82,82,82,82,82,82,82,82,82,82,82,0,0,0,0,0,0,0,
0,0,0,0,0,0,0,82,82,82,82,82,82,82,82,82,82,82,82,82,48,90,80,80,80,90,80,78,48,48,79,79,78,78,80,78,48,82,82,82,82,82,48,80,90,78,80,80,79,48,82,82,82,82,82,48,90,79,79,79,79,79,79,48,82,82,82,82,82,82,82,82,82,48,78,80,80,78,78,48,82,82,82,82,82,82,82,82,82,82,82,82,82,0,0,0,0,0,0,0,
0,0,0,0,0,0,0,82,82,82,82,82,82,82,82,82,82,82,82,82,48,90,80,80,80,79,79,79,48,48,79,78,78,78,79,80,48,82,82,82,82,82,48,90,90,78,80,90,78,48,82,82,82,82,82,48,90,79,80,80,80,80,79,48,82,82,82,82,82,82,82,82,82,48,90,80,78,80,78,48,48,48,48,48,48,48,48,48,48,48,48,48,48,0,0,0,0,0,0,0,
0,0,0,0,0,0,0,82,82,82,82,82,82,82,82,82,82,82,82,48,48,80,79,79,79,80,80,48,48,48,78,79,78,79,80,90,48,82,82,82,82,82,48,78,80,80,78,78,80,48,82,82,82,82,82,48,79,80,78,80,80,80,80,48,82,82,82,82,82,82,82,82,82,48,80,79,78,78,80,90,80,78,80,78,79,90,79,78,90,80,79,80,48,0,0,0,0,0,0,0,
0,0,0,0,0,0,0,82,82,82,82,82,82,82,82,82,82,82,82,48,80,79,79,79,80,80,80,48,82,48,78,78,79,90,78,79,48,82,82,82,82,82,48,80,90,80,80,79,79,48,82,82,82,82,82,48,90,90,78,80,79,80,79,48,82,82,82,82,82,82,82,82,82,48,80,79,80,80,79,79,80,79,90,90,78,80,90,78,78,79,90,79,48,0,0,0,0,0,0,0,
0,0,0,0,0,0,0,82,82,82,82,82,82,82,82,82,82,82,82,48,80,80,79,79,79,78,80,48,82,48,90,78,78,90,80,80,48,82,82,82,82,82,48,90,80,78,79,79,78,48,82,82,82,82,82,48,90,80,78,79,79,80,79,48,82,82,82,82,82,82,82,82,82,48,80,80,79,79,80,79,80,79,80,78,80,90,78,79,78,90,90,90,48,0,0,0,0,0,0,0,
0,0,0,0,0,0,0,82,82,82,82,82,82,82,82,82,82,82,48,48,79,78,79,79,80,48,48,48,82,48,79,90,78,79,78,90,48,82,82,82,82,82,48,80,80,79,79,79,79,48,82,82,82,82,82,48,79,90,80,90,79,78,79,48,82,82,82,82,82,82,82,82,82,48,90,79,79,80,79,79,79,80,79,90,80,79,80,90,80,80,80,80,48,0,0,0,0,0,0,0,
0,0,0,0,0,0,0,82,82,82,82,82,82,82,82,82,82,82,48,79,90,79,79,78,78,48,3,82,82,48,79,78,79,79,90,80,48,82,82,82,82,82,48,79,79,78,80,80,80,48,82,82,82,82,82,48,90,80,79,90,78,78,90,48,82,82,82,82,82,82,82,82,82,48,80,80,80,80,79,80,79,78,80,80,79,79,78,90,90,90,79,78,48,0,0,0,0,0,0,0,
0,0,0,0,0,0,0,82,82,82,82,82,82,82,82,82,82,82,48,79,79,90,78,90,90,48,3,82,82,48,90,78,79,79,79,90,48,82,82,82,82,82,48,90,78,79,79,79,80,48,82,82,82,82,82,48,79,90,80,79,80,78,80,48,82,82,82,82,82,82,82,82,82,48,80,79,79,80,80,80,80,90,80,80,78,90,78,90,80,80,90,80,48,0,0,0,0,0,0,0,
0,0,0,0,0,0,0,82,82,82,82,82,82,82,82,82,82,82,48,79,78,78,78,80,48,48,3,82,82,48,79,80,79,90,80,78,48,82,82,82,82,82,48,90,80,90,79,90,90,48,82,82,82,82,82,48,80,80,78,80,80,79,80,48,82,82,82,82,82,82,82,82,82,48,79,90,79,79,90,48,48,48,48,48,48,48,48,48,48,48,48,48,48,0,0,0,0,0,0,0,
0,0,0,0,0,0,0,82,82,82,82,82,82,82,82,82,82,48,48,79,78,90,78,80,48,82,82,82,82,48,90,80,79,90,79,79,48,48,48,48,48,48,48,79,80,80,80,80,80,48,82,82,82,82,82,48,90,80,80,90,90,80,78,48,82,82,82,82,82,82,82,82,82,48,78,79,79,90,80,48,82,82,82,82,82,82,82,82,82,82,82,82,82,0,0,0,0,0,0,0,
0,0,0,0,0,0,0,82,82,82,82,82,82,82,82,82,82,48,78,90,78,90,78,79,48,82,82,82,82,48,80,80,90,79,78,79,90,78,90,90,79,79,79,79,80,80,80,90,90,48,82,82,82,82,82,48,80,80,80,80,80,78,78,48,82,82,82,82,82,82,82,82,82,48,78,78,80,79,80,48,82,82,82,82,82,82,82,82,82,82,82,82,82,0,0,0,0,0,0,0,
0,0,0,0,0,0,0,82,82,82,82,82,82,82,82,82,82,48,90,90,78,78,90,48,48,82,82,82,82,48,78,78,80,80,80,90,90,80,90,78,78,80,80,80,79,79,79,79,80,48,82,82,82,82,82,48,80,78,78,78,80,80,78,48,82,82,82,82,82,82,82,82,82,48,79,80,79,79,78,48,82,82,82,82,82,82,82,82,82,82,82,82,82,0,0,0,0,0,0,0,
0,0,0,0,0,0,0,82,82,82,82,82,82,82,82,82,48,48,90,90,90,90,79,48,82,82,82,82,82,48,90,79,90,78,90,90,78,79,90,90,90,78,79,80,90,79,80,78,78,48,82,82,82,82,82,48,79,78,80,90,79,78,79,48,82,82,82,82,82,82,82,82,82,48,78,79,90,80,79,48,82,82,82,82,82,82,82,82,82,82,82,82,82,0,0,0,0,0,0,0,
0,0,0,0,0,0,0,82,82,82,82,82,82,82,82,82,48,80,78,90,90,78,78,48,82,82,82,82,82,48,80,90,90,78,90,78,90,79,78,90,90,78,80,78,80,80,79,90,78,48,82,82,82,82,82,48,90,80,80,80,78,90,79,48,82,82,82,82,82,82,82,82,82,48,79,80,80,78,90,48,82,82,82,82,82,82,82,82,82,82,82,82,82,0,0,0,0,0,0,0,
0,0,0,0,0,0,0,82,82,82,82,82,82,82,82,82,48,90,78,90,78,78,79,48,82,82,82,82,82,48,78,80,79,90,78,78,90,90,90,80,80,78,79,90,80,80,80,78,79,48,82,82,82,82,82,48,90,79,78,80,78,79,80,48,82,82,82,82,82,82,82,82,82,48,80,79,90,80,78,48,82,82,82,82,82,82,82,82,82,82,82,82,82,0,0,0,0,0,0,0,
0,0,0,0,0,0,0,82,82,82,82,82,82,82,82,82,48,80,90,90,78,90,79,48,82,82,82,82,82,48,78,90,78,90,80,78,78,90,80,90,80,79,78,79,79,78,80,79,90,48,82,82,82,82,82,48,90,80,80,80,78,90,80,48,82,82,82,82,82,82,82,82,82,48,78,78,79,80,80,48,82,82,82,82,82,82,82,82,82,82,82,82,82,0,0,0,0,0,0,0,
0,0,0,0,0,0,0,82,82,82,82,82,82,82,82,82,48,90,90,90,78,90,90,48,82,82,82,82,82,48,90,80,79,79,78,79,90,90,90,90,80,80,90,79,90,79,79,79,90,48,82,82,82,82,82,48,78,78,90,78,80,90,78,48,82,82,82,82,82,82,82,82,82,48,90,90,80,79,90,48,82,82,82,82,82,82,82,82,82,82,82,82,82,0,0,0,0,0,0,0,
0,0,0,0,0,0,0,82,82,82,82,82,82,82,82,82,48,80,78,80,90,90,79,48,82,82,82,82,82,48,48,48,48,48,48,48,48,48,48,48,48,48,48,48,48,48,48,48,48,48,82,82,82,82,82,48,90,79,80,78,78,80,80,48,82,82,82,82,82,82,82,82,82,48,78,90,90,90,79,48,82,82,82,82,82,82,82,82,82,82,82,82,82,0,0,0,0,0,0,0,
0,0,0,0,0,0,0,82,82,82,82,82,82,82,82,82,48,78,78,90,78,78,80,48,82,82,82,82,82,82,82,82,82,82,82,82,82,82,82,82,82,82,82,82,82,82,82,82,82,82,82,82,82,82,82,48,78,79,78,79,79,80,90,48,82,82,82,82,82,82,82,82,82,48,80,78,79,79,90,48,82,82,82,82,82,82,82,82,82,82,82,82,82,0,0,0,0,0,0,0,
0,0,0,0,0,0,0,82,82,82,82,82,82,82,82,82,48,90,79,79,78,79,80,48,82,82,82,82,82,82,82,82,82,82,82,82,82,82,82,82,82,82,82,82,82,82,82,82,82,82,82,82,82,82,82,48,78,90,80,90,78,80,79,48,82,82,82,82,82,82,82,82,82,48,80,78,90,79,79,48,82,82,82,82,82,82,82,82,82,82,82,82,82,0,0,0,0,0,0,0,
0,0,0,0,0,0,0,82,82,82,82,82,82,82,82,82,48,90,78,80,79,79,78,48,82,82,82,82,82,82,82,82,82,82,82,82,82,82,82,82,82,82,82,82,82,82,82,82,82,82,82,82,82,82,82,48,79,79,90,80,80,80,80,48,82,82,82,82,82,82,82,82,82,48,90,79,78,90,80,48,82,82,82,82,82,82,82,82,82,82,82,82,82,0,0,0,0,0,0,0,
0,0,0,0,0,0,0,82,82,82,82,82,82,82,82,82,48,80,90,78,90,90,90,48,82,82,82,82,82,82,82,82,82,82,82,82,82,82,82,82,82,82,82,82,82,82,82,82,82,82,82,82,82,82,82,48,78,80,78,80,79,78,78,48,82,82,82,82,82,82,82,82,82,48,79,80,78,80,79,48,82,82,82,82,82,82,82,82,82,82,82,82,82,0,0,0,0,0,0,0,
0,0,0,0,0,0,0,82,82,82,82,82,82,82,82,82,48,90,90,78,90,79,79,48,82,82,82,82,82,82,82,82,82,82,82,82,82,82,82,82,82,82,82,82,82,82,82,82,82,82,82,82,82,82,82,48,80,80,90,79,90,79,90,48,82,82,82,82,82,82,82,82,82,48,78,90,80,80,79,48,82,82,82,82,82,82,82,82,82,82,82,82,82,0,0,0,0,0,0,0,
0,0,0,0,0,0,0,82,82,82,82,82,82,82,82,82,48,78,79,78,79,80,79,48,48,48,48,48,48,48,48,48,48,48,48,48,48,48,48,48,48,48,48,48,48,48,48,48,48,48,48,48,48,48,48,48,90,80,80,78,78,90,79,48,48,48,48,48,48,48,48,48,48,48,79,78,90,80,80,48,82,82,82,82,82,82,82,82,82,82,82,82,82,0,0,0,0,0,0,0,
0,0,0,0,0,0,0,82,82,82,82,82,82,82,82,82,48,78,79,80,90,80,79,79,78,78,79,79,78,79,80,80,79,90,78,90,79,80,79,78,90,90,78,90,80,90,79,79,78,78,79,90,80,80,78,79,78,78,78,78,78,80,90,79,90,78,78,79,78,78,79,79,80,79,78,90,90,80,79,48,82,82,82,82,82,82,82,82,82,82,82,82,82,0,0,0,0,0,0,0,
0,0,0,0,0,0,0,82,82,82,82,82,82,82,82,82,48,78,79,79,78,79,90,78,90,90,78,78,79,80,78,80,80,79,80,79,80,79,78,78,79,78,90,79,80,78,90,78,80,79,79,90,80,80,79,79,90,80,80,90,90,79,80,90,80,90,78,79,79,80,79,90,80,78,79,80,90,90,78,48,82,82,82,82,82,82,82,82,82,82,82,82,82,0,0,0,0,0,0,0,
0,0,0,0,0,0,0,82,82,82,82,82,82,82,82,82,48,90,80,79,80,80,90,90,78,90,90,90,90,78,80,80,78,90,90,78,79,80,78,79,90,78,79,90,78,79,80,80,79,79,79,80,79,78,79,80,90,78,78,80,78,79,79,90,79,80,90,80,78,90,90,78,80,79,79,78,90,78,90,48,82,82,82,82,82,82,82,82,82,82,82,82,82,0,0,0,0,0,0,0,
0,0,0,0,0,0,0,82,82,82,82,82,82,82,82,82,48,80,90,90,80,79,80,78,90,90,90,79,90,90,80,79,78,78,78,78,80,80,80,90,78,79,90,79,90,90,78,78,79,79,78,80,79,79,79,79,80,80,79,79,90,78,79,78,90,90,78,79,78,78,78,90,80,78,79,79,90,79,90,48,82,82,82,82,82,82,82,82,82,82,82,82,82,0,0,0,0,0,0,0,
0,0,0,0,0,0,0,82,82,82,82,82,82,82,82,82,48,78,78,78,79,90,90,80,78,90,90,78,78,90,80,78,80,79,78,80,90,80,90,78,78,79,79,80,90,90,79,80,80,90,80,80,79,80,79,80,80,80,90,80,79,78,80,78,79,80,78,78,90,78,78,90,79,90,78,79,79,79,78,48,82,82,82,82,82,82,82,82,82,82,82,82,82,0,0,0,0,0,0,0,
0,0,0,0,0,0,0,82,82,82,82,82,82,82,82,82,48,90,90,80,90,78,80,79,78,90,78,78,90,90,80,78,90,78,78,78,80,90,78,90,80,80,90,90,80,78,90,78,79,80,79,80,79,80,80,90,80,79,78,90,79,79,80,78,80,78,78,79,79,80,78,78,78,78,80,78,79,80,78,48,82,82,82,82,82,82,82,82,82,82,82,82,82,0,0,0,0,0,0,0,
0,0,0,0,0,0,0,82,82,82,82,82,82,82,82,82,48,48,48,48,48,48,48,48,48,48,48,48,48,48,48,48,48,48,48,48,48,48,48,48,48,48,48,48,48,48,48,48,48,48,48,48,48,48,48,48,48,48,48,48,48,48,48,48,48,48,48,48,48,78,79,90,78,78,80,48,48,48,48,48,82,82,82,82,82,82,82,82,82,82,82,82,82,0,0,0,0,0,0,0,
0,0,0,0,0,0,0,82,82,82,82,82,82,82,82,82,82,82,82,82,82,82,82,82,82,82,82,82,82,82,82,82,82,82,82,82,82,82,82,82,82,82,82,82,82,82,82,82,82,82,82,82,82,82,82,82,82,82,82,82,82,82,82,82,82,82,82,82,48,79,78,90,90,80,79,48,82,82,82,82,82,82,82,82,82,82,82,82,82,82,82,82,82,0,0,0,0,0,0,0,
0,0,0,0,0,0,0,82,82,82,82,82,82,82,82,82,82,82,82,82,82,82,82,82,82,82,82,82,82,82,82,82,82,82,82,82,82,82,82,82,82,82,82,82,82,82,82,82,82,82,82,82,82,82,82,82,82,82,82,82,82,82,82,82,82,82,82,82,48,79,78,90,78,80,79,48,82,82,82,82,82,82,82,82,82,82,82,82,82,82,82,82,82,0,0,0,0,0,0,0,
0,0,0,0,0,0,0,82,82,82,82,82,82,82,82,82,82,82,82,82,82,82,82,82,82,82,82,82,82,82,82,82,82,82,82,82,82,82,82,82,82,82,82,82,82,82,82,82,82,82,82,82,82,82,82,82,82,82,82,82,82,82,82,82,82,82,82,82,48,79,90,78,90,79,78,48,82,82,82,82,82,82,82,82,82,82,82,82,82,82,82,82,82,0,0,0,0,0,0,0,
0,0,0,0,0,0,0,82,82,82,82,82,82,82,82,82,82,82,82,82,82,82,82,82,82,82,82,82,82,82,82,82,82,82,82,82,82,82,82,82,82,82,82,82,82,82,82,82,82,82,82,82,82,82,82,82,82,82,82,82,82,82,82,82,82,82,82,82,48,80,78,90,90,79,79,48,82,82,82,82,82,82,82,82,82,82,82,82,82,82,82,82,82,0,0,0,0,0,0,0,
0,0,0,0,0,0,0,82,82,82,82,82,82,82,82,82,82,82,82,82,82,82,82,82,82,82,82,82,82,82,82,82,82,82,82,82,82,82,82,82,82,82,82,82,82,82,82,82,82,82,82,82,82,82,82,82,82,82,82,82,82,82,82,82,82,82,82,82,48,79,90,78,79,78,79,48,82,82,82,82,82,82,82,82,82,82,82,82,82,82,82,82,82,0,0,0,0,0,0,0,
0,0,0,0,0,0,0,82,82,82,82,82,82,82,82,82,82,82,82,82,82,82,82,82,82,82,82,82,82,82,82,82,82,82,82,82,82,82,82,82,82,82,82,82,82,82,82,82,82,82,82,82,82,82,82,82,82,82,82,82,82,82,82,82,82,82,82,82,48,78,90,90,78,90,80,48,82,82,82,82,82,82,82,82,82,82,82,82,82,82,82,82,82,0,0,0,0,0,0,0,
0,0,0,0,0,0,0,82,82,82,82,82,82,82,82,82,82,82,82,82,82,82,82,82,82,82,82,82,82,82,82,82,82,82,82,82,82,82,82,82,82,82,82,82,82,82,82,82,82,82,82,82,82,82,82,82,82,82,82,82,82,82,82,82,82,82,82,82,48,78,79,79,90,79,79,48,82,82,82,82,82,82,82,82,82,82,82,82,82,82,82,82,82,0,0,0,0,0,0,0,
0,0,0,0,0,0,0,82,82,82,82,82,82,82,82,82,82,82,82,82,82,82,82,82,82,82,82,82,82,82,82,82,82,82,82,82,82,82,82,82,82,82,82,82,82,82,82,82,82,82,82,82,82,82,82,82,82,82,82,82,82,82,82,82,82,82,82,82,48,90,80,80,80,80,79,48,82,82,82,82,82,82,82,82,82,82,82,82,82,82,82,82,82,0,0,0,0,0,0,0,
0,0,0,0,0,0,0,82,82,82,82,82,82,82,82,82,82,82,82,82,82,82,82,82,82,82,82,82,82,82,82,82,82,82,82,82,82,82,82,82,82,82,82,82,82,82,82,82,82,82,82,82,82,82,82,82,82,82,82,82,82,82,82,82,82,82,82,82,48,79,80,80,79,79,80,48,82,82,82,82,82,82,82,82,82,82,82,82,82,82,82,82,82,0,0,0,0,0,0,0,
0,0,0,0,0,0,0,82,82,82,82,82,82,82,82,82,82,82,82,82,82,82,82,82,82,82,82,82,82,82,82,82,82,82,82,82,82,82,82,82,82,82,82,82,82,82,82,82,82,82,82,82,82,82,82,82,82,82,82,82,82,82,82,82,82,82,82,82,48,78,79,79,79,79,80,48,82,82,82,82,82,82,82,82,82,82,82,82,82,82,82,82,82,0,0,0,0,0,0,0,
0,0,0,0,0,0,0,82,82,82,82,82,82,82,82,82,82,82,82,82,82,82,82,82,82,82,82,82,82,82,82,82,82,82,82,82,82,82,82,82,82,82,82,82,82,82,82,82,82,82,82,82,82,82,82,82,82,82,82,82,82,82,82,82,82,82,82,82,48,78,79,80,80,80,79,48,82,82,82,82,82,82,82,82,82,82,82,82,82,82,82,82,82,0,0,0,0,0,0,0,
0,0,0,0,0,0,0,82,82,82,82,82,82,82,82,82,82,82,82,82,82,82,82,82,82,82,82,82,82,82,82,82,82,82,82,82,82,82,82,82,82,82,82,82,82,82,82,82,82,82,82,82,82,82,82,82,82,82,82,82,82,82,82,82,82,82,82,82,48,80,79,79,80,80,80,48,82,82,82,82,82,82,82,82,82,82,82,82,82,82,82,82,82,0,0,0,0,0,0,0,
0,0,0,0,0,0,0,82,82,82,82,82,82,82,82,82,82,82,82,82,82,82,82,82,82,82,82,82,82,82,82,82,82,82,82,82,82,82,82,82,82,82,82,82,82,82,82,82,82,82,82,82,82,82,82,82,82,82,82,82,82,82,82,82,82,82,82,82,48,48,48,48,48,48,48,48,82,82,82,82,82,82,82,82,82,82,82,82,82,82,82,82,82,0,0,0,0,0,0,0,
0,0,0,0,0,0,0,0,0,0,0,0,0,0,0,0,0,0,0,0,0,0,0,0,0,0,0,0,0,0,0,0,0,0,0,0,0,0,0,0,0,0,0,0,0,0,0,0,0,0,0,0,0,0,0,0,0,0,0,0,0,0,0,0,0,0,0,0,0,0,0,0,0,0,0,0,0,0,0,0,0,0,0,0,0,0,0,0,0,0,0,0,0,0,0,0,0,0,0,0,
0,0,0,0,0,0,0,0,0,0,0,0,0,0,0,0,0,0,0,0,0,0,0,0,0,0,0,0,0,0,0,0,0,0,0,0,0,0,0,0,0,0,0,0,0,0,0,0,0,0,0,0,0,0,0,0,0,0,0,0,0,0,0,0,0,0,0,0,0,0,0,0,0,0,0,0,0,0,0,0,0,0,0,0,0,0,0,0,0,0,0,0,0,0,0,0,0,0,0,0,
0,0,0,0,0,0,0,0,0,0,0,0,0,0,0,0,0,0,0,0,0,0,0,0,0,0,0,0,0,0,0,0,0,0,0,0,0,0,0,0,0,0,0,0,0,0,0,0,0,0,0,0,0,0,0,0,0,0,0,0,0,0,0,0,0,0,0,0,0,0,0,0,0,0,0,0,0,0,0,0,0,0,0,0,0,0,0,0,0,0,0,0,0,0,0,0,0,0,0,0,
0,0,0,0,0,0,0,0,0,0,0,0,0,0,0,0,0,0,0,0,0,0,0,0,0,0,0,0,0,0,0,0,0,0,0,0,0,0,0,0,0,0,0,0,0,0,0,0,0,0,0,0,0,0,0,0,0,0,0,0,0,0,0,0,0,0,0,0,0,0,0,0,0,0,0,0,0,0,0,0,0,0,0,0,0,0,0,0,0,0,0,0,0,0,0,0,0,0,0,0,
0,0,0,0,0,0,0,0,0,0,0,0,0,0,0,0,0,0,0,0,0,0,0,0,0,0,0,0,0,0,0,0,0,0,0,0,0,0,0,0,0,0,0,0,0,0,0,0,0,0,0,0,0,0,0,0,0,0,0,0,0,0,0,0,0,0,0,0,0,0,0,0,0,0,0,0,0,0,0,0,0,0,0,0,0,0,0,0,0,0,0,0,0,0,0,0,0,0,0,0,
0,0,0,0,0,0,0,0,0,0,0,0,0,0,0,0,0,0,0,0,0,0,0,0,0,0,0,0,0,0,0,0,0,0,0,0,0,0,0,0,0,0,0,0,0,0,0,0,0,0,0,0,0,0,0,0,0,0,0,0,0,0,0,0,0,0,0,0,0,0,0,0,0,0,0,0,0,0,0,0,0,0,0,0,0,0,0,0,0,0,0,0,0,0,0,0,0,0,0,0,
0,0,0,0,0,0,0,0,0,0,0,0,0,0,0,0,0,0,0,0,0,0,0,0,0,0,0,0,0,0,0,0,0,0,0,0,0,0,0,0,0,0,0,0,0,0,0,0,0,0,0,0,0,0,0,0,0,0,0,0,0,0,0,0,0,0,0,0,0,0,0,0,0,0,0,0,0,0,0,0,0,0,0,0,0,0,0,0,0,0,0,0,0,0,0,0,0,0,0,0
</data>
 </layer>
 <objectgroup color="#0000ff" id="2" name="collision">
  <object id="1" x="3160" y="208" width="565.75" height="1833.83"/>
  <object id="2" x="921" y="262" width="2280.75" height="538.83"/>
  <object id="3" x="280" y="3160" width="2478.75" height="538.83"/>
  <object id="4" x="3000" y="3160" width="674.114" height="538.83"/>
  <object id="5" x="3160" y="2280" width="522.599" height="933.375"/>
  <object id="6" x="2520" y="1080.18" width="439.63" height="1839.19"/>
  <object id="7" x="280" y="1961.21" width="358.963" height="1240.65"/>
  <object id="8" x="280" y="154.545" width="398.963" height="1486.1"/>
  <object id="12" x="680" y="1200" width="38.63" height="160.6"/>
  <object id="13" x="921" y="802" width="238.963" height="439.933"/>
  <object id="14" x="960.667" y="1240" width="158.296" height="40.1"/>
  <object id="15" x="1160" y="1160" width="78.963" height="40.1"/>
  <object id="16" x="1160.67" y="1080" width="1038.63" height="80.1"/>
  <object id="17" x="1480" y="1160" width="237.963" height="40.1"/>
  <object id="18" x="1440.67" y="1200" width="279.13" height="40.1"/>
  <object id="19" x="1560.67" y="1400" width="158.13" height="159.6"/>
  <object id="20" x="1602" y="1241" width="117.296" height="158.6"/>
  <object id="21" x="1441.33" y="1560" width="275.963" height="795.933"/>
  <object id="22" x="1962" y="1438" width="278.63" height="1241.93"/>
  <object id="23" x="919" y="2639.67" width="1319.96" height="277.266"/>
  <object id="24" x="640" y="1960" width="156.463" height="77.2667"/>
  <object id="25" x="640" y="2040" width="119.13" height="118.6"/>
  <object id="26" x="640" y="2160" width="79.13" height="158.6"/>
  <object id="27" x="680" y="2320" width="39.13" height="160.267"/>
  <object id="28" x="1080" y="2040" width="79.13" height="161.267"/>
  <object id="29" x="1001" y="2161" width="158.13" height="157.6"/>
  <object id="30" x="958" y="2281" width="198.463" height="160.267"/>
  <object id="31" x="918" y="2400" width="241.13" height="285.267"/>
  <object id="32" x="640" y="160" width="321.13" height="118.6"/>
  <object id="34" x="2720" y="3680" width="319.797" height="35.2667"/>
  <object id="35" x="3680" y="2000" width="94.4637" height="328.6"/>
  <object id="36" x="720" y="1320" width="38.63" height="160.6"/>
  <object id="37" x="760" y="1440" width="38.63" height="160.6"/>
  <object id="38" x="800" y="1560" width="38.63" height="120.6"/>
  <object id="39" x="280" y="1642" width="38.4633" height="317.6"/>
  <object id="40" x="319" y="1640" width="477.463" height="37.6"/>
  <object id="41" x="320" y="1920" width="477.463" height="37.6"/>
  <object id="42" x="800" y="1921" width="38.63" height="159.6"/>
  <object id="43" x="760" y="2040" width="38.63" height="159.6"/>
  <object id="44" x="720" y="2159" width="38.63" height="200.6"/>
  <object id="45" x="640" y="2440" width="39.13" height="759.267"/>
  <object id="46" x="1120" y="1520" width="79.13" height="521.267"/>
  <object id="47" x="1160" y="2040" width="38.13" height="596.267"/>
  <object id="49" x="960" y="1280" width="78.963" height="40.1"/>
  <object id="50" x="1000" y="1321.33" width="40.1297" height="158.767"/>
  <object id="51" x="1040" y="1438.67" width="38.963" height="120.1"/>
  <object id="52" x="1080" y="1518.67" width="38.963" height="41.4333"/>
  <object id="53" x="1440" y="1520" width="118.963" height="41.4333"/>
  <object id="54" x="1400" y="1160" width="78.963" height="40.1"/>
  <object id="55" x="1520" y="1240" width="78.963" height="40.1"/>
  <object id="57" x="1560" y="1360" width="41.6297" height="40.1"/>
 </objectgroup>
 <objectgroup id="5" name="objects">
  <object id="63" gid="138" x="3491" y="2251" width="204.667" height="160.427"/>
  <object id="66" gid="161" x="738.02" y="426.167" width="122.98" height="100.5"/>
 </objectgroup>
 <objectgroup color="#ff007f" id="4" name="objects_party">
  <object id="59" name="npc" x="1160" y="1400" width="40" height="40">
   <properties>
    <property name="actor" value="kipkip"/>
    <property name="cutscene" value="chapter1/treasures.evaluateCaveTreasure"/>
   </properties>
  </object>
  <object id="62" name="interactable" x="3538.34" y="2123.59" width="111.333" height="71.1667">
   <properties>
    <property name="cutscene" value="chapter1/treasures.cave_continue"/>
    <property name="solid" type="bool" value="true"/>
   </properties>
  </object>
  <object id="65" name="interactable" x="736.667" y="323.833" width="124.999" height="99.333">
   <properties>
    <property name="cutscene" value="chapter1/treasures.pickupAdamantineGirdle"/>
    <property name="solid" type="bool" value="true"/>
   </properties>
  </object>
  <object id="70" name="script" x="1436" y="2360" width="57.999" height="273.833">
   <properties>
    <property name="cutscene" value="chapter1/caveEnemyDrops.sublevel4BombRock"/>
   </properties>
  </object>
  <object id="72" name="script" x="1680" y="2360" width="57.999" height="273.833">
   <properties>
    <property name="cutscene" value="chapter1/caveEnemyDrops.sublevel4BombRock"/>
   </properties>
  </object>
  <object id="73" name="script" x="1720" y="1920" width="239.999" height="65.833">
   <properties>
    <property name="cutscene" value="chapter1/caveEnemyDrops.sublevel4BombRock"/>
   </properties>
  </object>
  <object id="74" name="script" x="2200" y="1094" width="315.999" height="55.833">
   <properties>
    <property name="cutscene" value="chapter1/caveEnemyDrops.sublevel4BombRock"/>
   </properties>
  </object>
  <object id="75" name="script" x="1760" y="800" width="39.999" height="273.833">
   <properties>
    <property name="cutscene" value="chapter1/caveEnemyDrops.sublevel4BombRock"/>
   </properties>
  </object>
  <object id="76" name="script" x="1520" y="800" width="39.999" height="273.833">
   <properties>
    <property name="cutscene" value="chapter1/caveEnemyDrops.sublevel4BombRock"/>
   </properties>
  </object>
  <object id="77" name="script" x="1240" y="800" width="39.999" height="273.833">
   <properties>
    <property name="cutscene" value="chapter1/caveEnemyDrops.sublevel4BombRock"/>
   </properties>
  </object>
  <object id="78" name="script" x="2520" y="800" width="39.999" height="273.833">
   <properties>
    <property name="cutscene" value="chapter1/caveEnemyDrops.sublevel4BombRock"/>
   </properties>
  </object>
  <object id="79" name="script" x="2920" y="800" width="39.999" height="273.833">
   <properties>
    <property name="cutscene" value="chapter1/caveEnemyDrops.sublevel4BombRock"/>
   </properties>
  </object>
  <object id="80" name="script" x="2242" y="1800" width="277.999" height="65.833">
   <properties>
    <property name="cutscene" value="chapter1/caveEnemyDrops.sublevel4BombRock"/>
   </properties>
  </object>
  <object id="81" name="script" x="2240" y="2120" width="277.999" height="65.833">
   <properties>
    <property name="cutscene" value="chapter1/caveEnemyDrops.sublevel4BombRock"/>
   </properties>
  </object>
  <object id="82" name="script" x="2240" y="2360" width="277.999" height="65.833">
   <properties>
    <property name="cutscene" value="chapter1/caveEnemyDrops.sublevel4BombRock"/>
   </properties>
  </object>
  <object id="84" name="script" x="2520" y="2926" width="57.999" height="227.833">
   <properties>
    <property name="cutscene" value="chapter1/caveEnemyDrops.sublevel4BombRock"/>
   </properties>
  </object>
  <object id="85" name="script" x="1720" y="2920" width="57.999" height="227.833">
   <properties>
    <property name="cutscene" value="chapter1/caveEnemyDrops.sublevel4BombRock"/>
   </properties>
  </object>
  <object id="86" name="script" x="1560" y="2920" width="57.999" height="227.833">
   <properties>
    <property name="cutscene" value="chapter1/caveEnemyDrops.sublevel4BombRock"/>
   </properties>
  </object>
  <object id="87" name="script" x="1320" y="2920" width="57.999" height="227.833">
   <properties>
    <property name="cutscene" value="chapter1/caveEnemyDrops.sublevel4BombRock"/>
   </properties>
  </object>
  <object id="88" name="script" x="920" y="2920" width="57.999" height="227.833">
   <properties>
    <property name="cutscene" value="chapter1/caveEnemyDrops.sublevel4BombRock"/>
   </properties>
  </object>
  <object id="89" name="script" x="680" y="2760" width="239.999" height="65.833">
   <properties>
    <property name="cutscene" value="chapter1/caveEnemyDrops.sublevel4BombRock"/>
   </properties>
  </object>
  <object id="90" name="script" x="800" y="2080" width="267.999" height="65.833">
   <properties>
    <property name="cutscene" value="chapter1/caveEnemyDrops.sublevel4BombRock"/>
   </properties>
  </object>
  <object id="91" name="script" x="760" y="2280" width="197.999" height="65.833">
   <properties>
    <property name="cutscene" value="chapter1/caveEnemyDrops.sublevel4BombRock"/>
   </properties>
  </object>
  <object id="92" name="script" x="760" y="1360" width="233.999" height="65.833">
   <properties>
    <property name="cutscene" value="chapter1/caveEnemyDrops.sublevel4BombRock"/>
   </properties>
  </object>
  <object id="93" name="script" x="2967.33" y="1880" width="186.666" height="65.833">
   <properties>
    <property name="cutscene" value="chapter1/caveEnemyDrops.sublevel4BombRock"/>
   </properties>
  </object>
  <object id="94" name="script" x="2960" y="2240" width="186.666" height="65.833">
   <properties>
    <property name="cutscene" value="chapter1/caveEnemyDrops.sublevel4BombRock"/>
   </properties>
  </object>
  <object id="95" name="script" x="3370.3" y="2045.17" width="53.166" height="232.333">
   <properties>
    <property name="cutscene" value="chapter1/caveEnemyDrops.sublevel4BombRock"/>
   </properties>
  </object>
  <object id="96" name="script" x="2760" y="3160" width="229.09" height="65.833">
   <properties>
    <property name="cutscene" value="chapter1/caveEnemyDrops.sublevel4BombRock"/>
   </properties>
  </object>
  <object id="97" name="script" x="2760" y="3440" width="229.09" height="65.833">
   <properties>
    <property name="cutscene" value="chapter1/caveEnemyDrops.sublevel4BombRock"/>
   </properties>
  </object>
  <object id="98" name="script" x="2960" y="2720" width="185.09" height="65.833">
   <properties>
    <property name="cutscene" value="chapter1/caveEnemyDrops.sublevel4BombRock"/>
   </properties>
  </object>
  <object id="99" name="script" x="680" y="680" width="233.999" height="65.833">
   <properties>
    <property name="cutscene" value="chapter1/caveEnemyDrops.sublevel4BombRock"/>
   </properties>
  </object>
  <object id="100" name="script" x="680" y="880" width="233.999" height="65.833">
   <properties>
    <property name="cutscene" value="chapter1/caveEnemyDrops.sublevel4BombRock"/>
   </properties>
  </object>
  <object id="101" name="script" x="706.333" y="466" width="189.666" height="39.833">
   <properties>
    <property name="cutscene" value="chapter1/caveEnemyDrops.sublevel4enemy1"/>
   </properties>
  </object>
  <object id="102" name="enemy" x="120" y="560" width="40" height="40">
   <properties>
    <property name="actor" value="kipkip"/>
    <property name="chase" type="bool" value="true"/>
    <property name="chasedist" type="int" value="500"/>
    <property name="chasespeed" type="int" value="20"/>
    <property name="chasing" type="bool" value="false"/>
    <property name="encounter" value="sublevel3Smorgasbord"/>
    <property name="enemy" value="kipkip"/>
    <property name="once" type="bool" value="true"/>
   </properties>
  </object>
  <object id="105" name="enemy" x="40" y="920" width="40" height="40">
   <properties>
    <property name="actor" value="inflamedkipkip"/>
    <property name="chase" type="bool" value="true"/>
    <property name="chasedist" type="int" value="500"/>
    <property name="chasespeed" type="int" value="20"/>
    <property name="chasing" type="bool" value="false"/>
    <property name="encounter" value="sublevel4inflamedkipkip"/>
    <property name="enemy" value="inflamedkipkip"/>
    <property name="once" type="bool" value="true"/>
   </properties>
  </object>
  <object id="107" name="script" x="334" y="1688" width="478.666" height="223.166">
   <properties>
    <property name="cutscene" value="chapter1/caveEnemyDrops.sublevel4enemy2"/>
   </properties>
  </object>
  <object id="108" name="script" x="2244.5" y="2640" width="268.499" height="257.833">
   <properties>
    <property name="cutscene" value="chapter1/caveEnemyDrops.sublevel4enemy4"/>
   </properties>
  </object>
  <object id="110" name="script" x="845" y="1693" width="264.999" height="214.833">
   <properties>
    <property name="cutscene" value="chapter1/caveEnemyDrops.sublevel4enemy3"/>
   </properties>
  </object>
  <object id="111" name="script" x="1205.33" y="1840" width="224.999" height="257.833">
   <properties>
    <property name="cutscene" value="chapter1/caveEnemyDrops.sublevel4enemy6"/>
   </properties>
  </object>
  <object id="113" name="enemy" x="40" y="640" width="40" height="40">
   <properties>
    <property name="actor" value="inflamedkipkip"/>
    <property name="chase" type="bool" value="true"/>
    <property name="chasedist" type="int" value="500"/>
    <property name="chasespeed" type="int" value="20"/>
    <property name="chasing" type="bool" value="false"/>
    <property name="encounter" value="sublevel4inflamedkipkip"/>
    <property name="enemy" value="inflamedkipkip"/>
    <property name="once" type="bool" value="true"/>
   </properties>
  </object>
  <object id="114" name="enemy" x="160" y="1000" width="40" height="40">
   <properties>
    <property name="actor" value="inflamedkipkip"/>
    <property name="chase" type="bool" value="true"/>
    <property name="chasedist" type="int" value="500"/>
    <property name="chasespeed" type="int" value="20"/>
    <property name="chasing" type="bool" value="false"/>
    <property name="encounter" value="sublevel4inflamedkipkip"/>
    <property name="enemy" value="inflamedkipkip"/>
    <property name="once" type="bool" value="true"/>
   </properties>
  </object>
  <object id="115" name="enemy" x="54" y="1100" width="40" height="40">
   <properties>
    <property name="actor" value="inflamedkipkip"/>
    <property name="chase" type="bool" value="true"/>
    <property name="chasedist" type="int" value="500"/>
    <property name="chasespeed" type="int" value="20"/>
    <property name="chasing" type="bool" value="false"/>
    <property name="encounter" value="sublevel4inflamedkipkip+"/>
    <property name="enemy" value="inflamedkipkip"/>
    <property name="once" type="bool" value="true"/>
   </properties>
  </object>
  <object id="116" name="enemy" x="80" y="1200" width="40" height="40">
   <properties>
    <property name="actor" value="inflamedkipkip"/>
    <property name="chase" type="bool" value="true"/>
    <property name="chasedist" type="int" value="500"/>
    <property name="chasespeed" type="int" value="20"/>
    <property name="chasing" type="bool" value="false"/>
    <property name="encounter" value="sublevel4inflamedkipkip+"/>
    <property name="enemy" value="inflamedkipkip"/>
    <property name="once" type="bool" value="true"/>
   </properties>
  </object>
  <object id="117" name="interactable" x="3509.92" y="2094.92" width="167.166" height="130.917">
   <properties>
    <property name="cutscene" value="chapter1/treasures.cant_proceed_cave"/>
    <property name="solid" type="bool" value="true"/>
   </properties>
  </object>
  <object id="118" name="script" x="2960" y="1400" width="186.666" height="65.833">
   <properties>
    <property name="cutscene" value="chapter1/caveEnemyDrops.sublevel4BombRock"/>
   </properties>
  </object>
 </objectgroup>
 <objectgroup color="#aa00ff" id="3" name="markers">
  <object id="58" name="spawn" x="1320" y="1320">
   <point/>
  </object>
 </objectgroup>
 <objectgroup color="#ffff00" id="6" name="controllers">
  <object id="68" name="toggle" x="188" y="472">
   <properties>
    <property name="flag" value="pickedUpAdamantineGirdle"/>
    <property name="inverted" type="bool" value="true"/>
    <property name="target1" type="object" value="65"/>
    <property name="target2" type="object" value="66"/>
   </properties>
   <point/>
  </object>
  <object id="104" name="toggle" x="144" y="840">
   <properties>
    <property name="flag" value="isCarryingTreasure"/>
    <property name="inverted" type="bool" value="false"/>
    <property name="target1" type="object" value="113"/>
    <property name="target2" type="object" value="102"/>
    <property name="target3" type="object" value="105"/>
    <property name="target4" type="object" value="115"/>
    <property name="target5" type="object" value="116"/>
   </properties>
   <point/>
  </object>
  <object id="109" name="toggle" x="400" y="2400">
   <properties>
    <property name="flag" value="isCarryingTreasure"/>
    <property name="inverted" type="bool" value="false"/>
    <property name="target1" type="object" value="110"/>
    <property name="target10" type="object" value="93"/>
    <property name="target11" type="object" value="99"/>
    <property name="target12" type="object" value="90"/>
    <property name="target2" type="object" value="108"/>
    <property name="target3" type="object" value="111"/>
    <property name="target4" type="object" value="101"/>
    <property name="target5" type="object" value="88"/>
    <property name="target6" type="object" value="86"/>
    <property name="target7" type="object" value="81"/>
    <property name="target8" type="object" value="72"/>
    <property name="target9" type="object" value="79"/>
   </properties>
   <point/>
  </object>
 </objectgroup>
</map>
