<?xml version="1.0" encoding="UTF-8"?>
<map version="1.11" tiledversion="1.12.2" orientation="orthogonal" renderorder="right-down" width="51" height="72" tilewidth="40" tileheight="40" infinite="0" nextlayerid="9" nextobjectid="93">
 <editorsettings>
  <export target="flowerden.lua" format="lua"/>
 </editorsettings>
 <properties>
  <property name="music" value="soil_theme"/>
  <property name="name" value="Flower Den - Sublevel 1"/>
 </properties>
 <tileset firstgid="1" source="../../../tilesets/garden.tsx"/>
 <tileset firstgid="101" source="../../../tilesets/garden_extras.tsx"/>
 <tileset firstgid="141" source="../../../tilesets/treasures.tsx"/>
 <layer id="1" name="Camada de Blocos 1" width="51" height="72">
  <data encoding="csv">
82,82,82,82,82,82,82,82,82,82,82,82,82,82,82,82,82,82,82,82,82,82,82,82,82,82,82,82,82,82,82,82,82,82,82,82,82,82,82,82,82,82,82,82,82,82,82,82,82,82,82,
82,82,82,82,82,82,82,82,82,82,82,82,82,82,82,82,82,82,82,82,82,82,82,82,82,82,82,82,82,82,82,82,82,82,82,82,82,82,82,82,82,82,82,82,82,82,82,82,82,82,82,
82,82,82,82,82,82,82,82,82,82,82,82,82,82,82,82,82,82,82,82,82,82,82,82,82,82,82,82,82,82,82,82,82,82,82,82,82,82,82,82,82,82,82,82,82,82,82,82,82,82,82,
82,82,82,82,82,82,82,82,82,82,82,82,82,82,82,82,82,82,82,82,82,82,82,86,96,96,96,98,82,82,82,82,82,82,82,82,82,82,82,82,82,82,82,82,82,82,82,82,82,82,82,
82,82,82,82,82,82,82,82,82,82,82,82,82,82,82,82,82,82,82,82,82,82,86,95,45,45,45,94,98,82,82,82,82,82,82,82,82,82,82,82,82,82,82,82,82,82,82,82,82,82,82,
82,82,82,82,82,82,82,82,82,82,82,82,82,82,82,82,82,82,82,82,82,82,85,45,45,45,45,45,84,82,82,82,82,82,82,82,82,82,82,82,82,82,82,82,82,82,82,82,82,82,82,
82,82,82,82,82,82,82,82,82,82,82,82,82,82,82,82,82,82,82,82,82,82,85,45,45,45,45,45,84,82,82,82,82,82,82,82,82,82,82,82,82,82,82,82,82,82,82,82,82,82,82,
82,82,82,82,82,82,82,82,82,82,82,82,82,82,82,82,82,82,82,82,82,82,85,45,45,45,45,45,84,82,82,82,82,82,82,82,82,82,82,82,82,82,82,82,82,82,82,82,82,82,82,
82,82,82,82,82,82,82,82,82,82,82,82,82,82,82,82,82,82,82,82,82,82,85,45,45,45,45,45,84,82,82,82,82,82,82,82,82,82,82,82,82,82,82,82,82,82,82,82,82,82,82,
82,82,82,82,82,82,82,82,82,82,82,82,82,82,82,82,82,82,82,82,82,82,85,45,45,45,45,45,84,82,82,82,82,82,82,82,82,82,82,82,82,82,82,82,82,82,82,82,82,82,82,
82,82,82,82,82,82,82,82,82,82,82,82,82,82,82,82,82,82,82,82,82,82,85,45,45,45,45,45,84,82,82,82,82,82,82,82,82,82,82,82,82,82,82,82,82,82,82,82,82,82,82,
82,82,82,82,82,82,82,82,82,82,82,82,82,82,82,82,82,82,82,82,82,82,85,45,45,45,45,45,84,82,82,82,82,82,82,82,82,82,82,82,82,82,82,82,82,82,82,82,82,82,82,
82,82,82,82,82,82,82,82,82,82,82,82,82,82,82,82,82,82,82,82,82,82,85,45,45,45,45,45,84,82,82,82,82,82,82,82,82,82,82,82,82,82,82,82,82,82,82,82,82,82,82,
82,82,82,82,82,82,82,82,82,82,82,82,82,82,82,82,82,82,82,82,82,82,85,45,45,45,45,45,84,82,82,82,82,82,82,82,82,82,82,82,82,82,82,82,82,82,82,82,82,82,82,
82,82,82,82,82,82,82,82,82,82,82,82,82,82,82,82,82,82,82,82,82,82,85,45,45,45,45,45,84,82,82,82,82,82,82,82,82,82,82,82,82,82,82,82,82,82,82,82,82,82,82,
82,82,82,82,82,82,82,82,82,82,82,82,82,82,82,82,82,82,82,82,82,82,85,45,45,45,45,45,84,82,82,82,82,82,82,82,82,82,82,82,82,82,82,82,82,82,82,82,82,82,82,
82,82,82,82,82,82,82,82,82,82,82,82,82,82,82,82,82,82,82,82,82,82,85,45,45,45,45,45,84,82,82,82,82,82,82,82,82,82,82,82,82,82,82,82,82,82,82,82,82,82,82,
82,82,82,82,82,82,82,82,82,82,82,82,82,82,82,82,82,82,82,82,86,96,95,45,45,45,45,45,94,96,98,82,82,82,82,82,82,82,82,82,82,82,82,82,82,82,82,82,82,82,82,
82,82,82,82,82,82,82,82,82,82,82,82,82,82,82,82,82,82,82,86,95,45,45,45,45,45,45,45,45,45,94,98,82,82,82,82,82,82,82,82,82,82,82,82,82,82,82,82,82,82,82,
82,82,82,82,82,82,82,82,82,82,82,82,82,82,82,82,82,82,86,95,45,45,45,45,45,45,45,45,45,45,45,94,98,82,82,82,82,82,82,82,82,82,82,82,82,82,82,82,82,82,82,
82,82,82,82,82,82,82,82,82,82,82,82,82,82,82,82,82,82,85,45,45,45,45,45,45,45,45,45,45,45,45,45,84,82,82,82,82,82,82,82,82,82,82,82,82,82,82,82,82,82,82,
82,82,82,82,86,96,96,96,96,96,96,96,96,96,96,96,96,96,95,45,45,45,45,45,45,45,45,45,45,45,45,45,94,96,96,96,96,96,96,96,96,96,96,96,96,96,98,82,82,82,82,
82,82,82,82,85,45,45,45,45,45,45,45,45,45,45,45,45,45,45,45,45,45,45,45,45,45,45,45,45,45,45,45,45,45,45,45,45,45,45,45,45,45,45,45,45,45,84,82,82,82,82,
82,82,82,82,85,45,45,45,45,45,45,45,45,45,45,45,45,45,45,45,45,45,45,45,45,45,45,45,45,45,45,45,45,45,45,45,45,45,45,45,45,45,45,45,45,45,84,82,82,82,82,
82,82,82,82,85,45,45,45,45,45,45,45,45,45,45,45,45,45,45,45,45,45,45,45,45,45,45,45,45,45,45,45,45,45,45,45,45,45,45,45,45,45,45,45,45,45,84,82,82,82,82,
82,82,82,82,85,45,45,45,45,45,45,45,45,45,45,45,45,45,45,45,45,45,45,45,45,45,45,45,45,45,45,45,45,45,45,45,45,45,45,45,45,45,45,45,45,45,84,82,82,82,82,
82,82,82,82,85,45,45,45,45,45,45,45,45,45,45,45,45,45,45,45,45,45,45,45,45,45,45,45,45,45,45,45,45,45,45,45,45,45,45,45,45,45,45,45,45,45,84,82,82,82,82,
82,82,82,82,85,45,45,45,45,45,93,83,83,83,83,83,83,83,91,45,45,45,45,45,45,45,45,45,45,45,45,45,93,83,83,83,83,83,83,83,91,45,45,45,45,45,84,82,82,82,82,
82,82,82,82,85,45,45,45,45,45,84,82,82,82,82,82,82,82,85,45,45,45,45,45,45,45,45,45,45,45,45,45,84,82,82,82,82,82,82,82,85,45,45,45,45,45,84,82,82,82,82,
82,82,82,82,85,45,45,45,45,45,84,82,82,82,82,82,82,82,87,91,45,45,45,45,45,45,45,45,45,45,45,93,97,82,82,82,82,82,82,82,85,45,45,45,45,45,84,82,82,82,82,
82,82,82,82,85,45,45,45,45,45,84,82,82,82,82,82,82,82,82,87,91,45,45,45,45,45,45,45,45,45,93,97,82,82,82,82,82,82,82,82,85,45,45,45,45,45,84,82,82,82,82,
82,82,82,82,85,45,45,45,45,45,84,82,82,82,82,82,82,82,82,82,87,83,91,45,45,45,45,45,93,83,97,82,82,82,82,82,82,82,82,82,85,45,45,45,45,45,84,82,82,82,82,
82,82,82,82,85,45,45,45,45,45,84,82,82,82,82,82,82,82,82,82,82,82,85,45,45,45,45,45,84,82,82,82,82,82,82,82,82,82,82,82,85,45,45,45,45,45,84,82,82,82,82,
82,82,82,82,85,45,45,45,45,45,84,82,82,82,82,82,82,82,82,82,82,82,85,45,45,45,45,45,84,82,82,82,82,82,82,82,82,82,82,82,85,45,45,45,45,45,84,82,82,82,82,
82,82,82,82,85,45,45,45,45,45,84,82,82,82,82,82,82,82,82,82,82,82,85,45,45,45,45,45,84,82,82,82,82,82,82,82,82,82,82,82,85,45,45,45,45,45,84,82,82,82,82,
82,82,82,82,85,45,45,45,45,45,84,82,82,82,82,82,82,82,82,82,82,82,85,45,45,45,45,45,84,82,82,82,82,82,82,82,82,82,82,82,85,45,45,45,45,45,84,82,82,82,82,
82,82,82,82,85,45,45,45,45,45,84,82,82,82,82,82,82,82,82,82,82,82,85,45,45,45,45,45,84,82,82,82,82,82,82,82,82,82,82,82,85,45,45,45,45,45,84,82,82,82,82,
82,82,82,82,85,45,45,45,45,45,84,82,82,82,82,82,82,82,82,82,82,82,85,45,45,45,45,45,84,82,82,82,82,82,82,82,82,82,82,82,85,45,45,45,45,45,84,82,82,82,82,
82,82,82,82,85,45,45,45,45,45,84,82,82,82,82,82,82,82,82,82,82,82,85,45,45,45,45,45,84,82,82,82,82,82,82,82,82,82,82,82,85,45,45,45,45,45,84,82,82,82,82,
82,82,82,82,85,45,45,45,45,45,84,82,82,82,82,82,82,82,82,82,82,82,85,45,45,45,45,45,84,82,82,82,82,82,82,82,82,82,82,82,85,45,45,45,45,45,84,82,82,82,82,
82,82,82,82,85,45,45,45,45,45,84,82,82,82,82,82,82,82,82,82,82,82,85,45,45,45,45,45,84,82,82,82,82,82,82,82,82,82,82,82,85,45,45,45,45,45,84,82,82,82,82,
82,82,82,82,85,45,45,45,45,45,84,82,82,82,82,82,82,82,82,82,86,96,95,45,45,45,45,45,94,96,98,82,82,82,82,82,82,82,82,82,85,45,45,45,45,45,84,82,82,82,82,
82,82,82,82,85,45,45,45,45,45,84,82,82,82,82,82,82,82,82,86,95,45,45,45,45,45,45,45,45,45,94,98,82,82,82,82,82,82,82,82,85,45,45,45,45,45,84,82,82,82,82,
82,82,82,82,85,45,45,45,45,45,84,82,82,82,82,82,82,82,86,95,45,45,45,45,45,45,45,45,45,45,45,94,98,82,82,82,82,82,82,82,85,45,45,45,45,45,84,82,82,82,82,
82,82,82,82,85,45,45,45,45,45,84,82,82,82,82,82,82,82,85,45,45,45,45,45,45,45,45,45,45,45,45,45,84,82,82,82,82,82,82,82,85,45,45,45,45,45,84,82,82,82,82,
82,82,82,82,85,45,45,45,45,45,94,96,96,96,96,96,96,96,95,45,45,45,45,45,45,45,45,45,45,45,45,45,94,96,96,96,96,96,96,96,95,45,45,45,45,45,84,82,82,82,82,
82,82,82,82,85,45,45,45,45,45,45,45,45,45,45,45,45,45,45,45,45,45,45,45,45,45,45,45,45,45,45,45,45,45,45,45,45,45,45,45,45,45,45,45,45,45,84,82,82,82,82,
82,82,82,82,85,45,45,45,45,45,45,45,45,45,45,45,45,45,45,45,45,45,45,45,45,45,45,45,45,45,45,45,45,45,45,45,45,45,45,45,45,45,45,45,45,45,84,82,82,82,82,
82,82,82,82,85,45,45,45,45,45,45,45,45,45,45,45,45,45,45,45,45,45,45,45,45,45,45,45,45,45,45,45,45,45,45,45,45,45,45,45,45,45,45,45,45,45,84,82,82,82,82,
82,82,82,82,85,45,45,45,45,45,45,45,45,45,45,45,45,45,45,45,45,45,45,45,45,45,45,45,45,45,45,45,45,45,45,45,45,45,45,45,45,45,45,45,45,45,84,82,82,82,82,
82,82,82,82,85,45,45,45,45,45,45,45,45,45,45,45,45,45,45,45,45,45,45,45,45,45,45,45,45,45,45,45,45,45,45,45,45,45,45,45,45,45,45,45,45,45,84,82,82,82,82,
82,82,82,82,87,83,83,83,83,83,83,83,83,83,83,83,83,83,91,45,45,45,45,45,45,45,45,45,45,45,45,45,93,83,83,83,83,83,83,83,83,83,83,83,83,83,97,82,82,82,82,
82,82,82,82,82,82,82,82,82,82,82,82,82,82,82,82,82,82,85,45,45,45,45,45,45,45,45,45,45,45,45,45,84,82,82,82,82,82,82,82,82,82,82,82,82,82,82,82,82,82,82,
82,82,82,82,82,82,82,82,82,82,82,82,82,82,82,82,82,82,87,91,45,45,45,45,45,45,45,45,45,45,45,93,97,82,82,82,82,82,82,82,82,82,82,82,82,82,82,82,82,82,82,
82,82,82,82,82,82,82,82,82,82,82,82,82,82,82,82,82,82,82,87,91,45,45,45,45,45,45,45,45,45,93,97,82,82,82,82,82,82,82,82,82,82,82,82,82,82,82,82,82,82,82,
82,82,82,82,82,82,82,82,82,82,82,82,82,82,82,82,82,82,82,82,87,83,91,45,45,45,45,45,93,83,97,82,82,82,82,82,82,82,82,82,82,82,82,82,82,82,82,82,82,82,82,
82,82,82,82,82,82,82,82,82,82,82,82,82,82,82,82,82,82,82,82,82,82,85,45,45,45,45,45,84,82,82,82,82,82,82,82,82,82,82,82,82,82,82,82,82,82,82,82,82,82,82,
82,82,82,82,82,82,82,82,82,82,82,82,82,82,82,82,82,82,82,82,82,82,85,45,45,45,45,45,84,82,82,82,82,82,82,82,82,82,82,82,82,82,82,82,82,82,82,82,82,82,82,
82,82,82,82,82,82,82,82,82,82,82,82,82,82,82,82,82,82,82,82,82,82,85,45,45,45,45,45,84,82,82,82,82,82,82,82,82,82,82,82,82,82,82,82,82,82,82,82,82,82,82,
82,82,82,82,82,82,82,82,82,82,82,82,82,82,82,82,82,82,82,82,82,82,85,45,45,45,45,45,84,82,82,82,82,82,82,82,82,82,82,82,82,82,82,82,82,82,82,82,82,82,82,
82,82,82,82,82,82,82,82,82,82,82,82,82,82,82,82,82,82,82,82,82,82,85,45,45,45,45,45,84,82,82,82,82,82,82,82,82,82,82,82,82,82,82,82,82,82,82,82,82,82,82,
82,82,82,82,82,82,82,82,82,82,82,82,82,82,82,82,82,82,82,82,82,82,85,45,45,45,45,45,84,82,82,82,82,82,82,82,82,82,82,82,82,82,82,82,82,82,82,82,82,82,82,
82,82,82,82,82,82,82,82,82,82,82,82,82,82,82,82,82,82,82,82,82,82,85,45,45,45,45,45,84,82,82,82,82,82,82,82,82,82,82,82,82,82,82,82,82,82,82,82,82,82,82,
82,82,82,82,82,82,82,82,82,82,82,82,82,82,82,82,82,82,82,82,82,82,85,45,45,45,45,45,84,82,82,82,82,82,82,82,82,82,82,82,82,82,82,82,82,82,82,82,82,82,82,
82,82,82,82,82,82,82,82,82,82,82,82,82,82,82,82,82,82,82,82,82,82,85,45,45,45,45,45,84,82,82,82,82,82,82,82,82,82,82,82,82,82,82,82,82,82,82,82,82,82,82,
82,82,82,82,82,82,82,82,82,82,82,82,82,82,82,82,82,82,82,82,82,82,85,45,45,45,45,45,84,82,82,82,82,82,82,82,82,82,82,82,82,82,82,82,82,82,82,82,82,82,82,
82,82,82,82,82,82,82,82,82,82,82,82,82,82,82,82,82,82,82,82,82,82,85,45,45,45,45,45,84,82,82,82,82,82,82,82,82,82,82,82,82,82,82,82,82,82,82,82,82,82,82,
82,82,82,82,82,82,82,82,82,82,82,82,82,82,82,82,82,82,82,82,82,82,87,91,45,45,45,93,97,82,82,82,82,82,82,82,82,82,82,82,82,82,82,82,82,82,82,82,82,82,82,
82,82,82,82,82,82,82,82,82,82,82,82,82,82,82,82,82,82,82,82,82,82,82,87,83,83,83,97,82,82,82,82,82,82,82,82,82,82,82,82,82,82,82,82,82,82,82,82,82,82,82,
82,82,82,82,82,82,82,82,82,82,82,82,82,82,82,82,82,82,82,82,82,82,82,82,82,82,82,82,82,82,82,82,82,82,82,82,82,82,82,82,82,82,82,82,82,82,82,82,82,82,82,
82,82,82,82,82,82,82,82,82,82,82,82,82,82,82,82,82,82,82,82,82,82,82,82,82,82,82,82,82,82,82,82,82,82,82,82,82,82,82,82,82,82,82,82,82,82,82,82,82,82,82,
82,82,82,82,82,82,82,82,82,82,82,82,82,82,82,82,82,82,82,82,82,82,82,82,82,82,82,82,82,82,82,82,82,82,82,82,82,82,82,82,82,82,82,82,82,82,82,82,82,82,82
</data>
 </layer>
 <objectgroup color="#0000ff" id="7" name="collision">
  <object id="8" x="200" y="840" width="558.667" height="40"/>
  <object id="9" x="200" y="2040" width="558.667" height="40"/>
  <object id="10" x="160" y="840" width="39.917" height="1240"/>
  <object id="11" x="1840" y="840" width="39.917" height="1240"/>
  <object id="12" x="1280" y="2040" width="558.667" height="40"/>
  <object id="13" x="1280" y="840" width="558.667" height="40"/>
  <object id="14" x="400" y="1080" width="358.667" height="40"/>
  <object id="15" x="1280" y="1080" width="358.667" height="40"/>
  <object id="16" x="400" y="1121.33" width="39.917" height="718.667"/>
  <object id="17" x="1600" y="1120" width="39.917" height="718.667"/>
  <object id="18" x="1280" y="1800" width="318.667" height="40"/>
  <object id="19" x="440" y="1804" width="318.667" height="36"/>
  <object id="20" x="880" y="1242.67" width="39.917" height="436"/>
  <object id="21" x="1120" y="1240" width="39.917" height="439.818"/>
  <object id="24" x="720" y="1760" width="39.917" height="43.6666"/>
  <object id="26" x="760" y="1720" width="39.917" height="39.8484"/>
  <object id="27" x="800" y="1680" width="39.917" height="39.8484"/>
  <object id="28" x="840" y="1640" width="39.917" height="39.8484"/>
  <object id="29" x="1160" y="1640" width="39.917" height="39.8484"/>
  <object id="30" x="1200" y="1680" width="39.917" height="39.8484"/>
  <object id="31" x="1240" y="1720" width="39.917" height="39.8484"/>
  <object id="32" x="1280" y="1760" width="39.917" height="39.8484"/>
  <object id="33" x="800" y="1200" width="39.917" height="39.8484"/>
  <object id="34" x="760" y="1160" width="39.917" height="39.8484"/>
  <object id="35" x="840" y="1240" width="39.917" height="39.8484"/>
  <object id="36" x="720" y="1120" width="39.917" height="39.8484"/>
  <object id="37" x="1280" y="1120" width="39.917" height="39.8484"/>
  <object id="38" x="1240" y="1160" width="39.917" height="39.8484"/>
  <object id="39" x="1200" y="1200" width="39.917" height="39.8484"/>
  <object id="40" x="1160" y="1240" width="39.917" height="39.8484"/>
  <object id="41" x="720" y="800" width="39.917" height="39.8484"/>
  <object id="42" x="760" y="760" width="39.917" height="39.8484"/>
  <object id="43" x="800" y="720" width="39.917" height="39.8484"/>
  <object id="44" x="840" y="680" width="74.5837" height="39.8484"/>
  <object id="45" x="1120" y="680" width="74.5837" height="39.8484"/>
  <object id="46" x="1200" y="720" width="39.917" height="39.8484"/>
  <object id="47" x="1240" y="760" width="39.917" height="39.8484"/>
  <object id="48" x="1280" y="800" width="39.917" height="39.8484"/>
  <object id="49" x="920" y="160" width="39.917" height="39.8484"/>
  <object id="50" x="1080" y="160" width="39.917" height="39.8484"/>
  <object id="51" x="960" y="120" width="123.917" height="39.8484"/>
  <object id="52" x="880" y="197.333" width="39.917" height="484"/>
  <object id="53" x="1120" y="200" width="39.917" height="484"/>
  <object id="54" x="880" y="2200" width="39.917" height="484"/>
  <object id="55" x="1120" y="2202.67" width="39.917" height="484"/>
  <object id="56" x="920" y="2680" width="39.917" height="39.8484"/>
  <object id="57" x="1080" y="2680" width="39.917" height="39.8484"/>
  <object id="58" x="960" y="2720" width="123.917" height="39.8484"/>
  <object id="60" x="760" y="2120" width="39.917" height="39.8484"/>
  <object id="61" x="800" y="2160" width="39.917" height="39.8484"/>
  <object id="62" x="1200" y="2160" width="39.917" height="39.8484"/>
  <object id="63" x="1240" y="2120" width="39.917" height="39.8484"/>
  <object id="64" x="1280" y="2080" width="39.917" height="39.8484"/>
  <object id="65" x="1160" y="2200" width="39.917" height="39.8484"/>
  <object id="66" x="840" y="2200" width="39.917" height="39.8484"/>
  <object id="67" x="720" y="2080" width="39.917" height="39.8484"/>
 </objectgroup>
 <objectgroup color="#aa00ff" id="4" name="markers">
  <object id="7" name="spawn" x="1012" y="887">
   <point/>
  </object>
 </objectgroup>
 <objectgroup color="#ff007f" id="3" name="objects">
  <object id="5" gid="138" x="919" y="2733.12" width="204.667" height="160.427"/>
  <object id="70" gid="141" x="964.333" y="370.167" width="95.2686" height="178.601"/>
  <object id="73" gid="142" x="1700" y="2016.88" width="60.78" height="204.876"/>
  <object id="79" gid="143" x="840" y="2120" width="94.9682" height="84"/>
  <object id="80" gid="143" x="1080" y="1840" width="94.9682" height="84"/>
  <object id="83" gid="144" x="220.03" y="2013.33" width="94.0247" height="170.667"/>
 </objectgroup>
 <objectgroup color="#ff007f" id="2" name="objects_party">
  <object id="1" name="npc" x="840" y="1040" width="40" height="40">
   <properties>
    <property name="actor" value="kipkip"/>
    <property name="cutscene" value="chapter1/treasures.evaluateCaveTreasure"/>
   </properties>
  </object>
  <object id="6" name="interactable" x="960" y="2600" width="122.666" height="78.1667">
   <properties>
    <property name="cutscene" value="chapter1/treasures.cave_continue"/>
    <property name="solid" type="bool" value="true"/>
   </properties>
  </object>
  <object id="71" name="interactable" x="960" y="189" width="118.666" height="167.167">
   <properties>
    <property name="cutscene" value="chapter1/treasures.pickupRakeTreasure"/>
    <property name="solid" type="bool" value="true"/>
   </properties>
  </object>
  <object id="74" name="interactable" x="1701" y="1810.42" width="55.666" height="212.5">
   <properties>
    <property name="cutscene" value="chapter1/treasures.pickupBugAnnihilator"/>
    <property name="solid" type="bool" value="true"/>
   </properties>
  </object>
  <object id="81" name="interactable" x="1080" y="1754.67" width="83.666" height="84.5">
   <properties>
    <property name="cutscene" value="chapter1/treasures.pickupArmoredNut2"/>
    <property name="solid" type="bool" value="true"/>
   </properties>
  </object>
  <object id="82" name="interactable" x="838" y="2036" width="83.666" height="84.5">
   <properties>
    <property name="cutscene" value="chapter1/treasures.pickupArmoredNut"/>
    <property name="solid" type="bool" value="true"/>
   </properties>
  </object>
  <object id="84" name="interactable" x="227.167" y="1846.42" width="83.666" height="164.5">
   <properties>
    <property name="cutscene" value="chapter1/treasures.pickupRedPikmin"/>
    <property name="solid" type="bool" value="true"/>
   </properties>
  </object>
  <object id="90" name="enemy" x="280" y="1680" width="40" height="40">
   <properties>
    <property name="actor" value="spike"/>
    <property name="chase" type="bool" value="true"/>
    <property name="chasedist" type="int" value="200"/>
    <property name="chasespeed" value="17"/>
    <property name="encounter" value="caveSpike"/>
    <property name="enemy" value="spike"/>
    <property name="once" type="bool" value="true"/>
   </properties>
  </object>
  <object id="91" name="enemy" x="1480" y="1920" width="40" height="40">
   <properties>
    <property name="actor" value="spike"/>
    <property name="chase" type="bool" value="true"/>
    <property name="chasedist" type="int" value="200"/>
    <property name="chasespeed" value="17"/>
    <property name="encounter" value="caveSpike"/>
    <property name="enemy" value="spike"/>
    <property name="once" type="bool" value="true"/>
   </properties>
  </object>
  <object id="92" name="interactable" x="957.333" y="2599.33" width="127.666" height="78.8334">
   <properties>
    <property name="cutscene" value="chapter1/treasures.cant_proceed_cave"/>
    <property name="solid" type="bool" value="true"/>
   </properties>
  </object>
 </objectgroup>
 <objectgroup color="#ffff00" id="8" name="controllers">
  <object id="72" name="toggle" x="1254" y="168">
   <properties>
    <property name="flag" value="pickedUpFoliageAssorter"/>
    <property name="inverted" type="bool" value="true"/>
    <property name="target1" type="object" value="70"/>
    <property name="target2" type="object" value="71"/>
   </properties>
   <point/>
  </object>
  <object id="75" name="toggle" x="1964" y="1810">
   <properties>
    <property name="flag" value="pickedUpBugAnnihilator"/>
    <property name="inverted" type="bool" value="true"/>
    <property name="target1" type="object" value="74"/>
    <property name="target2" type="object" value="73"/>
   </properties>
   <point/>
  </object>
  <object id="85" name="toggle" x="1346" y="1654">
   <properties>
    <property name="flag" value="pickedUpArmoredNut2"/>
    <property name="inverted" type="bool" value="true"/>
    <property name="target1" type="object" value="81"/>
    <property name="target2" type="object" value="80"/>
   </properties>
   <point/>
  </object>
  <object id="86" name="toggle" x="684" y="2201">
   <properties>
    <property name="flag" value="pickedUpArmoredNut"/>
    <property name="inverted" type="bool" value="true"/>
    <property name="target1" type="object" value="82"/>
    <property name="target2" type="object" value="79"/>
   </properties>
   <point/>
  </object>
  <object id="87" name="toggle" x="315.152" y="2175.76">
   <properties>
    <property name="flag" value="pickedUpRedPikmin"/>
    <property name="inverted" type="bool" value="true"/>
    <property name="target1" type="object" value="84"/>
    <property name="target2" type="object" value="83"/>
   </properties>
   <point/>
  </object>
 </objectgroup>
</map>
