<?xml version="1.0" encoding="UTF-8"?>
<map version="1.11" tiledversion="1.12.2" orientation="orthogonal" renderorder="right-down" width="51" height="72" tilewidth="40" tileheight="40" infinite="0" nextlayerid="7" nextobjectid="95">
 <editorsettings>
  <export target="flowerden3.lua" format="lua"/>
 </editorsettings>
 <properties>
  <property name="music" value="tile_theme"/>
  <property name="name" value="Flower Den - Sublevel 3"/>
 </properties>
 <tileset firstgid="1" source="../../../tilesets/garden.tsx"/>
 <tileset firstgid="101" name="treasures" tilewidth="1498" tileheight="1500" tilecount="7" columns="0">
  <grid orientation="orthogonal" width="1" height="1"/>
  <tile id="0">
   <image source="../../../../../assets/sprites/treasures/rake.png" width="431" height="808"/>
  </tile>
  <tile id="1">
   <image source="../../../../../assets/sprites/treasures/raid.png" width="445" height="1500"/>
  </tile>
  <tile id="2">
   <image source="../../../../../assets/sprites/treasures/acorn.png" width="710" height="628"/>
  </tile>
  <tile id="3">
   <image source="../../../../../assets/sprites/treasures/pikmin.png" width="238" height="432"/>
  </tile>
  <tile id="4">
   <image source="../../../../../assets/sprites/tilesets/farm_world/pikmin3_pot.png" width="197" height="219"/>
  </tile>
  <tile id="5">
   <image source="../../../../../assets/sprites/treasures/cokezero.png" width="250" height="426"/>
  </tile>
  <tile id="6">
   <image source="../../../../../assets/sprites/treasures/100dollar.png" width="1498" height="682"/>
  </tile>
 </tileset>
 <tileset firstgid="108" source="../../../tilesets/treasures.tsx"/>
 <tileset firstgid="118" source="../../../tilesets/garden_extras.tsx"/>
 <layer id="1" name="Camada de Blocos 1" width="51" height="72">
  <data encoding="csv">
82,82,82,82,82,82,82,82,82,82,82,82,88,88,88,88,89,88,99,89,89,99,99,89,82,82,82,82,82,82,82,82,82,82,82,82,82,82,82,82,82,82,82,82,82,82,82,82,82,82,82,
82,82,82,82,82,82,82,82,82,82,82,82,99,89,88,89,89,99,89,88,88,88,88,88,82,82,82,82,82,82,82,82,82,82,82,82,82,82,82,82,82,82,82,82,82,82,82,82,82,82,82,
82,82,82,82,82,82,82,82,82,82,82,82,88,88,89,99,99,89,88,88,88,89,89,99,82,82,82,82,82,82,82,82,82,82,82,82,82,82,82,82,82,82,82,82,82,82,82,82,82,82,82,
82,82,82,82,82,82,82,82,82,82,82,82,88,89,99,89,99,88,99,88,99,88,99,88,82,82,82,82,82,82,82,82,82,82,82,82,82,82,82,82,82,82,82,82,82,82,82,82,82,82,82,
82,82,82,82,82,82,82,82,82,82,88,89,99,89,99,88,99,89,99,88,88,99,88,88,88,88,88,88,82,82,82,82,82,82,82,82,82,82,82,82,82,82,82,82,82,82,82,82,82,82,82,
82,82,82,82,82,82,82,82,82,82,88,99,88,89,99,88,88,88,89,88,99,88,99,88,99,89,89,99,82,82,82,82,82,82,82,82,82,82,82,82,82,82,82,82,82,82,82,82,82,82,82,
82,82,82,82,82,82,82,82,82,82,99,88,99,99,88,88,88,88,89,88,89,99,88,89,89,99,89,99,82,82,82,82,82,82,82,82,82,82,82,82,82,82,82,82,82,82,82,82,82,82,82,
82,82,82,82,82,82,82,82,82,82,82,82,88,89,89,99,88,88,88,82,82,99,89,89,88,99,88,99,82,82,82,82,82,82,82,82,82,82,82,82,82,82,82,82,82,82,82,82,82,82,82,
82,82,82,82,82,82,82,82,82,82,82,82,88,99,89,99,89,89,89,82,82,88,89,99,89,99,89,88,82,82,82,82,82,82,82,82,82,82,82,82,82,82,82,82,82,82,82,82,82,82,82,
82,82,82,82,82,82,82,82,82,82,82,82,99,99,99,99,89,88,89,82,82,99,89,99,88,89,88,89,82,82,82,82,82,82,82,82,82,82,82,82,82,82,82,82,82,82,82,82,82,82,82,
82,82,82,82,82,82,82,82,82,82,82,82,88,88,99,99,99,99,89,82,82,99,88,99,99,88,88,89,82,82,82,82,82,82,82,82,82,82,82,82,82,82,82,82,82,82,82,82,82,82,82,
82,82,82,82,82,82,82,82,82,82,82,82,88,99,88,99,88,88,99,82,82,88,88,88,88,88,89,89,82,82,82,82,82,82,82,82,82,82,82,82,82,82,82,82,82,82,82,82,82,82,82,
82,82,82,82,82,82,82,82,82,82,82,82,88,89,99,99,88,89,99,82,82,89,88,88,99,88,88,99,82,82,82,82,82,82,82,82,82,82,82,82,82,82,82,82,82,82,82,82,82,82,82,
82,82,82,82,82,82,82,82,82,82,82,82,88,88,89,88,88,99,88,82,82,88,88,88,99,88,88,89,82,82,82,82,82,82,82,82,82,82,82,82,82,82,82,82,82,82,82,82,82,82,82,
82,82,82,82,82,82,82,82,82,82,82,82,82,82,82,88,99,88,89,82,82,82,82,99,88,88,82,82,82,82,82,82,82,82,82,82,82,82,82,82,82,82,82,82,82,82,82,82,82,82,82,
82,82,82,82,82,82,82,82,82,82,82,82,82,82,82,99,89,99,88,82,82,82,82,99,99,99,82,82,82,82,82,82,82,82,82,82,82,82,82,82,82,82,82,82,82,82,82,82,82,82,82,
82,82,82,82,82,82,82,82,82,82,82,82,82,82,82,89,88,99,89,82,82,82,82,88,88,99,82,82,82,82,82,82,82,82,82,82,82,82,82,82,82,82,82,82,82,82,82,82,82,82,82,
82,82,82,82,82,82,82,82,82,82,82,82,82,82,82,89,89,89,99,82,82,82,82,82,82,82,82,82,82,82,82,82,82,82,82,82,82,82,82,82,82,82,82,82,82,82,82,82,82,82,82,
82,82,82,82,82,82,82,82,82,82,82,82,82,82,82,89,89,89,89,82,82,82,82,82,82,82,82,82,82,82,82,82,82,82,82,82,82,82,82,82,82,82,82,82,82,82,82,82,82,82,82,
82,82,82,82,82,82,82,82,82,82,82,82,82,82,82,89,99,88,89,82,82,82,82,82,82,82,82,82,82,82,82,82,82,82,82,82,82,82,82,82,82,82,82,82,82,82,82,82,82,82,82,
82,82,82,82,82,82,82,82,82,82,82,82,82,82,82,99,88,89,89,88,89,99,99,88,88,99,88,88,88,89,99,82,82,82,82,82,82,82,82,82,82,82,82,82,82,82,82,82,82,82,82,
82,82,82,82,82,82,82,82,82,82,82,82,82,82,82,88,89,88,88,89,99,99,99,89,89,88,88,88,89,99,99,82,82,82,82,82,82,82,82,82,82,82,82,82,82,82,82,82,82,82,82,
82,82,82,82,82,82,82,82,82,82,88,88,99,88,88,99,99,88,99,99,88,89,88,99,88,89,99,89,88,99,88,82,82,82,82,82,82,82,82,82,82,82,82,82,82,82,82,82,82,82,82,
82,82,82,82,82,82,82,82,82,82,88,89,89,88,88,88,99,88,89,88,88,88,89,88,89,89,89,99,88,89,88,82,82,82,82,82,82,82,82,82,82,82,82,82,82,82,82,82,82,82,82,
82,82,82,82,82,82,82,82,82,82,99,89,88,99,89,99,88,89,89,99,88,88,89,88,99,88,88,89,99,89,88,82,82,82,82,82,82,82,82,82,82,82,82,82,82,82,82,82,82,82,82,
82,82,82,82,82,82,82,82,82,82,88,89,89,89,88,99,99,88,88,89,99,88,88,89,99,89,99,88,89,88,88,82,82,82,82,82,82,82,82,82,82,82,82,82,82,82,82,82,82,82,82,
82,82,82,82,82,82,82,82,82,82,88,88,88,89,88,99,89,99,99,89,88,89,99,99,89,89,88,88,99,89,88,88,99,99,82,82,82,82,82,82,82,82,82,82,82,82,82,82,82,82,82,
82,82,82,82,82,82,82,82,82,82,82,82,82,82,82,88,99,88,89,99,89,88,99,89,99,99,88,89,88,89,89,88,88,89,88,88,82,82,82,82,82,82,82,82,82,82,82,82,82,82,82,
82,82,82,82,82,82,82,82,82,82,82,82,82,82,82,99,89,89,88,89,99,99,89,89,99,99,88,99,88,99,88,88,88,88,99,88,82,82,82,82,82,82,82,82,82,82,82,82,82,82,82,
82,82,82,82,82,82,82,82,82,82,82,82,82,82,82,88,88,89,89,99,88,89,88,88,88,89,88,88,89,99,99,89,88,89,89,88,99,82,82,82,82,82,82,82,82,82,82,82,82,82,82,
82,82,82,82,82,82,82,82,82,82,82,82,82,82,82,88,88,88,88,88,89,99,88,99,88,88,89,99,89,99,88,82,89,88,89,89,88,82,82,82,82,82,82,82,82,82,82,82,82,82,82,
82,82,82,82,82,82,82,82,82,82,82,82,82,82,82,89,89,89,88,88,89,88,89,99,89,89,88,88,99,88,99,82,89,89,99,89,88,82,82,82,82,82,82,82,82,82,82,82,82,82,82,
82,82,82,82,82,82,82,82,82,82,82,82,82,82,82,99,99,89,88,88,88,99,89,99,99,99,88,89,88,99,88,82,89,89,99,89,99,82,82,82,82,82,82,82,82,82,82,82,82,82,82,
82,82,82,82,82,82,82,82,82,82,82,82,82,82,82,88,89,99,99,88,88,88,88,89,88,89,99,88,99,88,88,82,89,88,88,89,99,82,82,82,82,82,82,82,82,82,82,82,82,82,82,
82,82,82,82,82,82,82,82,82,82,82,82,82,82,82,82,82,82,82,82,82,82,82,82,89,99,88,99,82,82,82,82,99,88,99,89,89,82,82,82,82,82,82,82,82,82,82,82,82,82,82,
82,82,82,82,82,82,82,82,82,82,82,82,82,82,82,88,88,89,88,88,89,88,88,88,88,89,88,89,99,99,89,48,89,89,89,99,88,82,82,82,82,82,82,82,82,82,82,82,82,82,82,
82,82,82,82,82,82,82,82,82,82,82,82,82,82,82,99,88,88,88,89,88,89,99,99,88,89,99,89,99,88,88,48,88,88,99,99,88,82,82,82,82,82,82,82,82,82,82,82,82,82,82,
82,82,82,82,82,82,82,82,82,82,82,82,82,82,82,89,99,89,88,99,88,89,89,99,89,88,88,89,99,99,88,48,89,89,88,99,99,82,82,82,82,82,82,82,82,82,82,82,82,82,82,
82,82,82,82,82,82,82,82,82,82,82,82,82,82,82,89,89,89,89,89,88,99,89,88,88,89,99,89,88,88,88,48,99,99,99,88,88,82,82,82,82,82,82,82,82,82,82,82,82,82,82,
82,82,82,82,82,82,82,82,82,82,88,88,88,89,88,89,89,88,88,99,88,99,89,99,88,89,88,88,88,89,88,48,88,89,89,89,88,82,82,82,82,82,82,82,82,82,82,82,82,82,82,
82,82,82,82,82,82,82,82,82,82,99,89,99,89,89,88,88,89,88,99,88,88,99,88,89,88,99,88,89,99,99,48,99,99,89,99,99,82,82,82,82,82,82,82,82,82,82,82,82,82,82,
82,82,82,82,82,82,82,82,82,82,88,99,99,88,99,88,99,99,99,88,88,88,89,89,99,99,89,99,89,89,89,48,88,88,88,99,88,82,82,82,82,82,82,82,82,82,82,82,82,82,82,
82,82,82,82,82,82,82,82,82,82,89,89,88,88,89,88,89,88,99,89,99,88,99,99,99,99,88,99,99,89,89,48,99,99,99,89,99,82,82,82,82,82,82,82,82,82,82,82,82,82,82,
82,82,82,82,82,82,82,82,82,82,89,88,88,99,88,88,89,88,89,89,88,88,88,89,48,48,48,48,88,89,99,48,89,99,89,88,99,88,82,82,82,82,82,82,82,82,82,82,82,82,82,
82,82,82,82,82,82,82,82,82,82,82,82,82,82,82,82,82,82,82,88,99,89,88,99,48,48,48,48,89,88,88,48,88,99,88,88,99,88,88,89,82,82,82,82,82,82,82,82,82,82,82,
82,82,82,82,82,82,82,82,82,82,82,82,82,82,82,82,82,82,82,88,89,99,89,99,48,48,48,48,89,88,99,82,82,99,89,89,99,89,99,88,89,82,82,82,82,82,82,82,82,82,82,
82,82,82,82,82,82,82,82,82,82,82,82,82,82,82,82,82,82,82,88,89,89,99,99,48,48,48,48,99,99,88,82,82,82,89,89,89,89,88,99,89,82,82,82,82,82,82,82,82,82,82,
82,82,82,82,82,82,82,82,82,82,82,82,82,82,82,82,82,82,82,88,99,99,99,88,48,48,48,48,89,89,88,82,82,82,82,82,89,89,88,89,88,88,82,82,82,82,82,82,82,82,82,
82,82,82,82,82,82,82,82,82,82,82,82,82,82,82,82,82,82,82,88,88,99,88,99,48,48,48,48,99,99,89,82,82,82,82,82,82,89,88,99,88,88,82,82,82,82,82,82,82,82,82,
82,82,82,82,82,82,82,82,82,82,82,82,82,82,82,99,99,99,99,89,88,89,89,99,48,48,48,48,88,99,88,82,82,82,82,82,82,89,89,99,89,89,82,82,82,82,82,82,82,82,82,
82,82,82,82,82,82,82,82,82,82,82,82,82,82,82,89,99,88,88,88,89,99,99,88,48,48,48,48,89,99,89,82,82,82,82,82,82,99,89,89,88,88,82,82,82,82,82,82,82,82,82,
82,82,82,82,82,82,82,82,82,82,82,82,82,82,82,99,99,89,99,99,99,99,99,89,48,48,48,48,89,88,89,82,82,82,82,82,82,89,88,99,89,88,82,82,82,82,82,82,82,82,82,
82,82,82,82,82,82,82,82,82,82,82,82,82,82,82,88,88,99,82,82,82,82,82,82,82,82,82,82,89,89,88,82,82,82,82,82,82,99,99,89,89,88,82,82,82,82,82,82,82,82,82,
82,82,82,82,82,82,82,82,82,82,82,82,82,82,82,88,99,99,48,99,88,99,88,89,99,99,88,99,99,99,99,99,99,88,88,89,48,89,89,88,99,99,82,82,82,82,82,82,82,82,82,
82,82,82,82,82,82,82,82,82,82,82,82,82,82,82,88,88,99,48,88,89,88,89,89,89,89,89,88,89,89,89,99,88,89,89,88,48,99,89,88,99,88,82,82,82,82,82,82,82,82,82,
82,82,82,82,82,82,82,82,82,82,82,82,82,82,82,88,89,89,48,99,89,89,99,89,88,99,99,99,89,88,88,88,89,89,88,99,48,88,99,88,89,88,82,82,82,82,82,82,82,82,82,
82,82,82,82,82,82,82,82,82,82,82,82,82,82,82,88,89,89,48,89,99,89,99,89,89,88,99,88,89,88,88,99,89,88,89,99,48,99,89,99,99,99,82,82,82,82,82,82,82,82,82,
82,82,82,82,82,82,82,82,82,82,82,82,82,82,82,89,89,99,48,99,89,99,88,88,88,99,99,88,88,99,99,88,89,88,99,88,48,88,88,89,88,99,82,82,82,82,82,82,82,82,82,
82,82,82,82,82,82,82,82,82,82,82,82,82,82,82,89,89,99,48,88,99,88,88,99,99,99,89,99,89,99,88,88,88,89,88,88,99,89,99,89,89,89,82,82,82,82,82,82,82,82,82,
82,82,82,82,82,82,82,82,82,82,82,82,82,82,82,99,88,88,48,89,88,88,99,99,99,99,99,88,99,89,99,88,99,88,88,88,99,88,88,88,89,99,82,82,82,82,82,82,82,82,82,
82,82,82,82,82,82,82,82,82,82,82,82,82,82,82,89,89,88,48,89,89,88,88,99,88,99,88,88,99,99,89,88,89,88,99,88,88,89,99,89,88,88,82,82,82,82,82,82,82,82,82,
82,82,82,82,82,82,82,82,82,82,82,82,82,82,82,99,88,88,89,89,99,89,89,99,89,88,89,88,99,88,89,89,99,82,82,82,82,82,82,82,82,82,82,82,82,82,82,82,82,82,82,
82,82,82,82,82,82,82,82,82,82,82,82,82,82,82,89,89,88,89,88,99,99,99,99,89,89,99,88,99,88,88,99,88,82,82,82,82,82,82,82,82,82,82,82,82,82,82,82,82,82,82,
82,82,82,82,82,82,82,82,82,82,82,82,82,82,82,82,99,99,99,99,89,99,99,88,89,89,89,89,99,89,99,88,88,88,89,88,88,82,82,82,82,82,82,82,82,82,82,82,82,82,82,
82,82,82,82,82,82,82,82,82,82,82,82,82,82,82,82,82,82,89,88,88,99,88,88,99,89,88,99,89,99,89,99,88,89,89,88,99,82,82,82,82,82,82,82,82,82,82,82,82,82,82,
82,82,82,82,82,82,82,82,82,82,82,82,82,82,82,82,82,82,82,82,82,82,82,99,99,89,89,88,88,89,89,89,89,89,88,89,99,82,82,82,82,82,82,82,82,82,82,82,82,82,82,
82,82,82,82,82,82,82,82,82,82,82,82,82,82,82,82,82,82,82,82,82,82,82,88,88,89,89,89,99,99,89,89,89,99,89,88,88,82,82,82,82,82,82,82,82,82,82,82,82,82,82,
82,82,82,82,82,82,82,82,82,82,82,82,82,82,82,82,82,82,82,82,82,82,82,99,89,99,88,88,99,89,89,89,89,88,88,99,88,82,82,82,82,82,82,82,82,82,82,82,82,82,82,
82,82,82,82,82,82,82,82,82,82,82,82,82,82,82,82,82,82,82,82,82,82,82,82,82,82,82,82,82,82,82,82,89,88,89,99,88,82,82,82,82,82,82,82,82,82,82,82,82,82,82,
82,82,82,82,82,82,82,82,82,82,82,82,82,82,82,82,82,82,82,82,82,82,82,82,82,82,82,82,82,82,82,82,88,89,88,99,89,82,82,82,82,82,82,82,82,82,82,82,82,82,82,
82,82,82,82,82,82,82,82,82,82,82,82,82,82,82,82,82,82,82,82,82,82,82,82,82,82,82,82,82,82,82,82,99,88,99,99,89,82,82,82,82,82,82,82,82,82,82,82,82,82,82,
82,82,82,82,82,82,82,82,82,82,82,82,82,82,82,82,82,82,82,82,82,82,82,82,82,82,82,82,82,82,82,82,99,88,89,88,89,82,82,82,82,82,82,82,82,82,82,82,82,82,82
</data>
 </layer>
 <objectgroup color="#0000ff" id="2" name="collision">
  <object id="4" x="960" y="1720" width="158.083" height="360.833"/>
  <object id="5" x="1240" y="1200.33" width="39.083" height="600.5"/>
  <object id="6" x="1440" y="2119" width="39.083" height="202.833"/>
  <object id="7" x="720" y="2120" width="39.083" height="322.833"/>
  <object id="8" x="1240" y="1799" width="78.083" height="321.833"/>
  <object id="9" x="1320" y="1922" width="159.083" height="199.833"/>
  <object id="10" x="1320" y="1840" width="42.083" height="79.833"/>
  <object id="11" x="1360" y="1880" width="79.083" height="39.833"/>
  <object id="12" x="720" y="2080" width="398.416" height="39.833"/>
  <object id="13" x="600" y="1360" width="363.083" height="39.833"/>
  <object id="14" x="1120" y="1360" width="115.083" height="39.833"/>
  <object id="16" x="400" y="1760" width="358.083" height="198.833"/>
  <object id="17" x="400" y="1081.33" width="200.75" height="477.5"/>
  <object id="18" x="400" y="556" width="198.083" height="321.5"/>
  <object id="19" x="320" y="-17.3333" width="76.7497" height="578.833"/>
  <object id="20" x="400" y="282" width="76.7497" height="280.833"/>
  <object id="21" x="400" y="-120" width="76.7497" height="280.833"/>
  <object id="22" x="960" y="-120" width="182.75" height="280.833"/>
  <object id="23" x="760" y="280" width="76.7497" height="519.166"/>
  <object id="24" x="840" y="562" width="76.7497" height="237.5"/>
  <object id="25" x="1040" y="560" width="76.7497" height="238.833"/>
  <object id="26" x="920" y="678" width="120.75" height="120.833"/>
  <object id="27" x="1120" y="160" width="182.75" height="638.833"/>
  <object id="28" x="1240" y="800" width="126.75" height="238.833"/>
  <object id="29" x="1360" y="840" width="126.75" height="238.833"/>
  <object id="30" x="1440" y="920" width="126.75" height="238.833"/>
  <object id="31" x="1480" y="1160" width="126.75" height="558.833"/>
  <object id="32" x="1520" y="1720" width="79.083" height="39.833"/>
  <object id="33" x="1600" y="1760" width="79.083" height="39.833"/>
  <object id="35" x="1640" y="1800" width="42.083" height="79.833"/>
  <object id="36" x="1680" y="1880" width="126.75" height="558.833"/>
  <object id="37" x="1320" y="2444" width="400.416" height="75.833"/>
  <object id="38" x="1480" y="2520" width="159.083" height="379.833"/>
  <object id="39" x="400" y="1960" width="198.083" height="564.833"/>
  <object id="41" x="600" y="2520" width="39.083" height="322.833"/>
  <object id="42" x="640" y="2560" width="81.083" height="322.833"/>
  <object id="43" x="720" y="2600" width="199.083" height="322.833"/>
  <object id="44" x="920" y="2720" width="357.083" height="322.833"/>
  <object id="45" x="200" y="1480" width="200.75" height="477.5"/>
  <object id="46" x="200" y="720" width="200.75" height="477.5"/>
  <object id="47" x="480" y="-280" width="497.75" height="280.833"/>
  <object id="48" x="1280" y="2880" width="203.083" height="379.833"/>
 </objectgroup>
 <objectgroup id="4" name="objects">
  <object id="49" gid="107" x="800" y="2280" width="278.4" height="123.667"/>
  <object id="83" gid="115" x="918" y="557" width="117.161" height="108"/>
  <object id="92" gid="155" x="1116.67" y="2769.79" width="204.667" height="160.427"/>
 </objectgroup>
 <objectgroup color="#ff007f" id="5" name="objects_party">
  <object id="50" name="interactable" x="800" y="2156.67" width="277.999" height="123.833">
   <properties>
    <property name="cutscene" value="chapter1/treasures.pickupColoredFrontiers"/>
    <property name="solid" type="bool" value="true"/>
   </properties>
  </object>
  <object id="52" name="script" x="600" y="1960" width="117.999" height="123.833">
   <properties>
    <property name="cutscene" value="chapter1/caveEnemyDrops.sublevel3ColoredFrontiers1"/>
   </properties>
  </object>
  <object id="53" name="script" x="1126.33" y="2000" width="106.999" height="79.833">
   <properties>
    <property name="cutscene" value="chapter1/caveEnemyDrops.sublevel3ColoredFrontiers2"/>
   </properties>
  </object>
  <object id="54" name="script" x="1361.33" y="1704" width="116.666" height="175.833">
   <properties>
    <property name="cutscene" value="chapter1/caveEnemyDrops.sublevel3Boulder"/>
   </properties>
  </object>
  <object id="55" name="npc" x="800" y="1080" width="40" height="40">
   <properties>
    <property name="actor" value="kipkip"/>
    <property name="cutscene" value="chapter1/treasures.evaluateCaveTreasure"/>
   </properties>
  </object>
  <object id="58" name="enemy" x="-130.667" y="1237.33" width="40" height="40">
   <properties>
    <property name="actor" value="spike"/>
    <property name="chase" type="bool" value="true"/>
    <property name="chasedist" type="int" value="500"/>
    <property name="chasespeed" type="int" value="20"/>
    <property name="chasing" type="bool" value="false"/>
    <property name="encounter" value="sublevel3Spike"/>
    <property name="enemy" value="spike"/>
    <property name="once" type="bool" value="true"/>
   </properties>
  </object>
  <object id="60" name="enemy" x="-52" y="1248.67" width="40" height="40">
   <properties>
    <property name="actor" value="spike"/>
    <property name="chase" type="bool" value="true"/>
    <property name="chasedist" type="int" value="500"/>
    <property name="chasespeed" type="int" value="20"/>
    <property name="chasing" type="bool" value="false"/>
    <property name="encounter" value="sublevel3Spike"/>
    <property name="enemy" value="spike"/>
    <property name="once" type="bool" value="true"/>
   </properties>
  </object>
  <object id="61" name="enemy" x="-67.0303" y="1357.94" width="40" height="40">
   <properties>
    <property name="actor" value="spike"/>
    <property name="chase" type="bool" value="true"/>
    <property name="chasedist" type="int" value="500"/>
    <property name="chasespeed" type="int" value="20"/>
    <property name="chasing" type="bool" value="false"/>
    <property name="encounter" value="Sublevel3Spike"/>
    <property name="enemy" value="spike"/>
    <property name="once" type="bool" value="true"/>
   </properties>
  </object>
  <object id="65" name="enemy" x="-100" y="452.667" width="40" height="40">
   <properties>
    <property name="actor" value="fleecebug"/>
    <property name="chase" type="bool" value="true"/>
    <property name="chasedist" type="int" value="500"/>
    <property name="chasespeed" type="int" value="20"/>
    <property name="chasing" type="bool" value="false"/>
    <property name="encounter" value="sublevel3Fleecebug"/>
    <property name="enemy" value="fleecebug"/>
    <property name="once" type="bool" value="true"/>
   </properties>
  </object>
  <object id="66" name="script" x="981.5" y="1320" width="120.999" height="123.833">
   <properties>
    <property name="cutscene" value="chapter1/caveEnemyDrops.sublevel3Boulder"/>
   </properties>
  </object>
  <object id="67" name="script" x="1228.33" y="1054.75" width="76.666" height="134.5">
   <properties>
    <property name="cutscene" value="chapter1/caveEnemyDrops.sublevel3ColoredFrontiers3"/>
   </properties>
  </object>
  <object id="69" name="script" x="760" y="1640" width="188.999" height="123.833">
   <properties>
    <property name="cutscene" value="chapter1/caveEnemyDrops.sublevel3Boulder"/>
   </properties>
  </object>
  <object id="70" name="script" x="1120" y="1640" width="110.999" height="123.833">
   <properties>
    <property name="cutscene" value="chapter1/caveEnemyDrops.sublevel3Boulder"/>
   </properties>
  </object>
  <object id="74" name="script" x="1488" y="2228" width="176.999" height="123.833">
   <properties>
    <property name="cutscene" value="chapter1/caveEnemyDrops.sublevel3Boulder"/>
   </properties>
  </object>
  <object id="75" name="script" x="920" y="2440" width="386.999" height="159.833">
   <properties>
    <property name="cutscene" value="chapter1/caveEnemyDrops.sublevel3Boulder"/>
   </properties>
  </object>
  <object id="76" name="script" x="600" y="2360" width="110.999" height="123.833">
   <properties>
    <property name="cutscene" value="chapter1/caveEnemyDrops.sublevel3Boulder"/>
   </properties>
  </object>
  <object id="77" name="script" x="837" y="158.5" width="117.999" height="120.333">
   <properties>
    <property name="cutscene" value="chapter1/caveEnemyDrops.sublevel3Boulder"/>
   </properties>
  </object>
  <object id="78" name="script" x="1126.5" y="1663.08" width="106.999" height="79.833">
   <properties>
    <property name="cutscene" value="chapter1/caveEnemyDrops.sublevel3ColoredFrontiers4"/>
   </properties>
  </object>
  <object id="79" name="enemy" x="-112" y="1134.66" width="40" height="40">
   <properties>
    <property name="actor" value="spike"/>
    <property name="chase" type="bool" value="true"/>
    <property name="chasedist" type="int" value="500"/>
    <property name="chasespeed" type="int" value="20"/>
    <property name="chasing" type="bool" value="false"/>
    <property name="encounter" value="sublevel3Spike"/>
    <property name="enemy" value="spike"/>
    <property name="once" type="bool" value="true"/>
   </properties>
  </object>
  <object id="80" name="script" x="764.501" y="1660.08" width="182.999" height="79.833">
   <properties>
    <property name="cutscene" value="chapter1/caveEnemyDrops.sublevel3ColoredFrontiers4"/>
   </properties>
  </object>
  <object id="82" name="interactable" x="917.333" y="446.333" width="116.332" height="108.833">
   <properties>
    <property name="cutscene" value="chapter1/treasures.pickupRubberUgly"/>
    <property name="solid" type="bool" value="true"/>
   </properties>
  </object>
  <object id="87" name="script" x="608" y="600" width="143.999" height="198.833">
   <properties>
    <property name="cutscene" value="chapter1/caveEnemyDrops.sublevel3ColoredFrontiers5"/>
   </properties>
  </object>
  <object id="90" name="interactable" x="1160" y="2640" width="119.999" height="78.1667">
   <properties>
    <property name="cutscene" value="chapter1/treasures.cave_continue"/>
    <property name="solid" type="bool" value="true"/>
   </properties>
  </object>
  <object id="94" name="interactable" x="1136.5" y="2617.83" width="169.499" height="102">
   <properties>
    <property name="cutscene" value="chapter1/treasures.cant_proceed_cave"/>
    <property name="solid" type="bool" value="true"/>
   </properties>
  </object>
 </objectgroup>
 <objectgroup color="#aa00ff" id="3" name="markers">
  <object id="1" name="spawn" x="920" y="1040">
   <point/>
  </object>
 </objectgroup>
 <objectgroup color="#ffff00" id="6" name="controllers">
  <object id="51" name="toggle" x="850.667" y="2110.67">
   <properties>
    <property name="flag" value="pickedUpColoredFrontiers"/>
    <property name="inverted" type="bool" value="true"/>
    <property name="target1" type="object" value="49"/>
    <property name="target2" type="object" value="50"/>
   </properties>
   <point/>
  </object>
  <object id="56" name="toggle" x="354" y="2138">
   <properties>
    <property name="flag" value="isCarryingTreasure"/>
    <property name="inverted" type="bool" value="false"/>
    <property name="target1" type="object" value="52"/>
    <property name="target2" type="object" value="53"/>
    <property name="target3" type="object" value="54"/>
    <property name="target4" type="object" value="78"/>
    <property name="target5" type="object" value="80"/>
    <property name="target6" type="object" value="87"/>
   </properties>
   <point/>
  </object>
  <object id="59" name="toggle" x="329.333" y="1796">
   <properties>
    <property name="flag" value="isCarryingTreasure"/>
    <property name="inverted" type="bool" value="false"/>
    <property name="target1" type="object" value="58"/>
    <property name="target2" type="object" value="60"/>
    <property name="target3" type="object" value="61"/>
    <property name="target4" type="object" value="79"/>
   </properties>
   <point/>
  </object>
  <object id="85" name="toggle" x="1356" y="508">
   <properties>
    <property name="flag" value="pickedUpRubberUgly"/>
    <property name="inverted" type="bool" value="true"/>
    <property name="target1" type="object" value="82"/>
    <property name="target2" type="object" value="83"/>
   </properties>
   <point/>
  </object>
  <object id="86" name="toggle" x="138" y="712">
   <properties>
    <property name="flag" value="isCarryingTreasure"/>
    <property name="inverted" type="bool" value="false"/>
    <property name="target1" type="object" value="65"/>
   </properties>
   <point/>
  </object>
 </objectgroup>
</map>
