<?xml version="1.0" encoding="UTF-8"?>
<map version="1.11" tiledversion="1.12.2" orientation="orthogonal" renderorder="right-down" width="72" height="113" tilewidth="40" tileheight="40" infinite="0" nextlayerid="15" nextobjectid="173">
 <editorsettings>
  <export target="flowerden2.lua" format="lua"/>
 </editorsettings>
 <properties>
  <property name="music" value="grass_theme"/>
  <property name="name" value="Flower Den - Sublevel 2"/>
 </properties>
 <tileset firstgid="1" source="../../../tilesets/garden.tsx"/>
 <tileset firstgid="101" source="../../../tilesets/treasures.tsx"/>
 <tileset firstgid="111" source="../../../tilesets/garden_extras.tsx"/>
 <layer id="11" name="Camada de Blocos 1" width="72" height="113">
  <data encoding="csv">
18,8,18,8,18,8,8,18,18,18,8,8,18,18,8,8,18,18,18,8,18,18,18,8,18,8,8,8,18,18,8,8,18,8,18,18,8,8,18,8,18,8,8,18,18,8,17,8,17,8,8,8,8,8,18,18,18,18,18,8,18,18,18,18,8,18,18,8,8,8,8,8,
18,8,8,18,18,8,8,8,8,18,8,8,8,8,8,8,8,17,17,18,8,8,18,18,18,18,18,18,8,8,18,18,18,18,18,18,18,8,8,18,8,8,8,8,18,8,17,17,17,17,17,8,18,18,18,8,18,18,8,8,18,18,8,8,8,8,8,8,8,8,18,18,
8,18,8,18,8,8,8,8,18,18,8,18,17,18,17,17,8,18,8,18,8,17,17,17,17,8,17,17,8,8,8,18,18,8,8,8,8,8,17,8,18,18,18,18,18,18,8,8,17,8,8,8,8,8,18,8,18,8,18,18,18,8,18,18,17,8,8,8,18,8,18,8,
18,18,8,18,17,8,8,8,8,18,8,8,8,8,17,8,18,17,17,8,17,8,17,8,8,8,18,8,18,18,8,18,18,17,8,17,18,18,8,18,18,18,8,18,18,18,8,8,17,8,18,18,8,8,18,18,8,18,8,18,18,18,18,17,18,18,18,18,8,8,18,18,
8,8,18,8,8,17,8,18,8,8,18,8,8,17,17,18,8,17,8,18,17,17,17,8,18,8,8,18,8,18,18,17,17,17,18,8,8,17,18,17,18,8,18,8,8,8,18,8,17,17,8,18,18,18,8,8,8,8,18,17,18,8,8,8,18,8,8,18,8,8,8,8,
8,18,8,18,17,17,18,17,17,8,8,18,18,17,18,17,17,8,8,18,8,17,18,8,8,8,8,18,18,18,8,8,18,8,8,8,17,17,18,8,18,18,8,8,18,8,8,8,17,8,8,8,18,18,18,8,18,18,18,18,18,8,8,8,18,18,18,18,8,8,8,8,
8,18,18,8,8,17,18,17,17,18,8,8,8,18,17,8,8,8,18,8,8,8,8,17,8,17,8,17,17,18,17,18,17,18,18,8,17,18,18,8,18,18,8,8,18,8,17,17,17,17,8,8,8,18,18,18,18,17,17,8,8,18,17,18,18,8,8,8,18,18,18,18,
8,18,8,18,8,18,8,8,8,18,17,18,18,18,8,18,18,18,18,18,8,18,8,18,8,17,8,18,18,17,18,8,8,17,18,18,17,18,18,8,18,8,8,8,8,17,17,17,8,8,17,17,17,8,18,18,18,18,18,8,8,18,18,17,8,18,18,18,18,18,8,8,
8,8,18,18,18,17,18,18,17,17,8,8,18,18,8,18,8,8,18,18,18,8,8,17,17,8,18,8,8,18,17,18,18,18,8,8,18,18,8,8,8,18,18,8,18,8,8,17,17,17,17,8,8,18,18,17,8,8,18,17,18,18,8,8,8,18,8,8,18,8,18,18,
18,8,18,17,17,18,18,18,17,8,8,8,18,8,17,8,8,8,8,8,8,8,18,8,17,17,8,18,8,8,18,18,18,18,8,8,17,8,18,8,18,8,8,8,18,18,18,8,17,17,17,8,18,8,18,18,8,8,18,8,8,8,8,8,8,18,18,8,18,18,8,18,
18,18,8,17,8,17,8,17,8,8,8,18,8,8,17,8,8,8,18,18,18,18,8,17,17,17,8,8,8,8,18,18,18,8,18,8,8,8,8,8,8,8,8,8,8,8,18,8,17,17,17,8,8,8,18,8,17,8,18,8,18,18,18,17,8,17,18,18,18,8,18,18,
18,8,8,18,18,18,8,17,18,8,17,8,8,17,17,17,17,8,8,8,8,8,18,8,8,17,8,17,8,8,18,18,18,17,8,8,18,8,18,8,8,18,8,18,8,17,8,17,8,17,17,17,8,8,8,18,17,18,18,18,8,18,8,17,8,8,8,8,8,8,8,8,
8,18,8,8,8,18,8,8,18,8,8,8,18,8,8,8,17,17,17,8,8,8,8,17,17,17,8,17,17,8,18,18,18,8,17,8,8,18,18,18,8,18,18,8,17,17,17,17,8,17,8,8,8,18,18,18,18,17,8,17,8,18,17,8,18,8,17,18,8,18,8,8,
18,18,8,18,17,18,18,8,18,18,18,8,18,8,17,17,17,17,17,8,17,17,17,17,17,17,17,17,8,18,18,8,8,8,18,18,18,18,18,8,18,18,8,8,17,8,17,17,8,17,17,17,17,8,8,18,8,8,8,18,18,18,17,8,8,18,17,8,8,18,18,18,
18,8,17,17,18,8,8,17,8,17,18,18,8,8,8,8,17,8,17,8,17,17,8,8,17,17,17,8,17,8,18,8,18,18,8,18,18,8,8,8,8,8,8,17,17,17,17,8,18,8,17,17,8,18,8,18,8,8,8,18,8,8,17,8,18,17,8,8,18,8,18,8,
8,8,17,18,8,18,17,18,18,8,18,18,18,18,18,8,8,8,17,17,17,17,8,17,17,8,8,17,17,8,8,17,8,8,18,8,8,8,8,18,8,8,8,17,8,8,17,8,8,17,17,8,18,8,8,18,8,18,18,18,8,8,8,18,18,17,8,8,8,18,18,8,
18,18,17,8,8,18,8,8,17,17,8,8,8,18,8,18,8,8,8,17,17,17,8,17,17,8,17,17,17,8,17,17,17,17,8,8,17,17,17,8,8,8,17,17,17,8,17,17,17,17,8,18,8,8,8,18,8,8,8,8,8,18,17,17,17,8,8,8,18,18,8,8,
8,8,8,17,18,8,8,17,8,18,8,8,8,18,8,8,8,17,17,8,17,8,17,17,17,17,17,17,17,17,17,17,17,8,8,8,17,8,17,8,17,8,17,17,17,17,17,17,8,8,8,18,18,8,8,8,17,17,17,8,8,8,8,18,18,8,18,8,18,18,18,8,
18,18,18,17,8,18,18,17,18,18,8,8,18,8,8,17,17,17,17,17,17,17,17,17,17,17,17,17,17,17,17,17,17,8,18,8,17,17,17,17,17,17,17,8,17,17,17,8,18,18,18,8,8,18,8,17,17,17,8,8,8,18,18,8,8,8,8,18,8,18,18,8,
8,18,18,8,18,18,8,8,18,18,18,8,18,18,8,17,17,17,17,17,17,17,17,17,17,17,17,17,17,17,17,17,17,17,8,8,8,17,17,17,17,17,17,17,8,8,8,18,8,8,18,18,8,8,17,17,17,8,8,18,8,8,18,18,18,8,17,18,18,8,8,8,
18,17,18,18,8,18,17,18,8,8,18,18,8,18,8,17,17,17,17,17,17,17,17,8,17,8,18,8,18,17,17,17,17,8,17,17,17,17,17,17,17,17,17,8,8,17,8,8,8,18,8,8,8,8,17,17,17,17,17,8,18,18,17,17,8,8,18,18,8,8,8,18,
17,18,18,8,18,8,8,8,18,8,18,8,18,8,8,8,8,8,17,17,17,17,17,17,17,17,17,17,8,18,18,17,17,17,17,17,17,17,17,17,17,17,17,17,17,17,17,8,8,8,8,8,8,8,17,8,8,8,8,8,18,8,8,18,8,17,18,8,18,18,8,18,
8,8,8,8,18,18,8,18,17,8,18,18,18,18,8,18,8,17,17,17,17,17,17,17,17,8,17,17,8,17,18,8,18,17,17,17,17,17,17,17,8,17,8,8,8,8,17,17,17,17,17,17,17,17,17,8,18,18,18,18,8,18,8,17,18,17,8,8,18,18,18,18,
18,8,18,8,8,8,18,18,18,8,8,8,18,18,18,8,17,17,17,17,17,17,17,18,17,18,17,8,8,18,8,18,17,17,17,17,17,17,17,17,17,8,8,8,17,8,8,8,8,17,8,17,17,17,8,8,8,8,8,18,8,8,18,18,18,18,18,8,8,18,18,8,
8,17,18,8,8,17,18,18,18,8,8,8,8,18,8,18,8,17,17,17,17,17,17,17,17,17,18,17,17,17,17,8,17,18,17,17,17,17,17,17,17,8,17,17,17,8,18,8,8,17,17,17,8,17,8,8,8,18,18,18,8,8,8,18,18,8,8,18,8,8,8,8,
8,18,8,8,18,18,8,18,8,8,8,8,18,18,8,18,18,8,8,17,17,17,17,17,17,17,8,18,17,8,17,8,17,17,17,17,17,17,17,17,17,17,17,8,17,8,8,8,8,8,17,17,17,17,17,8,8,8,8,8,18,8,8,8,18,18,18,18,18,18,8,18,
18,8,18,17,17,17,18,8,17,18,8,8,18,8,18,18,18,18,8,17,17,17,17,17,17,17,17,17,17,8,8,17,8,8,18,17,18,8,17,17,8,17,8,18,8,8,8,18,8,17,17,8,8,8,8,18,18,8,8,8,8,8,8,8,17,8,8,18,18,18,8,18,
8,18,8,8,8,8,18,17,17,17,18,8,8,8,8,18,18,8,8,8,8,18,17,17,17,17,17,17,17,17,17,17,8,18,18,8,18,17,17,17,17,17,8,18,18,8,18,18,18,8,17,17,17,17,8,18,18,18,17,8,18,18,8,18,17,8,8,18,8,8,8,18,
18,18,8,18,18,18,18,18,17,17,17,18,8,18,8,8,18,8,8,8,18,8,17,17,8,8,17,17,17,17,17,17,17,17,17,17,17,17,17,17,17,17,17,8,18,18,18,8,8,18,8,8,8,8,8,18,18,18,18,8,8,18,8,8,8,8,8,8,18,18,8,8,
18,8,8,8,18,18,18,18,17,18,17,18,8,8,18,18,8,8,8,18,8,17,17,8,18,8,8,8,17,17,17,17,17,17,17,17,17,17,17,17,17,8,8,8,8,18,18,18,8,18,18,8,8,8,18,18,8,18,8,18,18,8,17,17,17,18,18,18,18,18,18,18,
18,8,8,8,8,8,18,17,17,17,18,18,18,8,8,18,8,18,18,18,8,17,8,8,18,8,8,18,8,17,17,17,17,17,17,17,17,17,8,17,17,8,18,18,18,18,8,8,18,18,8,18,18,8,8,8,18,18,18,18,17,18,8,17,17,17,18,8,8,8,18,8,
18,8,8,8,18,8,18,17,17,18,17,17,17,18,8,8,18,18,17,17,18,8,18,8,18,8,8,8,17,17,8,17,17,17,17,17,8,17,17,17,17,8,8,18,8,8,18,8,18,18,18,8,18,8,18,18,8,8,8,18,18,8,17,8,18,18,18,18,8,8,18,8,
8,18,18,8,8,8,18,17,17,17,17,17,17,17,18,8,8,18,17,17,18,8,8,8,18,18,8,8,8,8,17,17,17,17,17,17,8,17,17,17,8,18,8,8,8,8,18,8,18,8,8,8,8,8,8,8,18,18,18,8,8,18,17,17,18,18,18,8,8,18,8,8,
18,8,18,18,18,18,18,17,17,18,17,17,17,17,17,18,18,17,17,18,18,8,18,8,8,8,18,18,18,8,17,8,17,17,17,17,17,8,17,8,8,18,18,8,8,18,18,18,18,8,18,18,18,18,18,18,17,17,8,8,8,8,18,8,18,8,18,8,8,18,8,18,
18,8,8,18,17,17,18,17,18,17,17,17,17,17,17,18,17,17,18,18,18,18,18,18,18,18,8,18,8,8,8,8,17,17,8,17,8,8,17,17,8,8,8,8,8,18,8,18,8,18,18,18,8,18,18,17,18,8,18,18,18,18,8,8,8,18,18,8,18,18,8,18,
18,18,18,17,17,17,17,17,17,17,17,17,17,17,17,17,17,17,18,8,18,8,8,18,8,8,18,8,8,8,8,8,8,17,17,17,17,17,8,17,17,17,17,8,18,18,18,18,18,18,18,17,17,8,18,8,18,8,8,8,8,8,18,18,18,8,18,18,18,8,18,18,
8,18,18,17,17,17,17,17,17,17,17,17,17,17,17,17,18,17,18,18,18,18,18,8,8,8,18,18,18,8,8,18,8,8,17,17,17,8,17,17,17,17,8,18,18,8,18,8,8,8,8,8,18,18,18,18,18,18,17,17,18,8,18,18,8,18,8,8,8,8,8,18,
18,17,17,17,17,17,17,17,17,17,17,17,17,17,17,17,17,17,17,18,8,18,18,18,8,8,8,18,8,8,8,8,18,8,17,17,17,17,17,8,8,17,8,8,8,8,18,8,18,18,18,17,8,8,18,18,18,8,17,18,18,18,18,8,8,18,8,18,8,18,18,18,
17,18,17,17,17,17,17,17,17,17,17,17,17,17,17,17,17,17,18,18,8,18,18,18,8,18,8,18,8,8,18,18,8,8,8,17,8,17,17,8,8,8,8,18,18,8,18,8,18,18,8,18,8,18,8,17,18,18,18,8,18,18,18,8,8,18,18,18,8,8,18,18,
17,17,17,17,17,17,17,17,17,17,17,17,17,17,17,17,17,18,18,18,18,18,18,18,18,18,8,18,8,18,18,18,18,8,17,17,8,8,8,8,18,18,8,18,8,18,8,18,17,8,8,18,8,18,8,8,18,8,18,17,18,18,18,8,8,18,18,8,18,18,18,8,
17,17,17,17,17,17,17,17,17,17,17,17,18,17,17,17,17,18,17,17,18,18,18,8,8,18,8,18,8,18,8,18,8,8,8,8,18,17,8,17,17,8,18,18,18,18,18,18,18,18,8,17,17,17,18,17,17,8,8,8,8,8,8,8,18,18,8,8,8,18,18,8,
17,17,17,17,17,17,17,17,17,17,17,18,18,17,17,17,17,17,17,17,17,18,17,18,18,18,18,18,8,18,18,18,8,8,17,17,18,8,18,8,18,8,8,18,17,17,18,8,8,18,8,17,18,18,8,8,18,8,18,18,18,8,8,8,8,8,18,18,18,18,18,8,
17,17,17,17,17,17,17,17,17,17,17,18,17,17,17,17,17,17,17,17,17,17,17,18,17,18,18,18,8,8,18,8,17,17,8,8,18,8,8,17,8,8,8,18,18,8,17,18,18,8,18,8,18,18,8,18,18,8,8,8,8,8,18,18,8,17,8,18,8,18,18,18,
18,17,17,17,17,17,17,17,17,18,17,17,17,17,17,17,17,17,17,17,17,18,17,17,17,17,18,8,18,8,8,8,17,8,17,8,8,17,17,8,18,18,8,8,8,8,18,8,8,18,8,18,18,18,8,8,8,18,18,8,18,8,18,8,8,18,8,8,18,8,8,18,
17,17,17,17,17,17,17,17,17,17,17,17,17,17,17,17,17,17,17,17,17,18,18,17,18,18,8,18,18,8,8,18,18,8,17,8,17,18,8,17,8,18,18,8,8,18,8,8,18,8,18,8,8,18,18,18,18,8,8,18,8,18,18,18,8,8,8,18,8,18,8,18,
17,17,17,17,17,17,8,8,18,18,18,17,17,17,17,17,17,17,17,17,17,18,18,17,17,18,8,8,18,8,8,18,17,17,8,17,17,17,18,18,17,18,8,18,18,8,8,8,8,18,8,18,18,17,18,17,18,18,18,8,18,18,18,18,18,8,8,18,18,18,18,8,
17,17,17,17,17,17,8,17,8,18,17,8,17,17,17,17,17,17,17,17,17,17,17,17,18,18,18,8,8,18,18,8,17,18,8,17,17,18,8,8,18,8,18,18,8,18,8,8,18,18,8,18,17,17,18,17,17,17,17,18,18,8,8,8,18,8,8,18,8,18,18,18,
17,17,17,17,17,17,17,18,17,17,17,17,17,17,17,17,18,17,17,17,17,18,18,17,18,8,8,8,8,18,17,17,18,17,17,17,17,8,18,18,8,17,8,17,18,18,18,18,18,17,18,18,17,18,18,18,17,17,17,17,17,18,8,8,18,18,8,18,8,8,8,8,
17,17,17,18,17,17,17,17,17,17,17,8,17,17,17,17,17,17,18,17,17,18,17,17,17,18,17,18,17,18,18,17,17,17,8,17,18,18,18,8,8,18,18,17,17,17,18,17,17,17,17,18,17,17,17,17,17,18,17,18,18,8,18,18,17,18,18,18,8,8,18,18,
17,17,18,18,17,17,17,18,8,17,17,8,17,17,17,17,17,17,17,18,18,18,18,17,17,18,18,8,8,8,17,18,8,18,8,8,18,17,18,18,17,18,17,17,17,18,18,18,17,17,17,17,17,17,17,18,17,17,17,18,8,18,8,8,18,8,18,8,8,18,18,8,
18,17,17,17,17,17,17,8,17,18,18,8,17,17,17,17,17,17,17,18,8,8,18,17,18,18,18,17,18,18,8,8,8,18,17,8,18,8,8,8,8,18,17,17,18,18,17,17,17,17,17,17,17,17,18,8,18,17,18,8,8,8,8,17,8,8,17,8,18,8,18,8,
17,17,17,17,18,18,17,17,17,17,18,8,17,17,17,17,17,17,18,8,8,8,8,18,8,18,18,8,17,8,18,8,8,18,17,8,8,17,17,18,18,18,17,17,17,17,17,17,17,17,17,17,17,17,18,18,18,17,18,18,18,8,8,17,8,8,8,18,8,17,18,18,
17,17,17,17,18,18,17,8,8,17,17,17,17,17,17,17,17,17,18,8,18,8,8,18,18,8,17,18,17,18,18,8,8,8,8,18,8,17,17,18,18,18,18,17,17,17,17,17,17,17,17,17,17,18,8,8,18,18,18,18,18,8,8,8,18,8,8,8,8,8,18,8,
17,17,17,17,8,8,17,8,18,17,17,17,17,17,17,18,18,18,18,18,8,18,18,18,8,8,17,8,18,8,8,18,8,17,8,18,18,18,17,18,8,18,18,17,17,17,17,17,17,17,17,17,18,18,8,18,18,18,8,18,8,8,17,18,18,18,8,8,8,18,8,8,
17,17,17,17,17,17,17,17,8,17,8,17,17,17,18,18,18,18,8,8,18,8,18,8,8,18,8,18,18,8,18,17,18,17,8,18,8,18,18,18,8,8,18,17,17,17,17,17,17,17,17,18,17,18,8,18,8,8,18,18,18,18,18,8,8,18,18,8,18,8,17,8,
17,17,17,17,17,17,18,18,17,18,18,8,18,17,18,18,18,18,8,8,8,8,18,18,8,8,18,17,17,17,17,18,18,17,18,8,17,8,8,18,18,18,18,17,17,17,17,17,17,17,17,17,17,18,18,8,8,8,8,8,8,18,18,18,18,8,8,18,8,8,8,8,
17,17,18,17,17,18,8,17,18,17,17,17,18,18,17,18,8,18,8,18,8,18,8,18,8,17,17,18,18,18,8,8,8,17,8,8,18,8,18,18,18,18,18,18,17,17,17,17,17,17,18,17,18,18,8,8,18,8,18,8,8,18,8,18,8,8,18,8,18,8,8,18,
17,17,17,17,17,18,18,8,17,17,17,17,17,18,17,18,18,18,18,8,8,8,8,8,8,18,18,18,17,18,18,8,17,17,8,8,18,18,18,18,17,17,17,17,17,17,17,17,17,17,18,17,17,17,18,18,8,18,8,8,8,8,18,18,8,8,8,18,18,8,8,8,
17,18,17,17,18,18,18,17,17,17,17,17,17,17,17,18,18,18,18,8,18,8,8,8,8,17,18,17,17,18,18,8,8,8,8,8,18,8,18,8,18,18,18,17,17,17,17,17,17,17,17,18,18,17,17,18,18,8,17,17,8,18,18,8,18,8,8,18,8,8,17,18,
18,17,17,18,18,17,17,17,17,17,17,17,18,17,18,17,17,17,18,18,18,17,8,17,8,18,18,18,8,18,8,8,18,8,8,18,8,8,18,8,18,18,17,17,17,17,17,17,17,17,18,8,18,18,18,18,8,8,18,18,8,8,18,18,8,18,8,18,18,8,8,8,
18,18,18,17,17,17,17,17,17,17,17,17,17,17,17,17,17,17,18,8,17,8,8,18,8,18,17,18,8,8,18,18,8,18,18,18,8,8,18,8,18,17,18,17,17,17,17,17,17,18,8,8,18,18,18,18,18,8,18,18,17,18,17,17,8,18,18,18,18,8,18,18,
18,18,17,18,18,17,17,17,17,17,17,17,17,17,17,17,17,17,18,8,18,18,18,8,18,18,17,18,18,18,8,8,8,8,8,8,18,18,18,18,17,17,18,17,17,17,17,17,18,18,8,18,18,18,18,8,18,18,8,18,18,18,8,17,18,8,8,8,8,8,8,18,
17,18,17,18,18,18,17,17,17,17,17,17,17,17,17,17,17,17,18,8,17,8,8,18,17,17,17,17,17,18,18,8,18,18,18,18,18,8,18,8,18,17,17,17,17,17,17,17,18,8,8,8,18,18,8,17,8,8,8,18,8,18,18,17,8,18,18,8,8,17,8,18,
17,17,17,18,17,17,17,17,17,17,17,17,17,18,17,17,17,18,18,18,18,8,8,18,18,17,18,17,17,18,8,8,8,8,18,8,18,8,18,8,18,18,17,17,17,17,17,17,18,18,8,8,8,8,8,18,18,8,8,18,8,18,17,8,8,18,17,18,8,17,17,8,
17,18,17,18,17,17,17,17,17,17,17,18,18,18,17,18,17,18,8,8,18,18,8,18,18,17,18,17,17,18,18,8,18,18,18,18,18,18,18,18,17,17,17,17,17,17,17,18,17,18,8,18,8,18,8,18,8,18,8,18,18,18,18,18,18,17,8,8,17,18,17,8,
17,17,17,17,18,18,17,17,17,17,17,18,8,8,18,8,18,8,17,18,18,18,18,18,18,18,18,17,17,17,17,18,18,8,8,18,17,17,17,18,18,17,17,17,17,17,17,17,17,18,8,18,18,18,8,17,8,8,8,17,8,17,8,17,18,8,8,18,17,18,8,8,
17,18,17,17,17,17,17,17,17,17,17,18,18,18,18,18,8,18,8,18,8,8,18,18,18,8,18,18,18,17,17,18,18,18,18,18,17,17,18,17,17,18,17,18,17,17,17,18,18,18,18,17,17,17,18,8,8,8,8,8,18,17,18,17,17,8,8,18,18,17,8,18,
18,18,18,18,18,17,17,18,17,17,18,8,18,18,18,8,18,8,18,17,17,18,18,17,17,18,18,8,18,17,17,17,17,18,8,18,18,17,17,17,17,17,17,17,17,17,17,18,18,17,17,17,18,18,18,8,8,18,18,18,8,17,8,8,8,18,8,18,8,8,18,18,
18,8,18,8,8,18,17,18,17,17,17,18,8,8,8,8,18,17,17,17,18,18,8,8,8,8,17,18,8,18,17,17,17,17,18,17,17,17,18,18,17,18,18,17,17,17,17,18,17,17,18,17,17,18,8,18,18,18,8,17,17,8,8,8,8,18,18,17,8,8,18,18,
18,18,8,18,18,17,17,17,18,18,17,17,18,8,18,18,18,8,18,17,18,8,17,8,8,8,18,8,8,18,18,18,17,18,8,18,18,17,17,18,18,18,8,18,17,17,18,18,18,17,18,17,17,17,18,18,17,18,18,8,18,17,8,8,8,8,8,8,18,18,18,8,
18,18,8,8,18,18,18,18,8,18,18,18,8,8,8,18,18,8,18,8,18,18,18,8,8,18,18,8,8,8,8,18,17,18,18,8,18,18,17,17,17,18,18,17,17,18,18,18,8,18,17,17,18,18,18,8,8,8,18,18,8,18,8,18,8,8,17,8,17,18,8,8,
18,8,8,18,8,8,8,18,18,18,8,8,8,8,18,8,17,8,17,8,17,8,17,18,18,18,18,8,8,8,18,17,17,17,17,17,8,18,18,18,17,18,17,17,17,18,18,17,18,18,17,18,18,18,18,8,18,8,8,8,18,8,18,8,8,8,8,18,18,18,18,8,
8,8,8,18,18,8,18,8,8,8,8,8,8,18,8,8,17,8,18,18,18,18,8,18,8,8,18,18,18,18,17,17,18,17,17,17,17,17,17,17,17,17,18,17,17,17,18,17,18,18,17,17,17,17,18,18,18,8,18,8,17,8,18,18,18,8,8,8,18,18,18,18,
8,18,18,18,18,18,8,18,18,18,8,18,8,17,8,8,18,8,17,8,8,8,8,18,18,8,18,8,8,8,18,18,17,17,17,17,17,17,17,17,17,17,8,17,17,17,17,17,17,17,18,18,18,17,18,18,18,8,17,18,17,18,17,8,18,17,8,17,18,8,18,18,
8,18,18,18,18,8,18,18,18,8,17,17,17,8,18,18,18,18,18,8,18,18,18,8,18,8,8,8,8,18,8,18,18,18,17,18,17,17,17,17,17,17,17,17,17,17,17,18,17,17,18,17,17,17,18,8,18,8,18,8,8,18,18,18,18,18,17,17,18,18,18,18,
8,8,18,18,18,18,8,8,18,8,18,18,8,18,18,18,8,18,18,18,17,18,18,8,8,18,8,8,18,8,18,18,17,17,17,17,17,17,17,17,17,17,17,17,17,17,18,18,17,17,18,18,17,17,18,18,18,8,18,17,18,17,18,8,8,17,17,8,8,18,8,8,
8,18,18,8,18,8,18,8,8,18,8,8,18,17,17,18,8,8,8,17,17,8,18,18,17,17,17,18,18,8,8,8,18,17,17,18,17,18,18,17,17,17,17,17,17,17,18,18,17,18,17,17,17,17,18,18,18,8,8,18,18,8,17,8,18,18,18,18,8,8,18,8,
18,8,8,8,8,8,8,8,18,18,8,18,18,17,18,17,18,18,8,8,18,17,18,18,17,18,8,17,18,8,18,18,18,18,18,8,18,18,17,17,17,18,18,17,17,17,18,18,17,17,18,17,17,18,18,18,18,18,8,8,18,18,17,17,18,17,18,18,18,18,8,8,
18,8,17,17,17,8,18,8,18,8,8,18,8,17,17,8,18,8,8,8,18,8,18,17,8,8,18,17,8,17,17,8,8,18,18,18,8,18,17,18,18,8,18,17,18,17,18,17,17,17,18,18,17,17,18,17,18,18,18,8,18,18,18,17,17,8,8,8,8,18,8,8,
8,8,17,17,17,8,8,8,8,8,18,18,8,8,17,18,18,18,17,8,17,8,17,8,18,17,17,17,8,17,18,8,17,8,8,18,8,18,18,18,8,8,18,17,17,17,17,17,17,18,18,17,17,18,17,17,18,8,8,18,18,8,18,18,8,18,18,18,18,8,8,8,
8,8,17,8,17,17,17,17,8,8,18,8,8,8,8,8,8,8,18,8,17,17,8,17,8,8,18,18,18,8,8,8,8,8,8,18,18,8,18,18,8,8,18,18,17,17,17,17,17,17,17,17,17,17,18,17,17,18,18,8,8,8,18,18,18,17,8,18,18,18,8,18,
17,8,8,17,17,17,8,8,17,17,8,18,18,18,18,18,8,18,17,8,18,17,18,17,17,18,8,8,17,8,17,18,18,18,18,18,18,8,8,8,8,18,18,18,17,18,18,17,18,18,17,17,17,17,17,17,17,17,18,8,8,8,18,18,8,18,18,8,8,18,8,8,
17,17,8,17,17,17,8,17,17,17,8,8,8,8,18,18,8,18,18,8,8,8,17,18,18,18,18,8,18,18,17,8,17,8,8,8,8,8,18,17,18,18,18,8,18,8,18,17,18,18,17,17,17,17,18,18,17,18,18,18,8,18,18,18,8,17,8,18,8,8,8,18,
17,8,8,17,17,17,17,17,17,17,8,8,18,18,8,18,18,17,17,8,18,17,17,8,8,8,18,8,18,17,17,18,17,18,17,8,18,8,18,18,18,18,8,18,18,8,18,18,18,18,18,17,17,18,18,8,18,18,18,18,17,8,17,17,17,8,18,8,18,18,8,18,
17,8,17,17,17,17,17,17,17,8,18,8,8,8,18,8,8,8,17,8,18,18,18,8,18,17,8,8,8,17,8,17,8,8,17,18,18,8,17,8,17,8,8,18,18,8,8,18,8,18,17,17,18,8,8,8,18,8,18,8,17,18,8,18,18,8,8,8,8,18,8,18,
17,17,17,17,17,17,8,17,17,17,8,8,8,8,8,18,18,18,8,8,18,17,17,17,17,8,18,18,17,18,17,17,17,17,8,8,18,18,18,17,18,18,8,18,8,8,17,17,8,8,8,18,17,17,8,17,8,17,18,8,18,8,8,8,8,18,8,18,18,18,8,18,
17,8,17,17,17,17,17,17,17,8,17,8,17,17,17,8,8,18,8,18,17,18,17,8,8,18,17,18,8,18,18,17,17,17,17,17,8,17,8,8,17,17,8,8,18,18,18,8,18,18,18,8,8,8,18,18,17,8,8,18,18,8,18,17,18,8,18,18,8,18,8,8,
8,17,17,8,17,8,8,8,8,8,17,17,17,8,17,8,8,8,8,18,8,17,8,18,8,17,17,17,8,8,18,18,18,17,17,8,17,8,18,18,8,8,8,18,8,8,8,18,18,18,18,18,18,18,8,8,18,8,8,8,8,8,18,8,8,18,18,8,18,8,18,8,
8,8,17,8,17,17,17,17,17,17,17,17,8,8,17,8,8,8,18,18,18,18,17,8,18,17,17,8,8,8,17,18,17,18,18,17,8,18,18,17,17,17,17,17,18,18,8,18,8,17,17,18,17,8,18,8,8,8,17,18,8,8,8,8,18,8,18,8,8,18,8,8,
8,18,8,17,17,17,17,17,17,17,17,8,8,17,17,17,17,8,18,8,18,8,17,18,8,8,8,17,8,18,8,18,18,8,18,18,17,17,8,8,18,18,8,17,17,8,18,17,18,17,17,17,8,18,8,8,8,8,8,8,8,8,8,18,18,18,8,8,8,8,8,18,
17,8,17,17,17,17,17,17,17,17,8,8,8,8,17,17,17,17,8,18,8,8,8,8,8,8,8,8,17,18,8,17,8,17,8,8,17,18,18,17,8,8,18,8,8,18,8,18,8,8,18,8,8,18,18,8,18,8,8,18,8,18,8,17,18,17,18,8,8,18,18,8,
17,17,17,17,17,17,17,17,8,8,17,17,8,18,8,8,8,17,8,18,8,18,18,8,18,18,18,18,8,8,18,8,17,18,17,17,18,8,17,8,18,18,8,8,8,18,18,18,18,8,8,18,8,18,8,8,18,8,8,18,8,17,8,8,18,8,8,8,8,18,18,18,
8,17,17,17,17,17,17,17,8,17,17,8,8,8,8,17,17,17,17,8,8,8,17,17,17,18,18,18,17,17,8,18,8,18,8,8,8,17,17,18,18,8,18,18,18,17,17,8,8,18,17,17,8,17,8,8,8,17,18,8,8,18,18,18,8,8,18,8,18,8,18,8,
8,17,17,17,8,17,17,17,17,17,17,17,17,17,17,17,8,8,8,18,8,8,8,18,8,17,8,18,8,8,18,8,18,17,18,18,17,17,18,18,18,18,18,18,8,8,17,18,8,17,17,18,18,17,17,8,18,8,8,18,18,18,18,18,8,8,18,18,18,18,8,18,
8,8,17,8,17,8,17,17,17,17,8,8,8,8,8,8,18,8,8,8,8,8,8,8,18,8,17,18,8,18,18,18,17,8,8,18,18,18,8,18,8,18,18,8,8,17,8,8,8,18,18,8,8,8,18,8,8,18,18,8,18,8,8,8,8,8,8,18,18,18,18,8,
8,8,17,17,17,8,17,17,8,8,18,18,18,18,18,18,8,18,18,8,18,8,8,18,8,18,8,18,8,8,18,8,8,18,8,8,8,8,8,18,18,18,8,18,8,8,8,18,18,18,8,18,18,8,18,8,8,18,18,8,18,8,8,8,18,18,8,18,8,18,8,8,
8,8,8,8,17,8,17,8,18,18,18,18,8,8,18,18,8,18,18,18,8,8,18,8,17,18,18,17,17,17,8,18,8,8,18,8,8,8,8,8,18,8,8,18,18,8,8,18,18,18,18,8,8,8,18,8,8,18,18,18,8,17,8,17,8,8,8,8,8,18,18,18,
18,8,8,8,8,17,17,8,8,18,18,8,18,18,8,18,18,18,17,8,17,8,8,8,18,8,8,8,18,17,18,18,18,8,8,18,18,8,18,8,8,18,8,8,8,8,8,8,8,18,8,8,8,8,8,18,8,18,8,8,8,17,17,17,17,8,8,8,18,18,18,18,
18,18,18,8,17,17,17,17,8,8,8,8,18,8,8,18,8,8,17,8,18,18,8,18,8,8,17,8,18,17,17,17,8,18,8,8,18,18,18,8,18,18,8,18,8,18,8,8,8,8,17,17,17,8,8,8,17,8,8,17,17,17,17,17,8,17,8,18,8,8,8,18,
18,18,8,8,17,17,8,17,8,18,18,18,18,17,8,8,8,8,8,8,8,8,8,17,18,18,18,8,18,18,18,18,18,8,18,8,18,18,18,8,18,18,18,8,18,18,8,17,8,8,17,8,17,8,17,17,17,17,17,8,17,8,17,17,17,17,17,8,17,17,17,8,
8,18,18,18,8,8,8,8,18,18,8,18,8,17,8,18,17,8,18,18,8,17,17,18,17,8,17,8,17,8,17,17,18,18,8,8,18,18,8,18,8,18,18,8,18,8,17,17,17,8,8,8,17,17,17,8,8,17,17,8,17,17,17,8,17,17,17,17,17,17,17,8,
18,18,8,8,8,18,18,8,8,8,18,18,17,18,17,8,18,8,17,17,18,17,8,18,18,17,17,17,17,18,8,8,8,8,18,18,8,18,8,8,8,18,18,18,18,8,17,17,17,17,8,17,17,8,8,17,17,17,17,17,8,17,17,17,17,8,17,17,8,17,8,8,
8,8,18,8,8,18,8,8,18,18,18,8,17,18,17,8,18,18,8,8,8,18,8,18,17,18,17,18,18,18,18,17,17,8,18,18,8,8,18,8,8,8,8,8,8,8,17,17,17,17,17,17,17,17,17,17,17,17,17,17,17,17,17,17,8,17,17,17,17,17,17,17,
8,18,18,18,18,18,18,8,17,8,17,8,17,8,8,18,18,8,18,8,8,8,18,17,8,8,18,18,17,8,17,18,18,18,8,18,18,18,8,18,8,17,17,8,8,8,17,17,17,17,17,17,17,17,17,17,17,17,17,17,17,17,17,17,17,17,17,17,17,17,17,17,
18,18,18,8,8,8,8,17,8,18,18,18,8,8,18,18,8,8,18,17,8,8,18,17,18,18,8,8,8,8,18,8,18,18,18,18,8,8,8,8,17,17,17,17,17,8,17,17,17,17,17,17,17,17,17,17,17,17,17,17,17,17,17,17,17,17,17,17,17,17,8,8,
8,18,8,18,8,18,18,18,8,18,8,8,17,17,17,17,8,17,18,18,18,8,17,17,8,8,8,8,17,8,18,18,18,8,18,8,18,8,18,18,8,17,8,8,17,17,8,17,17,17,17,17,17,17,17,8,8,8,17,17,18,17,17,17,17,17,17,17,8,17,8,8,
18,18,8,8,18,18,18,8,17,18,17,18,8,18,18,18,17,18,17,8,8,18,8,17,17,18,18,8,17,18,18,18,8,8,18,8,8,18,8,8,17,17,17,8,17,17,17,17,17,17,17,17,17,8,17,17,18,8,8,17,8,18,8,18,18,17,17,17,17,17,17,8,
18,18,8,8,18,8,18,8,18,18,18,17,17,8,17,8,18,18,18,8,18,17,18,18,18,18,17,17,8,8,8,8,8,8,8,18,8,8,8,17,17,17,8,8,8,17,17,17,17,17,17,17,17,8,18,8,18,17,18,8,17,18,18,8,17,8,17,8,17,17,8,18,
8,8,18,18,18,8,18,17,8,17,18,17,8,17,17,8,18,17,18,8,8,18,17,18,18,8,8,18,8,18,8,18,8,18,18,8,8,8,18,8,8,17,17,17,8,8,8,8,8,17,17,17,17,17,18,18,8,8,8,17,17,17,17,17,17,17,17,17,17,17,17,8,
8,8,18,18,17,17,17,18,8,17,17,18,18,18,18,17,18,17,17,8,18,17,17,18,18,8,8,17,17,18,18,18,18,8,8,8,18,8,8,8,8,17,17,17,17,17,17,17,17,17,17,17,17,17,8,17,8,17,17,17,17,17,17,17,17,17,17,17,17,17,17,17,
18,8,18,17,18,17,8,17,18,8,17,18,17,8,17,18,18,8,17,17,17,8,8,8,18,18,18,17,8,8,8,8,8,18,18,18,18,8,8,8,17,17,17,17,17,17,17,17,17,17,17,17,17,17,17,17,17,17,17,17,17,17,17,17,17,17,17,17,17,17,8,17,
18,8,18,8,8,8,18,8,8,18,18,18,8,18,8,18,8,8,17,17,8,18,17,8,8,17,18,18,8,8,18,18,8,18,18,18,8,8,8,8,8,17,17,17,17,17,17,17,17,17,17,17,17,17,17,17,17,17,17,17,17,17,17,17,17,17,17,17,17,17,17,8,
8,8,18,8,8,18,8,18,8,8,18,18,8,18,8,8,8,18,8,8,8,8,18,18,8,8,18,17,18,8,8,17,18,18,8,18,18,8,17,17,17,17,17,17,17,17,17,17,17,17,17,17,17,17,17,17,17,17,17,17,17,17,17,17,17,8,17,17,17,8,17,17
</data>
 </layer>
 <layer id="12" name="Camada de Blocos 2" width="72" height="113">
  <data encoding="csv">
0,0,0,0,0,0,0,0,0,0,0,0,0,0,0,0,0,0,0,0,48,0,0,0,48,0,0,0,0,0,48,0,0,0,0,0,0,0,0,0,0,0,0,0,0,0,0,0,0,0,0,0,0,0,0,0,0,0,0,0,0,0,0,0,0,0,0,0,0,0,0,0,
0,0,0,0,0,0,0,0,0,0,0,0,0,0,0,0,0,0,0,0,48,0,0,0,48,0,0,0,0,0,48,0,0,0,0,0,0,0,0,0,0,0,0,0,0,0,0,0,0,0,0,0,0,0,0,0,0,0,0,0,0,0,0,0,0,0,0,0,0,0,0,0,
0,0,0,0,0,0,0,0,0,0,0,0,0,0,0,0,0,0,0,0,48,0,0,0,48,0,0,0,0,0,48,0,0,0,0,0,0,0,0,0,0,0,0,0,0,0,0,0,0,0,0,0,0,0,0,0,0,0,0,0,0,0,0,0,0,0,0,0,0,0,0,0,
0,0,0,0,0,0,0,0,0,0,0,0,0,0,0,0,0,0,0,48,48,0,0,0,48,0,0,0,0,0,48,0,0,0,0,0,0,0,0,0,0,0,0,0,0,0,0,0,0,0,0,0,0,0,0,0,0,0,0,0,0,0,0,0,0,0,0,0,0,0,0,0,
0,0,0,0,0,0,0,0,0,0,0,0,0,0,0,0,0,0,0,48,0,0,0,0,48,0,0,0,0,0,48,0,0,0,0,0,0,0,0,0,0,0,0,0,0,0,0,0,0,0,0,0,0,0,0,0,0,0,0,0,0,0,0,0,0,0,0,0,0,0,0,0,
0,0,0,0,0,0,0,0,0,0,0,0,0,0,0,0,0,0,0,48,0,0,0,0,48,0,0,0,0,0,48,0,0,0,0,0,0,0,0,0,0,0,0,0,0,0,0,0,0,0,0,0,0,0,0,0,0,0,0,0,0,0,0,0,0,0,0,0,0,0,0,0,
0,0,0,0,0,0,0,0,0,0,0,0,0,0,0,0,0,0,0,48,0,0,0,48,48,0,0,0,0,0,48,0,0,0,0,0,0,0,0,0,0,0,0,0,0,0,0,0,0,0,0,0,0,0,0,0,0,0,0,0,0,0,0,0,0,0,0,0,0,0,0,0,
0,0,0,0,0,0,0,0,0,0,0,0,0,0,0,0,0,0,0,48,0,0,0,48,0,0,0,0,0,0,48,0,0,0,0,0,0,0,0,0,0,0,0,0,0,0,0,0,0,0,0,0,0,0,0,0,0,0,0,0,0,0,0,0,0,0,0,0,0,0,0,0,
0,0,0,0,0,0,0,0,0,0,0,0,0,0,0,0,0,0,0,48,0,0,0,48,48,0,0,0,0,0,48,0,0,0,0,0,0,0,0,0,0,0,0,0,0,0,0,0,0,0,0,0,0,0,0,0,0,0,0,0,0,0,0,0,0,0,0,0,0,0,0,0,
0,0,0,0,0,0,0,0,0,0,0,0,0,0,0,0,0,0,0,48,0,0,0,0,48,0,0,0,0,0,48,0,0,0,0,0,0,0,0,0,0,0,0,0,0,0,0,0,0,0,0,0,0,0,0,0,0,0,0,0,0,0,0,0,0,0,0,0,0,0,0,0,
0,0,0,0,0,0,0,0,0,0,0,0,0,0,0,0,0,0,0,48,0,0,0,0,48,0,0,0,0,0,48,48,0,0,0,0,0,0,0,0,0,0,0,0,0,0,0,0,0,0,0,0,0,0,0,0,0,0,0,0,0,0,0,0,0,0,0,0,0,0,0,0,
0,0,0,0,0,0,0,0,0,0,0,0,0,0,0,0,0,0,0,48,0,0,0,0,48,0,0,0,0,0,0,48,0,0,0,0,0,0,0,0,0,0,0,0,0,0,48,48,48,48,48,0,0,0,0,0,0,0,0,0,0,0,0,0,0,0,0,0,0,0,0,0,
0,0,0,0,0,0,0,0,0,0,0,0,0,0,0,0,0,0,48,48,0,0,0,0,48,0,0,0,0,0,0,48,48,0,0,0,0,0,0,0,0,0,0,48,48,48,0,0,0,0,48,48,48,48,48,48,48,0,0,0,0,0,0,0,0,0,0,0,0,0,0,0,
0,0,0,0,0,0,0,0,0,0,0,0,0,0,0,0,0,48,48,0,0,0,0,0,48,48,0,0,0,0,0,0,48,48,0,0,0,0,0,0,48,48,48,48,0,0,0,0,0,0,0,0,0,0,0,0,48,0,0,0,0,0,0,0,0,0,0,0,0,0,0,0,
0,0,0,0,0,0,0,0,0,0,0,0,0,0,0,0,0,48,0,0,0,0,0,0,48,48,0,0,0,0,0,0,0,48,48,48,48,48,48,48,48,0,0,0,0,0,0,0,0,0,0,0,0,0,0,0,48,0,0,0,0,0,0,0,0,0,0,0,0,0,0,0,
0,0,0,0,0,0,0,0,0,0,0,0,0,0,0,0,0,48,0,0,0,0,0,0,48,48,48,0,0,0,0,0,0,0,0,0,0,0,0,0,0,0,0,0,0,0,0,0,0,0,0,0,0,0,0,0,48,0,0,0,0,0,0,0,0,0,0,0,0,0,0,0,
0,0,0,0,0,0,0,0,0,0,0,0,0,0,0,0,48,48,0,0,0,0,0,0,0,48,0,0,0,0,0,0,0,0,0,0,0,0,0,0,0,0,0,0,0,0,0,0,0,0,0,0,0,0,0,0,48,0,0,0,0,0,0,0,0,0,0,0,0,0,0,0,
0,0,0,0,0,0,0,0,0,0,0,0,0,0,0,0,48,0,0,0,0,0,0,0,0,48,0,0,0,0,0,0,0,0,0,0,0,0,0,0,0,0,0,0,0,0,0,0,0,0,0,0,0,0,0,0,48,0,0,0,0,0,0,0,0,0,0,0,0,0,0,0,
0,0,0,0,0,0,0,0,0,0,0,0,0,0,0,0,48,0,0,0,0,0,0,0,0,48,48,0,0,0,0,0,0,0,0,0,0,0,0,0,0,0,0,0,0,48,0,0,0,0,0,0,0,0,48,48,48,0,0,0,0,0,0,0,0,0,0,0,0,0,0,0,
0,0,0,0,0,0,0,0,0,0,0,0,0,0,0,0,48,0,0,0,0,0,0,0,0,48,48,0,0,0,0,0,0,0,0,0,0,0,0,0,0,0,0,0,0,48,0,0,0,0,0,0,48,48,48,0,0,0,0,0,0,0,0,0,0,0,0,0,0,0,0,0,
0,0,0,0,0,0,0,0,0,0,0,0,0,0,0,0,48,0,0,0,0,0,0,0,0,0,48,0,0,0,0,0,0,0,0,0,0,0,0,0,0,0,0,0,0,48,48,48,48,48,48,48,48,0,0,0,0,0,0,0,0,0,0,0,0,0,0,0,0,0,0,0,
0,0,0,0,0,0,0,0,0,0,0,0,0,0,0,0,48,0,0,0,0,0,0,0,0,0,48,48,0,0,0,0,0,0,0,0,0,0,0,0,0,0,0,0,0,48,0,0,0,0,0,0,0,0,0,0,0,0,0,0,0,0,0,0,0,0,0,0,0,0,0,0,
0,0,0,0,0,0,0,0,0,0,0,0,0,0,0,0,48,0,0,0,0,0,0,0,0,0,0,48,0,0,0,0,0,0,0,0,0,0,0,0,0,0,0,0,0,48,0,0,0,0,0,0,0,0,0,0,0,0,0,0,0,0,0,0,0,0,0,0,0,0,0,0,
0,0,0,0,0,0,0,0,0,0,0,0,0,0,0,0,48,0,0,0,0,0,0,0,0,0,0,48,0,0,0,0,0,0,0,0,0,0,0,0,0,0,0,0,0,48,0,0,0,0,0,0,0,0,0,0,0,0,0,0,0,0,0,0,0,0,0,0,0,0,0,0,
0,0,0,0,0,0,0,0,0,0,0,0,0,0,0,48,0,0,0,0,0,0,0,0,0,0,0,0,0,0,0,0,0,0,0,0,0,0,0,0,0,0,0,0,0,48,0,0,0,0,0,0,0,0,0,0,0,0,0,0,0,0,0,0,0,0,0,0,0,0,0,0,
0,0,0,0,0,0,0,0,0,0,0,0,0,0,0,48,0,0,0,0,0,0,0,0,0,0,0,0,0,0,0,0,0,0,0,0,0,0,0,0,0,0,0,0,0,48,0,0,0,0,0,0,0,0,0,0,0,0,0,0,0,0,0,0,0,0,0,0,0,0,0,0,
0,0,0,0,0,0,0,0,0,0,0,0,0,0,0,48,0,0,0,0,0,0,0,0,0,0,0,0,0,0,0,0,0,0,0,0,0,0,0,0,0,0,0,0,0,48,48,0,0,0,0,0,0,0,0,0,0,0,0,0,0,0,0,0,0,0,0,0,0,0,0,0,
0,0,0,0,0,0,0,0,0,0,0,0,0,0,0,48,0,0,0,0,0,0,0,0,0,0,0,0,0,0,0,0,0,0,0,17,17,18,8,0,0,0,0,0,0,0,48,0,0,0,0,0,0,0,0,0,0,0,0,0,0,0,0,0,0,0,0,0,0,0,0,0,
0,0,0,0,0,0,0,0,0,0,0,0,0,0,0,48,0,0,0,0,0,0,0,0,0,0,0,0,0,0,0,0,0,0,17,8,48,48,18,0,0,0,0,0,0,0,48,0,0,0,0,0,0,0,0,0,0,0,0,0,0,0,0,0,0,0,0,0,0,0,0,0,
0,0,0,0,0,0,0,0,0,0,0,0,0,0,0,48,0,0,0,0,0,0,0,0,0,0,0,0,0,0,0,0,0,8,8,48,48,48,8,0,0,0,0,0,0,0,48,0,0,0,0,0,0,0,0,0,0,0,0,0,0,0,0,0,0,0,0,0,0,0,0,0,
0,0,0,0,0,0,0,0,0,0,0,0,0,0,0,48,0,0,0,0,0,0,0,0,0,0,0,0,0,0,0,0,18,17,48,48,48,48,8,0,0,0,0,0,0,0,48,48,0,0,0,0,0,0,0,0,0,0,0,0,0,0,0,0,0,0,0,0,0,0,0,0,
0,0,0,0,0,0,0,0,0,0,0,0,0,0,0,48,48,0,0,0,0,0,0,0,0,0,0,0,0,48,0,0,17,48,48,48,48,18,0,0,0,0,0,0,0,0,0,48,48,48,0,0,0,0,0,0,0,0,0,0,0,0,0,0,0,0,0,0,0,0,0,0,
0,0,0,0,0,0,0,0,0,0,0,0,0,0,0,0,48,0,0,0,0,0,0,0,0,0,0,0,48,48,48,48,48,48,48,48,8,8,0,0,0,0,0,0,0,0,0,0,0,48,0,0,0,0,0,0,0,0,0,0,0,0,0,0,0,0,0,0,0,0,0,0,
0,0,0,0,0,0,0,0,0,0,0,0,0,0,0,0,48,0,0,0,0,0,0,0,0,0,0,0,48,48,48,48,48,48,48,48,17,0,0,0,0,0,0,0,0,0,0,0,0,48,0,0,0,0,0,0,0,0,0,0,0,0,0,0,0,0,0,0,0,0,0,0,
0,0,0,0,0,0,0,0,0,0,0,0,0,0,0,0,48,0,0,0,0,0,0,0,0,0,0,0,48,48,48,48,48,48,48,48,0,0,0,0,0,0,0,0,0,0,0,0,0,48,0,0,0,0,0,0,0,0,0,0,0,0,0,0,0,0,0,0,0,0,0,0,
0,0,0,0,0,0,0,0,0,0,0,0,0,0,0,0,48,0,0,0,0,0,0,0,0,0,0,0,48,48,48,48,48,48,48,48,48,0,0,0,0,0,0,0,0,0,0,0,0,48,0,0,0,0,0,0,0,0,0,0,0,0,0,0,0,0,0,0,0,0,0,0,
0,0,0,0,0,0,0,0,0,0,0,0,0,0,0,0,48,48,0,0,0,0,0,0,0,0,0,0,48,48,48,48,48,48,48,48,48,0,0,0,0,0,0,0,0,0,0,0,0,48,0,0,0,0,0,0,0,0,0,0,0,0,0,0,0,0,0,0,0,0,0,0,
0,0,0,0,0,0,0,0,0,0,0,0,0,0,0,0,0,48,0,0,0,0,0,0,0,0,0,0,48,48,48,48,48,48,48,48,48,0,0,0,0,0,0,0,0,0,0,0,0,48,0,0,0,0,0,0,0,0,0,0,0,0,0,0,0,0,0,0,0,0,0,0,
0,0,0,0,0,0,0,0,0,0,0,0,0,0,0,0,0,48,48,0,0,0,0,0,0,0,0,0,0,48,48,48,48,48,48,48,0,0,0,0,0,0,0,0,0,0,0,0,0,48,0,0,0,0,0,0,0,0,0,0,0,0,0,0,0,0,0,0,0,0,0,0,
0,0,0,0,0,0,0,0,0,0,0,0,0,0,0,0,0,0,48,48,0,0,0,0,0,0,0,0,0,48,48,48,48,48,48,0,0,0,0,0,0,0,0,0,0,0,0,0,0,48,0,0,0,0,0,0,0,0,0,0,0,0,0,0,0,0,0,0,0,0,0,0,
0,0,0,0,0,0,0,0,0,0,0,0,0,0,0,0,0,0,0,48,0,0,0,0,0,0,0,0,0,48,0,0,0,0,0,0,0,0,0,0,0,0,0,0,0,0,0,0,0,48,0,0,0,0,0,0,0,0,0,0,0,0,0,0,0,0,0,0,0,0,0,0,
0,0,0,0,0,0,0,0,0,0,0,0,0,0,0,0,0,0,0,48,0,0,0,0,0,0,0,0,0,0,0,0,0,0,0,0,0,0,0,0,0,0,0,0,0,0,0,0,48,48,0,0,0,0,0,0,0,0,0,0,0,0,0,0,0,0,0,0,0,0,0,0,
0,0,0,0,0,0,0,0,0,0,0,0,0,0,0,0,0,0,0,48,48,0,0,0,0,0,0,0,0,0,0,0,0,0,0,0,0,0,0,0,0,0,0,0,0,0,0,0,48,0,0,0,0,0,0,0,0,0,0,0,0,0,0,0,0,0,0,0,0,0,0,0,
0,0,0,0,0,0,0,0,0,0,0,0,0,0,0,0,0,0,0,0,48,0,0,0,0,0,0,0,0,0,0,0,0,0,0,0,0,0,0,0,0,0,0,0,0,0,0,0,48,0,0,0,0,0,0,0,0,0,0,0,0,0,0,0,0,0,0,0,0,0,0,0,
0,0,0,0,0,0,0,0,0,0,0,0,0,0,0,0,0,0,0,0,48,0,0,0,0,0,0,0,0,0,0,0,0,0,0,0,0,0,0,0,0,0,0,0,0,0,0,48,48,0,0,0,0,0,0,0,0,0,0,0,0,0,0,0,0,0,0,0,0,0,0,0,
0,0,0,0,0,0,0,0,0,0,0,0,0,0,0,0,0,0,0,0,48,0,0,0,0,0,0,0,0,0,0,0,0,0,0,0,0,0,0,0,0,0,0,0,0,0,0,48,0,0,0,0,0,0,0,0,0,0,0,0,0,0,0,0,0,0,0,0,0,0,0,0,
0,0,0,0,0,0,0,0,0,0,0,0,0,48,0,0,0,0,0,48,48,0,0,0,0,0,0,0,0,0,0,0,0,0,0,0,0,0,0,0,0,0,0,0,0,0,48,48,0,0,0,0,0,0,0,0,0,0,0,0,0,0,0,0,0,0,0,0,0,0,0,0,
0,0,0,0,0,0,0,0,0,0,48,48,48,48,48,48,0,48,48,48,0,0,0,0,0,0,0,0,0,0,0,0,0,0,0,0,0,0,0,0,0,0,0,0,0,0,48,0,0,0,0,0,0,0,0,0,0,0,0,0,0,0,0,0,0,0,0,0,0,0,0,0,
0,0,0,0,0,0,0,0,0,48,48,0,0,0,0,48,48,48,0,0,0,0,0,0,0,0,0,0,0,0,0,0,0,0,0,0,0,0,0,0,0,0,0,0,0,0,48,0,0,0,0,0,0,0,0,0,0,0,0,0,0,0,0,0,0,0,0,0,0,0,0,0,
0,0,0,0,0,0,0,0,0,48,0,0,0,0,0,0,0,0,0,0,0,0,0,0,0,0,0,0,0,0,0,0,0,0,0,0,0,0,0,0,0,0,0,0,0,0,48,0,0,0,0,0,0,0,0,0,0,0,0,0,0,0,0,0,0,0,0,0,0,0,0,0,
0,0,0,0,0,0,0,0,0,48,0,0,0,0,0,0,0,0,0,0,0,0,0,0,0,0,0,0,0,0,0,0,0,0,0,0,0,0,0,0,0,0,0,0,0,48,0,0,0,0,0,0,0,0,0,0,0,0,0,0,0,0,0,0,0,0,0,0,0,0,0,0,
0,0,0,0,0,0,0,0,0,48,0,0,0,0,0,0,0,0,0,0,0,0,0,0,0,0,0,0,0,0,0,0,0,0,0,0,0,0,0,0,0,0,0,0,48,48,0,0,0,0,0,0,0,0,0,0,0,0,0,0,0,0,0,0,0,0,0,0,0,0,0,0,
0,0,0,0,0,0,0,0,0,48,48,0,0,0,0,0,0,0,0,0,0,0,0,0,0,0,0,0,0,0,0,0,0,0,0,0,0,0,0,0,0,0,0,0,48,0,0,0,0,0,0,0,0,0,0,0,0,0,0,0,0,0,0,0,0,0,0,0,0,0,0,0,
0,0,0,0,0,0,0,0,0,0,48,0,0,0,0,0,0,0,0,0,0,0,0,0,0,0,0,0,0,0,0,0,0,0,0,0,0,0,0,0,0,0,0,48,48,0,0,0,0,0,0,0,0,0,0,0,0,0,0,0,0,0,0,0,0,0,0,0,0,0,0,0,
0,0,0,0,0,0,0,0,0,0,48,48,0,0,0,0,0,0,0,0,0,0,0,0,0,0,0,0,0,0,0,0,0,0,0,0,0,0,0,0,0,0,0,48,0,0,0,0,0,0,0,0,0,0,0,0,0,0,0,0,0,0,0,0,0,0,0,0,0,0,0,0,
0,0,0,0,0,0,0,0,0,0,0,48,48,48,48,48,48,48,0,0,0,0,0,0,0,0,0,0,0,0,0,0,48,48,48,48,48,0,0,0,0,0,0,48,0,0,0,0,0,0,48,48,48,0,0,0,0,0,0,0,0,0,0,0,0,0,0,0,0,0,0,0,
0,0,0,0,0,0,0,0,0,0,0,0,0,0,0,0,0,48,48,0,0,0,0,0,0,0,0,0,0,48,48,48,48,0,0,0,48,48,0,0,0,0,0,48,0,0,0,48,48,48,48,0,48,48,0,0,0,0,0,0,0,0,0,0,0,0,0,0,0,0,0,0,
0,0,0,0,0,0,0,0,0,0,0,0,0,0,0,0,0,0,48,48,0,0,0,0,48,48,48,48,48,48,0,0,0,0,0,0,0,48,0,0,0,0,0,48,0,48,48,48,0,0,0,0,0,48,48,0,0,0,0,0,0,0,0,0,0,0,0,0,0,0,0,0,
0,0,0,0,0,0,0,0,0,0,0,0,0,0,0,0,0,0,0,48,48,48,48,48,48,0,0,0,0,0,0,0,0,0,0,0,0,48,0,0,0,0,0,48,48,48,0,0,0,0,0,0,0,0,48,0,0,0,0,0,0,0,0,0,0,0,0,0,0,0,0,0,
0,0,0,0,0,0,0,0,0,0,0,0,0,0,0,0,0,0,0,0,0,0,0,0,0,0,0,0,0,0,0,0,0,0,0,0,48,48,0,0,0,0,0,0,0,0,0,0,0,0,0,0,0,0,0,48,48,0,0,0,0,0,0,0,0,0,0,0,0,0,0,0,
0,0,0,0,0,0,0,0,0,0,0,0,0,0,0,0,0,0,0,0,0,0,0,0,0,0,0,0,0,0,0,0,0,0,0,0,48,48,0,0,0,0,0,0,0,0,0,0,0,0,0,0,0,0,0,0,0,48,48,48,48,0,0,0,0,0,0,0,0,0,0,0,
0,0,0,0,0,0,0,0,0,0,0,0,0,0,0,0,0,0,0,0,0,0,0,0,0,0,0,0,0,0,0,0,0,0,0,48,48,0,0,0,0,0,0,0,0,0,0,0,0,0,0,0,0,0,0,0,0,0,0,0,48,48,48,0,0,0,0,0,0,0,0,0,
0,0,0,0,0,0,0,0,0,0,0,0,0,0,0,0,0,0,0,0,0,0,0,0,0,0,0,0,0,0,0,0,0,0,48,48,0,0,0,0,0,0,0,0,0,0,0,0,0,0,0,0,0,0,0,0,0,0,0,0,0,0,48,48,48,0,0,0,0,0,0,0,
0,0,0,0,0,0,0,0,0,0,0,0,0,0,0,0,0,0,0,0,0,0,0,0,0,0,0,0,0,0,0,0,0,48,48,0,0,0,0,0,0,0,0,0,0,0,0,0,0,0,0,0,0,0,0,0,0,0,0,0,0,0,0,0,48,48,48,48,48,48,48,48,
0,0,0,0,0,0,0,0,0,0,0,0,0,0,0,0,0,0,0,0,0,0,0,0,0,0,0,0,0,0,0,0,48,48,0,0,0,0,0,0,0,0,0,0,0,0,0,0,0,0,0,0,0,0,0,0,0,0,0,0,0,0,0,0,0,0,0,0,0,0,0,0,
0,0,0,0,0,0,0,0,0,0,0,0,0,0,0,0,0,0,0,0,0,0,0,0,0,0,0,0,0,0,0,0,48,48,0,0,0,0,0,0,0,0,0,0,0,0,0,0,0,0,0,0,0,0,0,0,0,0,0,0,0,0,0,0,0,0,0,0,0,0,0,0,
0,0,0,0,0,0,0,0,0,0,0,0,0,0,0,0,0,0,0,0,0,0,0,0,0,0,0,0,0,0,0,0,0,48,0,0,0,0,0,0,0,0,0,0,0,0,0,0,0,0,0,0,0,0,0,0,0,0,0,0,0,0,0,0,0,0,0,0,0,0,0,0,
0,0,0,0,0,0,0,0,0,0,0,0,0,0,0,0,0,0,0,0,0,0,0,0,0,0,0,0,0,0,0,0,0,48,48,0,0,0,0,0,0,0,0,0,0,0,0,0,0,0,0,0,0,0,0,0,0,0,0,0,0,0,0,0,0,0,0,0,0,0,0,0,
0,0,0,0,0,0,0,0,0,0,0,0,0,0,0,0,0,0,0,0,0,0,0,0,0,0,0,0,0,0,0,0,0,0,48,48,0,0,0,0,0,0,0,0,0,0,0,0,0,0,0,0,0,0,0,0,0,0,0,0,0,0,0,0,0,0,0,0,0,0,0,0,
0,0,0,0,0,0,0,0,0,0,0,0,0,0,0,0,0,0,0,0,0,0,0,0,0,0,0,0,0,0,0,0,0,0,0,48,0,0,0,0,0,0,0,0,0,0,0,0,0,0,0,0,0,0,0,0,0,0,0,0,0,0,0,0,0,0,0,0,0,0,0,48,
0,0,0,0,0,0,0,0,0,0,0,0,0,0,0,0,0,0,0,0,0,0,0,0,0,0,0,0,0,0,0,0,0,0,0,48,0,0,0,0,0,0,0,0,0,0,0,0,0,0,0,0,0,0,0,0,0,0,0,0,0,0,0,0,0,0,0,48,48,48,48,48,
0,0,0,0,0,0,0,0,0,0,0,0,0,0,0,0,0,0,0,0,0,0,0,0,0,0,0,0,0,0,0,0,0,0,0,48,0,0,0,0,0,0,0,0,0,0,0,0,0,0,0,0,0,0,0,0,0,0,0,0,0,0,48,48,48,48,48,48,0,0,0,0,
0,0,0,0,0,0,0,0,0,0,0,0,0,0,0,0,0,0,0,0,0,0,0,0,0,0,0,0,0,0,0,0,0,0,48,48,0,0,0,0,0,0,0,0,0,0,0,0,0,0,0,0,0,0,0,0,0,0,0,0,0,48,48,0,0,0,0,0,0,0,0,0,
0,0,0,0,0,0,0,0,0,0,0,0,0,0,0,0,0,0,0,0,0,0,0,0,0,0,0,0,0,0,0,0,48,48,48,0,0,0,0,0,0,0,0,0,0,0,0,0,0,0,0,0,0,0,0,0,0,0,0,0,0,48,0,0,0,0,0,0,0,0,0,0,
0,0,0,0,0,0,0,0,0,0,0,0,0,0,0,0,0,0,0,0,0,0,0,0,0,0,0,0,48,48,48,48,48,0,0,0,0,0,0,0,0,0,0,0,0,0,0,0,0,0,0,0,0,0,0,0,0,48,48,48,48,48,0,0,0,0,0,0,0,0,0,0,
0,0,0,0,0,0,0,0,0,0,0,0,0,0,0,0,0,0,0,0,0,0,0,0,48,48,48,48,0,0,0,0,0,0,0,0,0,0,0,0,0,0,0,0,0,0,0,0,0,0,0,0,0,0,0,0,0,48,0,0,0,0,0,0,0,0,0,0,0,0,0,0,
0,0,0,0,0,0,0,0,0,0,0,0,0,0,0,0,0,0,48,48,48,48,48,48,48,0,0,0,0,0,0,0,0,0,0,0,0,0,0,0,0,0,0,0,0,0,0,0,0,0,0,0,0,0,0,0,0,48,0,0,0,0,0,0,0,0,0,0,0,0,0,0,
0,0,0,0,0,0,48,48,48,48,48,48,0,0,48,48,48,48,48,0,0,0,0,0,0,0,0,0,0,0,0,0,0,0,0,0,0,0,0,0,0,0,0,0,0,0,0,0,0,0,0,0,0,0,0,0,0,48,0,0,0,0,0,0,0,0,0,0,0,0,0,0,
0,0,0,0,48,48,48,0,0,0,0,48,48,48,48,0,0,0,0,0,0,0,0,0,0,0,0,0,0,0,0,0,0,0,0,0,0,0,0,0,0,0,0,0,0,0,0,0,0,0,0,0,0,0,0,0,0,48,0,0,0,0,0,0,0,0,0,0,0,0,0,0,
0,0,0,48,48,0,0,0,0,0,0,0,0,48,48,0,0,0,0,0,0,0,0,0,0,0,0,0,0,0,0,0,0,0,0,0,0,0,0,0,0,0,0,0,0,48,48,48,48,48,48,48,48,48,48,48,48,48,0,0,0,0,0,0,0,0,0,0,0,0,0,0,
0,0,48,48,0,0,0,0,0,0,0,0,0,48,0,0,0,0,0,0,0,0,0,0,0,0,48,48,48,48,48,48,48,48,48,48,48,48,0,0,0,0,0,0,48,48,0,0,0,0,0,0,0,0,0,0,0,0,0,0,0,0,0,0,0,0,0,0,0,0,0,0,
0,0,48,0,0,0,0,0,0,0,0,0,0,48,0,0,0,0,0,0,0,0,0,0,48,48,48,0,0,0,0,0,0,0,0,0,0,0,48,0,0,0,48,48,48,0,0,0,0,0,0,0,0,0,0,0,0,0,0,0,0,0,0,0,0,0,0,0,0,0,0,0,
0,0,48,0,0,0,0,0,0,0,0,0,0,48,0,0,0,0,0,0,0,0,0,48,0,0,0,0,0,0,0,0,0,0,0,0,0,0,0,48,48,48,48,0,0,0,0,0,0,0,0,0,0,0,0,0,0,0,0,0,0,0,0,0,0,0,0,0,0,0,0,0,
0,0,48,0,0,0,0,0,0,0,0,0,0,48,0,0,0,0,0,0,0,0,48,48,0,0,0,0,0,0,0,0,0,0,0,0,0,0,0,0,0,0,0,0,0,0,0,0,0,0,0,0,0,0,0,0,0,0,0,0,0,0,0,0,0,0,0,0,0,0,0,0,
0,48,48,0,0,0,0,0,0,0,0,0,48,48,48,0,0,0,0,0,48,48,48,0,0,0,0,0,0,0,0,0,0,0,0,0,0,0,0,0,0,0,0,0,0,0,0,0,0,0,0,0,0,0,0,0,0,0,0,0,0,0,0,0,0,0,0,0,0,0,0,0,
48,48,0,0,0,0,0,0,0,0,48,48,48,48,48,0,0,0,0,0,48,0,0,0,0,0,0,0,0,0,0,0,0,0,0,0,0,0,0,0,0,0,0,0,0,0,0,0,0,0,0,0,0,0,0,0,0,0,0,0,0,0,0,0,0,0,0,0,0,0,0,0,
48,0,0,0,0,0,0,0,0,48,48,48,48,48,48,48,0,0,0,0,48,48,0,0,0,0,0,0,0,0,0,0,0,0,0,0,0,0,0,0,0,0,0,0,0,0,0,0,0,0,0,0,0,0,0,0,0,0,0,0,0,0,0,0,0,0,0,0,0,0,0,0,
48,0,0,0,0,0,0,0,0,48,48,48,48,48,48,48,0,0,0,0,0,48,0,0,0,0,0,0,0,0,0,0,0,0,0,0,0,0,0,0,0,0,0,0,0,0,0,0,0,0,0,0,0,0,0,0,0,0,0,0,0,0,0,0,0,0,0,0,0,0,0,0,
48,0,0,0,0,0,0,0,48,48,48,48,48,48,48,48,48,0,0,0,0,48,48,0,0,0,0,0,0,0,0,0,0,0,0,0,0,0,0,0,0,0,0,0,0,0,0,0,0,0,0,0,0,0,0,0,0,0,0,0,0,0,0,0,0,0,0,0,0,0,0,0,
0,0,0,0,0,0,0,0,48,48,48,48,48,48,48,48,48,48,0,0,0,0,48,0,0,0,0,0,0,0,0,0,0,0,0,0,0,0,0,0,0,0,0,0,0,0,0,0,0,0,0,0,0,0,0,0,0,0,0,0,0,0,0,0,0,0,0,0,0,0,0,0,
0,0,0,0,0,0,0,0,48,48,48,48,48,48,48,48,48,48,0,0,0,0,48,0,0,0,0,0,0,0,0,0,0,0,0,0,0,0,0,0,0,0,0,0,0,0,0,0,0,0,0,0,0,0,0,0,0,0,0,0,0,0,0,0,0,0,0,0,0,0,0,0,
0,0,0,0,0,0,0,0,48,48,48,48,48,48,48,48,48,48,0,0,0,0,48,0,0,0,0,0,0,0,0,0,0,0,0,0,0,0,0,0,0,0,0,0,0,0,0,0,0,0,0,0,0,0,0,0,0,0,0,0,0,0,0,0,0,0,0,0,0,0,0,0,
48,0,0,0,0,0,0,0,48,48,48,48,48,48,48,48,48,48,0,0,0,0,48,0,0,0,0,0,0,0,0,0,0,0,0,0,0,0,0,0,0,0,0,0,0,0,0,0,0,0,0,0,0,0,0,0,0,0,0,0,0,0,0,0,0,0,0,0,0,0,0,0,
48,0,0,0,0,0,0,48,48,48,48,48,48,48,48,48,48,48,0,0,0,0,48,0,0,0,0,0,0,0,0,0,0,0,0,0,0,0,0,0,0,0,0,0,0,0,0,0,0,0,0,0,0,0,0,0,0,0,0,0,0,0,0,0,0,0,0,0,0,0,0,0,
48,0,0,0,0,0,0,48,48,48,48,48,48,48,48,48,48,48,0,0,0,0,48,0,0,0,0,0,0,0,0,0,0,0,0,0,0,0,0,0,0,0,0,0,0,0,0,0,0,0,0,0,0,0,0,0,0,0,0,0,0,0,0,0,0,0,0,0,0,0,0,0,
48,48,0,0,0,0,0,48,48,48,48,48,48,48,48,48,48,48,0,0,0,0,48,0,0,0,0,0,0,0,0,0,0,0,0,0,0,0,0,0,0,0,0,0,0,0,0,0,0,0,0,0,0,0,0,0,0,0,0,0,0,0,0,0,0,0,0,0,0,0,0,0,
0,48,48,0,0,0,0,0,0,48,48,48,48,48,48,48,48,48,0,0,0,0,48,0,0,0,0,0,0,0,0,0,0,0,0,0,0,0,0,0,0,0,0,0,0,0,0,0,0,0,0,0,0,0,0,0,0,0,0,0,0,0,0,0,0,0,0,0,0,0,0,0,
0,0,48,0,0,0,0,0,0,0,0,0,48,48,0,0,0,0,0,0,0,0,48,0,0,0,0,0,0,0,0,0,0,0,0,0,0,0,0,0,0,0,0,0,0,0,0,0,0,0,0,0,0,0,0,0,0,0,0,0,0,0,0,0,0,0,0,0,0,0,0,0,
0,0,48,48,0,0,0,0,0,0,0,0,0,0,0,0,0,0,0,0,0,0,48,0,0,0,0,0,0,0,0,0,0,0,0,0,0,0,0,0,0,0,0,0,0,0,0,0,0,0,0,0,0,0,0,0,0,0,0,0,0,0,0,0,0,0,0,0,0,0,0,0,
0,0,0,48,0,0,0,0,0,0,0,0,0,0,0,0,0,0,0,0,0,48,48,0,0,0,0,0,0,0,0,0,0,0,0,0,0,0,0,0,0,0,0,0,0,0,0,0,0,0,0,0,0,0,0,0,0,0,0,0,0,0,0,0,0,0,0,0,0,0,0,0,
0,0,0,48,0,0,0,0,0,0,0,0,0,0,0,0,0,0,0,0,0,48,0,0,0,0,0,0,0,0,0,0,0,0,0,0,0,0,0,0,0,0,0,0,0,0,0,0,0,0,0,0,0,0,0,0,0,0,0,0,0,0,0,0,0,0,0,0,0,0,0,0,
0,0,0,48,0,0,0,0,0,0,0,0,0,0,0,0,0,0,0,0,0,48,0,0,0,0,0,0,0,0,0,0,0,0,0,0,0,0,0,0,0,0,0,0,0,0,0,0,0,0,0,0,0,0,0,0,0,0,0,0,0,0,0,0,0,0,0,0,0,0,0,0,
0,0,0,48,0,0,0,0,0,0,0,0,0,0,0,0,0,0,48,48,48,48,0,0,0,0,0,0,0,0,0,0,0,0,0,0,0,0,0,0,0,0,0,0,0,0,0,0,0,0,0,0,0,0,0,0,0,0,0,0,0,0,0,0,0,0,0,0,0,0,0,0,
0,0,0,0,48,0,0,0,0,0,0,0,0,0,0,48,48,48,48,0,0,0,0,0,0,0,0,0,0,0,0,0,0,0,0,0,0,0,0,0,0,0,0,0,0,0,0,0,0,0,0,0,0,0,0,0,0,0,0,0,0,0,0,0,0,0,0,0,0,0,0,0,
0,0,0,0,48,0,0,0,0,0,0,0,0,0,48,48,0,0,0,0,0,0,0,0,0,0,0,0,0,0,0,0,0,0,0,0,0,0,0,0,0,0,0,0,0,0,0,0,0,0,0,0,0,0,0,0,0,0,0,0,0,0,0,0,0,0,0,0,0,0,0,0,
0,0,0,0,48,0,0,0,0,0,0,48,48,48,0,0,0,0,0,0,0,0,0,0,0,0,0,0,0,0,0,0,0,0,0,0,0,0,0,0,0,0,0,0,0,0,0,0,0,0,0,0,0,0,0,0,0,0,0,0,0,0,0,0,0,0,0,0,0,0,0,0,
0,0,0,48,48,0,0,0,0,0,0,48,0,0,0,0,0,0,0,0,0,0,0,0,0,0,0,0,0,0,0,0,0,0,0,0,0,0,0,0,0,0,0,0,0,0,0,0,0,0,0,0,0,0,0,0,0,0,0,0,0,0,0,0,0,0,0,0,0,0,0,0,
0,0,0,48,0,0,0,0,0,0,0,48,0,0,0,0,0,0,0,0,0,0,0,0,0,0,0,0,0,0,0,0,0,0,0,0,0,0,0,0,0,0,0,0,0,0,0,0,0,0,0,0,0,0,0,0,0,0,0,0,0,0,0,0,0,0,0,0,0,0,0,0,
0,0,0,48,0,0,0,0,0,0,0,48,0,0,0,0,0,0,0,0,0,0,0,0,0,0,0,0,0,0,0,0,0,0,0,0,0,0,0,0,0,0,0,0,0,0,0,0,0,0,0,0,0,0,0,0,0,0,0,0,0,0,0,0,0,0,0,0,0,0,0,0,
0,0,0,0,48,0,0,0,0,0,0,48,0,0,0,0,0,0,0,0,0,0,0,0,0,0,0,0,0,0,0,0,0,0,0,0,0,0,0,0,0,0,0,0,0,0,0,0,0,0,0,0,0,0,0,0,0,0,0,0,0,0,0,0,0,0,0,0,0,0,0,0,
0,0,0,48,48,0,0,0,0,0,0,48,0,0,0,0,0,0,0,0,0,0,0,0,0,0,0,0,0,0,0,0,0,0,0,0,0,0,0,0,0,0,0,0,0,0,0,0,0,0,0,0,0,0,0,0,0,0,0,0,0,0,0,0,0,0,0,0,0,0,0,0,
0,0,0,48,0,0,0,0,0,0,0,48,0,0,0,0,0,0,0,0,0,0,0,0,0,0,0,0,0,0,0,0,0,0,0,0,0,0,0,0,0,0,0,0,0,0,0,0,0,0,0,0,0,0,0,0,0,0,0,0,0,0,0,0,0,0,0,0,0,0,0,0,
0,0,0,48,0,0,0,0,0,0,0,48,0,0,0,0,0,0,0,0,0,0,0,0,0,0,0,0,0,0,0,0,0,0,0,0,0,0,0,0,0,0,0,0,0,0,0,0,0,0,0,0,0,0,0,0,0,0,0,0,0,0,0,0,0,0,0,0,0,0,0,0
</data>
 </layer>
 <objectgroup color="#0000ff" id="6" name="collision">
  <object id="10" x="801.667" y="-7" width="37.8488" height="166.636"/>
  <object id="11" x="760" y="120" width="40.917" height="399"/>
  <object id="12" x="640" y="638" width="40.917" height="321"/>
  <object id="13" x="680" y="519" width="40.917" height="162"/>
  <object id="14" x="720" y="481" width="40.917" height="81"/>
  <object id="15" x="600" y="961" width="40.917" height="320"/>
  <object id="16" x="640" y="1240" width="40.917" height="240"/>
  <object id="18" x="680" y="1441" width="40.917" height="119"/>
  <object id="19" x="720" y="1521" width="40.917" height="78"/>
  <object id="20" x="760" y="1560" width="40.917" height="159"/>
  <object id="21" x="800" y="1681" width="40.917" height="198"/>
  <object id="22" x="679" y="1840" width="121.917" height="78"/>
  <object id="24" x="400" y="1840" width="237.917" height="78"/>
  <object id="25" x="600" y="1919" width="116.917" height="40"/>
  <object id="26" x="360" y="1920" width="78.917" height="40"/>
  <object id="27" x="360" y="1960" width="37.917" height="159"/>
  <object id="28" x="400" y="2079" width="37.917" height="120"/>
  <object id="29" x="440" y="2158" width="37.917" height="82"/>
  <object id="30" x="480" y="2200" width="239.917" height="42"/>
  <object id="31" x="680" y="2240" width="77.917" height="40"/>
  <object id="32" x="720" y="2280" width="77.917" height="40"/>
  <object id="33" x="760" y="2320" width="239.917" height="40"/>
  <object id="34" x="960" y="2280" width="239.917" height="40"/>
  <object id="35" x="1280" y="2200" width="197.917" height="40"/>
  <object id="36" x="1160" y="2240" width="158.917" height="40"/>
  <object id="37" x="1440" y="2240" width="77.917" height="40"/>
  <object id="38" x="1480" y="2280" width="38.917" height="157"/>
  <object id="39" x="1440" y="2359" width="38.917" height="118"/>
  <object id="40" x="1400" y="2439" width="38.917" height="79"/>
  <object id="41" x="1360" y="2480" width="38.917" height="79"/>
  <object id="42" x="1284" y="2520" width="74.917" height="197"/>
  <object id="43" x="1360" y="2680" width="38.917" height="79"/>
  <object id="44" x="1400" y="2720" width="38.917" height="200"/>
  <object id="45" x="1282" y="2880" width="116.917" height="79"/>
  <object id="46" x="1120" y="2961" width="201.917" height="38"/>
  <object id="47" x="960" y="3000" width="160.917" height="38"/>
  <object id="48" x="720" y="3040" width="279.917" height="38"/>
  <object id="49" x="560" y="3080" width="199.917" height="38"/>
  <object id="50" x="520" y="3120" width="78.917" height="79"/>
  <object id="51" x="520" y="3200" width="39.2503" height="167"/>
  <object id="52" x="1200" y="-5.33333" width="40.917" height="444.333"/>
  <object id="53" x="960.333" y="320" width="40.917" height="200.333"/>
  <object id="54" x="960" y="-10.6667" width="40.917" height="295"/>
  <object id="55" x="920" y="240" width="40.917" height="124.333"/>
  <object id="56" x="959.802" y="520" width="80.6466" height="119.666"/>
  <object id="57" x="1000" y="640" width="38.2503" height="159"/>
  <object id="58" x="1040" y="600.333" width="40.917" height="39.9997"/>
  <object id="63" x="120" y="4520" width="357.917" height="39"/>
  <object id="64" x="0" y="3680" width="38.417" height="160"/>
  <object id="65" x="0" y="3400" width="38.917" height="160"/>
  <object id="66" x="-40" y="3560" width="35.917" height="160"/>
  <object id="67" x="120" y="3921" width="38.917" height="598"/>
  <object id="68" x="160" y="4120" width="35.917" height="160"/>
  <object id="69" x="160" y="4361" width="35.917" height="79"/>
  <object id="70" x="40" y="3800" width="39.417" height="79"/>
  <object id="71" x="80.4546" y="3842" width="38.5077" height="117"/>
  <object id="72" x="80" y="3199" width="38.917" height="201"/>
  <object id="73" x="40" y="3359" width="38.917" height="82"/>
  <object id="74" x="120" y="3160" width="38.917" height="82"/>
  <object id="75" x="160" y="3120" width="38.917" height="82"/>
  <object id="76" x="200" y="3121" width="77.917" height="41"/>
  <object id="77" x="240" y="3080" width="236.417" height="40.5"/>
  <object id="78" x="440" y="3120" width="77.917" height="41"/>
  <object id="79" x="880" y="3521" width="39.2503" height="478"/>
  <object id="80" x="440" y="4198" width="39.2503" height="320"/>
  <object id="81" x="1800" y="3159" width="514.25" height="41"/>
  <object id="82" x="2560" y="2520" width="319.75" height="41"/>
  <object id="83" x="1960" y="1239.33" width="39.2503" height="438.667"/>
  <object id="84" x="1040" y="3200" width="479.75" height="41"/>
  <object id="85" x="320" y="3521" width="358.25" height="317"/>
  <object id="86" x="280" y="3717" width="42.25" height="120"/>
  <object id="87" x="360" y="3840" width="315.25" height="40"/>
  <object id="89" x="680" y="3559" width="39.2503" height="319"/>
  <object id="91" x="480" y="3880" width="76.25" height="40"/>
  <object id="92" x="360" y="3442" width="280.25" height="78"/>
  <object id="93" x="400" y="3400.5" width="201.25" height="41.5"/>
  <object id="94" x="480" y="3360.5" width="120.25" height="40"/>
  <object id="97" x="1120" y="1280" width="320.917" height="240.333"/>
  <object id="98" x="1160" y="1520" width="279.584" height="38.9997"/>
  <object id="99" x="1160" y="1560" width="239.584" height="38.9997"/>
  <object id="100" x="1160" y="1600" width="41.584" height="38.9997"/>
  <object id="101" x="1440" y="1399.5" width="41.584" height="119.5"/>
  <object id="102" x="1160" y="1240.5" width="41.584" height="39"/>
  <object id="103" x="1320" y="1240" width="161.584" height="39"/>
  <object id="104" x="1360" y="1200" width="161.584" height="39"/>
  <object id="105" x="1400" y="1160" width="120.584" height="39"/>
  <object id="106" x="1440" y="1120" width="78.584" height="39"/>
  <object id="107" x="1800" y="720.667" width="39.2503" height="358"/>
  <object id="108" x="1040" y="720" width="39.2503" height="157"/>
  <object id="109" x="1080" y="840" width="39.2503" height="120"/>
  <object id="110" x="840" y="3962.67" width="35.917" height="156.333"/>
  <object id="111" x="720" y="4081.33" width="125.25" height="74.9997"/>
  <object id="112" x="600" y="4120" width="125.25" height="74.9997"/>
  <object id="113" x="480" y="4200" width="113.25" height="39"/>
  <object id="114" x="560" y="4160" width="47.9167" height="39"/>
  <object id="115" x="960" y="3240" width="120.917" height="38"/>
  <object id="116" x="800" y="3360" width="120.917" height="38"/>
  <object id="117" x="880" y="3320" width="75.917" height="38"/>
  <object id="118" x="920" y="3280" width="36.917" height="38"/>
  <object id="119" x="800" y="3400" width="40.5534" height="79"/>
  <object id="120" x="841.091" y="3439" width="38.7352" height="120"/>
  <object id="129" x="1520" y="3240" width="38.5833" height="40.333"/>
  <object id="130" x="1680" y="3240" width="116.583" height="40.333"/>
  <object id="131" x="1760" y="3200" width="79.9163" height="40.333"/>
  <object id="132" x="1562.38" y="3281.17" width="116.583" height="40.333"/>
  <object id="133" x="2280" y="2960" width="200.583" height="200.333"/>
  <object id="134" x="2480" y="2839" width="243.583" height="121.333"/>
  <object id="135" x="2440" y="2879" width="39.583" height="82.333"/>
  <object id="136" x="2680" y="2801" width="218.583" height="41.333"/>
  <object id="137" x="2840" y="2562" width="41.583" height="239.333"/>
  <object id="138" x="2480" y="2480" width="117.583" height="41.333"/>
  <object id="139" x="2400" y="2440" width="117.583" height="41.333"/>
  <object id="140" x="2280" y="2400" width="157.583" height="41.333"/>
  <object id="141" x="2200" y="2360" width="77.583" height="41.333"/>
  <object id="142" x="2000" y="2200" width="117.583" height="41.333"/>
  <object id="143" x="2080" y="2240" width="76.9163" height="41.333"/>
  <object id="144" x="2120" y="2280" width="76.9163" height="41.333"/>
  <object id="145" x="2160" y="2320" width="40.9163" height="41.333"/>
  <object id="146" x="1880" y="2240" width="160.916" height="41.333"/>
  <object id="147" x="1800" y="2280" width="119.583" height="41.333"/>
  <object id="148" x="1720" y="2320" width="119.583" height="41.333"/>
  <object id="149" x="1720" y="2120.67" width="38.9163" height="200.666"/>
  <object id="150" x="1760" y="2042" width="38.9163" height="118.666"/>
  <object id="151" x="1800" y="2001.33" width="38.9163" height="76.6657"/>
  <object id="152" x="1840" y="1840.5" width="38.9163" height="161.166"/>
  <object id="153" x="1880" y="1758.5" width="38.9163" height="122.666"/>
  <object id="154" x="1920" y="1639.5" width="38.9163" height="163.166"/>
  <object id="155" x="1840.72" y="1041.33" width="38.1386" height="196.499"/>
  <object id="156" x="1880" y="1201.33" width="80.8053" height="79.1657"/>
  <object id="157" x="1840" y="798.667" width="277.917" height="39.3333"/>
  <object id="158" x="2080" y="760" width="115.25" height="39.3333"/>
  <object id="159" x="2160" y="720" width="115.25" height="39.3333"/>
  <object id="160" x="2240" y="482.667" width="37.9167" height="236.667"/>
  <object id="161" x="2000" y="480" width="236.583" height="38.667"/>
  <object id="162" x="1840" y="440" width="200.583" height="40.667"/>
  <object id="163" x="1720" y="480" width="117.916" height="38.667"/>
  <object id="164" x="1600" y="520" width="157.916" height="38.667"/>
  <object id="165" x="1320" y="560" width="320.583" height="38.667"/>
  <object id="166" x="1240" y="400" width="39.666" height="118.667"/>
  <object id="167" x="1280" y="481" width="39.3705" height="78.5761"/>
  <object id="168" x="1320" y="520" width="40.0978" height="40.2125"/>
 </objectgroup>
 <objectgroup id="13" name="objects">
  <object id="122" gid="105" x="840" y="120" width="119" height="132.289"/>
  <object id="124" gid="106" x="2680" y="2760" width="107" height="182.328"/>
  <object id="128" gid="148" x="1000.33" y="170.453" width="204.667" height="160.427"/>
 </objectgroup>
 <objectgroup color="#ff007f" id="8" name="objects_party">
  <object id="2" name="npc" x="160" y="3360" width="40" height="40">
   <properties>
    <property name="actor" value="kipkip"/>
    <property name="cutscene" value="chapter1/treasures.evaluateCaveTreasure"/>
   </properties>
  </object>
  <object id="7" name="enemy" x="920" y="2080" width="40" height="40">
   <properties>
    <property name="actor" value="kipkip"/>
    <property name="chase" type="bool" value="true"/>
    <property name="chasedist" type="int" value="300"/>
    <property name="chasespeed" value="17"/>
    <property name="encounter" value="sublevel2Kipkip"/>
    <property name="enemy" value="kipkip"/>
    <property name="once" type="bool" value="true"/>
   </properties>
  </object>
  <object id="8" name="enemy" x="560" y="4000" width="40" height="40">
   <properties>
    <property name="actor" value="fleecebug"/>
    <property name="chase" type="bool" value="true"/>
    <property name="chasedist" type="int" value="300"/>
    <property name="chasespeed" value="17"/>
    <property name="encounter" value="sublevel2Fleecebug"/>
    <property name="enemy" value="fleecebug"/>
    <property name="once" type="bool" value="true"/>
   </properties>
  </object>
  <object id="60" name="interactable" x="850.667" y="6.25" width="101.166" height="102.5">
   <properties>
    <property name="cutscene" value="chapter1/treasures.pickupBrokenHome"/>
    <property name="solid" type="bool" value="true"/>
   </properties>
  </object>
  <object id="61" name="interactable" x="2684.17" y="2578.75" width="98.666" height="178.5">
   <properties>
    <property name="cutscene" value="chapter1/treasures.pickupHolyNectar"/>
    <property name="solid" type="bool" value="true"/>
   </properties>
  </object>
  <object id="96" name="enemy" x="920" y="3160" width="40" height="40">
   <properties>
    <property name="actor" value="fleecebug"/>
    <property name="chase" type="bool" value="true"/>
    <property name="chasedist" type="int" value="300"/>
    <property name="chasespeed" value="17"/>
    <property name="encounter" value="sublevel2Fleecebug"/>
    <property name="enemy" value="fleecebug"/>
    <property name="once" type="bool" value="true"/>
   </properties>
  </object>
  <object id="121" name="enemy" x="2200" y="2800" width="40" height="40">
   <properties>
    <property name="actor" value="kipkip"/>
    <property name="chase" type="bool" value="true"/>
    <property name="chasedist" type="int" value="300"/>
    <property name="chasespeed" value="17"/>
    <property name="encounter" value="sublevel2Kipkip"/>
    <property name="enemy" value="kipkip"/>
    <property name="once" type="bool" value="true"/>
   </properties>
  </object>
  <object id="127" name="interactable" x="1040" y="36" width="122.666" height="78.1667">
   <properties>
    <property name="cutscene" value="chapter1/treasures.cave_continue"/>
    <property name="solid" type="bool" value="true"/>
   </properties>
  </object>
  <object id="169" name="enemy" x="1640" y="1720" width="40" height="40">
   <properties>
    <property name="actor" value="fleecebug"/>
    <property name="chase" type="bool" value="true"/>
    <property name="chasedist" type="int" value="300"/>
    <property name="chasespeed" value="17"/>
    <property name="encounter" value="sublevel2Fleecebug"/>
    <property name="enemy" value="fleecebug"/>
    <property name="once" type="bool" value="true"/>
   </properties>
  </object>
  <object id="170" name="enemy" x="1960" y="600" width="40" height="40">
   <properties>
    <property name="actor" value="fleecebug"/>
    <property name="chase" type="bool" value="true"/>
    <property name="chasedist" type="int" value="300"/>
    <property name="chasespeed" value="17"/>
    <property name="encounter" value="sublevel2Fleecebug"/>
    <property name="enemy" value="fleecebug"/>
    <property name="once" type="bool" value="true"/>
   </properties>
  </object>
  <object id="172" name="interactable" x="1029.5" y="15.6667" width="143.333" height="140.083">
   <properties>
    <property name="cutscene" value="chapter1/treasures.cant_proceed_cave"/>
    <property name="solid" type="bool" value="true"/>
   </properties>
  </object>
 </objectgroup>
 <objectgroup color="#aa00ff" id="7" name="markers">
  <object id="1" name="spawn" x="360" y="3320">
   <point/>
  </object>
 </objectgroup>
 <objectgroup color="#ffff00" id="14" name="controllers">
  <object id="125" name="toggle" x="666" y="75.3333">
   <properties>
    <property name="flag" value="pickedUpBrokenHome"/>
    <property name="inverted" type="bool" value="true"/>
    <property name="target1" type="object" value="60"/>
    <property name="target2" type="object" value="122"/>
   </properties>
   <point/>
  </object>
  <object id="126" name="toggle" x="2766" y="2496">
   <properties>
    <property name="flag" value="pickedUpHolyNectar"/>
    <property name="inverted" type="bool" value="true"/>
    <property name="target1" type="object" value="61"/>
    <property name="target2" type="object" value="124"/>
   </properties>
   <point/>
  </object>
 </objectgroup>
</map>
