<?xml version="1.0" encoding="UTF-8"?>
<map version="1.11" tiledversion="1.12.2" orientation="orthogonal" renderorder="right-down" width="51" height="72" tilewidth="40" tileheight="40" infinite="0" nextlayerid="7" nextobjectid="116">
 <editorsettings>
  <export target="flowerden5.lua" format="lua"/>
 </editorsettings>
 <properties>
  <property name="name" value="Flower Den - Sublevel 5"/>
 </properties>
 <tileset firstgid="1" source="../../../tilesets/garden.tsx"/>
 <tileset firstgid="101" source="../../../tilesets/garden_extras.tsx"/>
 <tileset firstgid="149" source="../../../tilesets/treasures.tsx"/>
 <layer id="1" name="Camada de Blocos 1" width="51" height="72">
  <data encoding="csv">
3,3,3,3,3,3,3,3,3,3,3,3,3,3,3,3,3,3,3,3,3,3,3,3,3,3,3,3,3,3,3,3,3,3,3,3,3,3,3,3,3,3,3,3,3,3,3,3,3,3,3,
3,3,3,3,3,3,3,3,3,3,3,3,3,3,3,3,3,3,3,3,3,3,3,3,3,3,3,3,3,3,3,3,3,3,3,3,3,48,48,48,48,3,3,3,3,3,3,3,3,3,3,
3,3,3,3,3,3,3,3,3,3,3,3,3,3,3,3,3,3,3,3,3,3,3,3,3,3,3,3,3,3,3,3,3,3,3,3,48,23,23,23,23,48,3,3,3,3,3,3,3,3,3,
3,3,3,3,3,3,3,3,3,3,3,3,3,3,3,3,3,3,3,3,3,3,3,3,3,3,3,3,3,3,3,3,3,3,3,48,18,23,23,23,23,18,48,3,3,3,3,3,3,3,3,
3,3,3,3,3,3,3,3,3,3,3,3,3,3,3,3,3,3,3,3,3,3,3,3,3,3,3,3,3,3,3,3,3,3,3,48,23,23,23,18,23,23,48,3,3,3,3,3,3,3,3,
3,3,3,3,3,3,3,3,3,3,3,3,3,3,3,3,3,3,3,3,3,3,3,3,3,3,3,3,3,3,3,3,3,3,3,48,23,18,23,23,23,23,48,3,3,3,3,3,3,3,3,
3,3,3,3,3,3,3,3,3,3,3,3,3,3,3,3,3,3,3,3,3,3,3,3,3,3,3,3,3,3,3,3,3,3,3,48,23,23,23,23,23,23,48,3,3,3,3,3,3,3,3,
3,3,3,3,3,3,3,3,3,3,3,3,3,3,3,3,3,3,3,3,3,3,3,3,3,3,3,3,3,3,3,3,3,3,3,48,18,23,23,23,23,48,3,3,3,3,3,3,3,3,3,
3,3,3,3,3,3,3,3,3,3,3,3,3,3,3,3,3,3,3,3,3,3,3,3,3,3,3,3,3,3,3,3,3,3,48,18,23,48,48,48,48,3,3,3,3,3,3,3,3,3,3,
3,3,3,3,3,3,3,3,3,3,3,3,3,3,3,3,3,3,3,3,3,3,3,3,3,3,3,3,3,3,3,48,3,48,18,18,48,3,3,3,3,3,3,3,3,3,3,3,3,3,3,
3,3,3,3,3,3,3,3,3,3,3,3,3,3,3,3,3,3,3,3,3,3,3,3,3,3,3,3,3,3,48,18,48,18,18,48,3,3,3,3,3,3,3,3,3,3,3,3,3,3,3,
3,3,3,3,3,3,3,3,3,3,3,3,3,3,3,3,3,3,3,3,3,3,3,3,3,3,3,3,3,48,23,23,23,18,48,3,3,3,3,3,3,3,3,3,3,3,3,3,3,3,3,
3,3,3,3,3,3,3,3,3,3,3,3,3,3,3,3,3,3,3,3,3,3,3,3,3,3,3,3,48,18,23,23,18,18,23,48,3,3,3,3,3,3,3,3,3,3,3,3,3,3,3,
3,3,3,3,3,3,3,3,3,3,3,3,3,3,3,3,3,3,3,3,3,3,3,3,3,3,3,48,23,23,23,23,18,23,48,3,3,3,3,3,3,3,3,3,3,3,3,3,3,3,3,
3,3,3,3,3,3,3,3,3,3,3,3,3,3,3,3,3,3,3,3,3,3,3,3,3,3,48,23,18,18,18,18,23,48,3,3,3,3,3,3,3,3,3,3,3,3,3,3,3,3,3,
3,3,3,3,3,3,3,3,3,3,3,3,3,3,3,3,3,3,3,3,3,3,3,3,3,48,18,23,23,18,18,23,48,3,3,3,3,3,3,3,3,3,3,3,3,3,3,3,3,3,3,
3,3,3,3,3,3,3,3,3,3,3,3,3,3,3,3,3,3,3,3,3,3,3,3,48,18,18,23,23,23,18,48,3,3,3,3,3,3,3,3,3,3,3,3,3,3,3,3,3,3,3,
3,3,3,3,3,3,3,3,3,3,3,3,3,3,3,3,3,3,3,3,3,3,3,48,18,18,18,23,18,18,48,3,3,3,3,3,3,3,3,3,3,3,3,3,3,3,3,3,3,3,3,
3,3,3,3,3,3,3,3,3,3,3,3,3,3,3,3,3,3,3,3,3,3,48,18,23,23,18,23,18,48,3,3,3,3,3,3,3,3,3,3,3,3,3,3,3,3,3,3,3,3,3,
3,3,3,3,3,3,3,3,3,3,3,3,3,3,3,3,3,3,3,3,3,48,18,23,18,18,18,18,23,18,48,3,3,3,3,3,3,3,3,3,3,3,3,3,3,3,3,3,3,3,3,
3,3,3,3,3,3,3,3,3,3,3,3,3,3,3,3,3,3,3,3,48,18,23,18,23,18,23,23,23,18,23,48,3,3,3,3,3,3,3,3,3,3,3,3,3,3,3,3,3,3,3,
3,3,3,3,3,3,3,3,3,3,3,3,3,3,3,3,3,3,3,48,18,23,23,18,18,23,23,18,18,18,18,18,48,3,3,3,3,3,3,3,3,3,3,3,3,3,3,3,3,3,3,
3,3,3,3,3,3,3,3,3,3,3,3,3,3,3,3,3,3,48,23,18,18,23,23,18,18,23,18,18,18,23,18,23,48,3,3,3,3,3,3,3,3,3,3,3,3,3,3,3,3,3,
3,3,3,3,3,3,3,3,3,3,3,3,3,3,3,3,3,48,23,23,23,18,18,18,23,18,18,18,18,18,18,23,18,23,48,3,3,3,3,3,3,3,3,3,3,3,3,3,3,3,3,
3,3,3,3,3,3,3,3,3,3,3,3,3,3,3,3,48,18,18,23,18,23,18,18,18,18,23,18,18,18,23,23,18,23,18,48,3,3,3,3,3,3,3,3,3,3,3,3,3,3,3,
3,3,3,3,3,3,3,3,3,3,3,3,3,3,3,48,18,18,18,23,23,23,18,18,18,18,18,18,18,18,23,18,18,18,23,23,48,3,3,3,3,3,3,3,3,3,3,3,3,3,3,
3,3,3,3,3,3,3,3,3,3,3,3,3,3,3,3,48,23,18,23,23,23,23,18,18,18,18,18,18,18,18,18,23,18,23,23,23,48,3,3,3,3,3,3,3,3,3,3,3,3,3,
3,3,3,3,3,3,3,3,3,3,3,3,3,3,3,3,3,48,18,23,18,23,23,23,23,18,18,18,18,23,18,18,18,23,23,23,23,18,48,3,3,3,3,3,3,3,3,3,3,3,3,
3,3,3,3,3,3,3,3,3,3,3,3,3,3,3,3,3,3,48,23,18,23,18,18,23,18,23,23,18,18,18,18,18,23,18,23,23,23,23,48,3,3,3,3,3,3,3,3,3,3,3,
3,3,3,3,3,3,3,3,3,3,3,3,3,3,3,3,3,3,3,48,18,23,18,23,23,23,23,23,23,23,18,23,23,23,23,23,23,23,48,3,3,3,3,3,3,3,3,3,3,3,3,
3,3,3,3,3,3,3,3,3,3,3,3,3,3,3,3,3,3,3,3,48,23,18,23,18,18,23,18,18,18,23,23,23,23,23,18,18,48,3,3,3,3,3,3,3,3,3,3,3,3,3,
3,3,3,48,48,48,48,48,48,48,48,48,48,48,48,48,48,48,48,48,48,18,18,23,23,23,18,23,23,18,23,23,23,23,23,23,48,3,3,3,3,3,3,3,3,3,3,3,3,3,3,
3,3,3,48,18,23,23,18,23,18,23,23,18,18,18,18,23,18,18,18,23,23,18,23,18,23,18,23,23,23,23,23,23,18,18,48,3,3,3,3,3,3,3,3,3,3,3,3,3,3,3,
3,3,3,48,18,18,18,18,23,18,18,18,23,18,18,18,23,23,18,23,23,18,18,23,18,23,23,23,18,18,23,18,23,23,48,3,3,3,3,3,3,3,3,3,3,3,3,3,3,3,3,
3,3,3,48,23,18,18,23,23,23,23,18,18,18,18,23,23,18,23,18,23,23,23,18,18,23,18,23,18,18,18,23,23,48,3,3,3,3,3,3,3,3,3,3,3,3,3,3,3,3,3,
3,3,3,48,23,18,18,23,23,18,18,48,48,48,48,48,48,48,48,48,48,48,48,48,48,48,48,48,48,23,23,18,48,3,3,3,3,3,3,3,3,3,3,3,3,3,3,3,3,3,3,
3,3,3,48,23,23,23,23,23,18,18,48,3,3,3,3,3,3,3,3,3,3,3,3,3,3,3,3,48,18,18,18,48,3,3,3,3,3,3,3,3,3,3,3,3,3,3,3,3,3,3,
3,3,3,48,23,23,23,23,23,23,23,48,3,3,3,3,3,3,3,3,3,3,3,3,3,3,3,3,48,18,18,23,48,3,3,3,3,3,3,3,3,3,3,3,3,3,3,3,3,3,3,
3,3,3,48,23,23,23,23,23,23,18,48,3,3,3,3,3,3,3,3,3,3,3,3,3,3,3,3,48,18,23,23,48,3,3,3,3,3,3,3,3,3,3,3,3,3,3,3,3,3,3,
3,3,3,48,48,48,48,48,48,48,48,48,3,3,3,3,3,3,3,3,3,3,3,3,3,3,3,3,48,18,18,23,48,3,3,3,3,3,3,3,3,3,3,3,3,3,3,3,3,3,3,
3,3,3,3,3,3,3,3,3,3,3,3,3,3,3,3,3,3,3,3,3,3,3,3,3,3,3,3,48,23,18,23,48,3,3,3,3,3,3,3,3,3,3,3,3,3,3,3,3,3,3,
3,3,3,3,3,3,3,3,3,3,3,3,3,3,3,3,3,3,3,3,3,3,3,3,3,3,48,48,48,23,23,18,48,48,48,3,3,3,3,3,3,3,3,3,3,3,3,3,3,3,3,
3,3,3,3,3,3,3,3,3,3,3,3,3,3,3,3,3,3,3,3,3,3,3,48,48,48,48,18,18,18,18,23,23,23,48,48,48,48,3,3,3,3,3,3,3,3,3,3,3,3,3,
3,3,3,3,3,3,3,3,3,3,3,3,3,3,3,3,3,3,3,3,3,3,48,48,18,18,18,23,23,23,18,18,23,18,23,18,23,48,48,3,3,3,3,3,3,3,3,3,3,3,3,
3,3,3,3,3,3,3,3,3,3,3,3,3,3,3,3,3,3,3,3,48,48,48,18,23,23,23,23,23,18,23,18,23,18,18,18,18,23,48,48,48,3,3,3,3,3,3,3,3,3,3,
3,3,3,3,3,3,3,3,3,3,3,3,3,3,3,3,3,3,3,48,48,18,18,23,23,23,23,18,18,23,18,18,18,18,23,23,18,18,23,18,48,48,3,3,3,3,3,3,3,3,3,
3,3,3,3,3,3,3,3,3,3,3,3,3,3,3,3,3,3,48,48,18,18,23,23,23,23,23,18,23,18,18,23,23,18,23,23,18,23,23,23,23,48,48,3,3,3,3,3,3,3,3,
3,3,3,3,3,3,3,3,3,3,3,3,3,3,3,3,3,3,48,23,23,23,18,23,23,18,18,23,18,18,18,18,18,18,18,18,23,23,18,18,23,23,48,3,3,3,3,3,3,3,3,
3,3,3,3,3,3,3,3,3,3,3,3,3,3,3,3,3,48,48,23,23,18,23,23,23,18,23,23,18,18,18,18,18,18,18,23,23,23,23,23,23,23,48,48,3,3,3,3,3,3,3,
3,3,3,3,3,3,3,3,3,3,3,3,3,3,3,3,48,48,18,23,23,23,18,18,23,18,23,18,18,18,18,18,23,18,18,18,23,18,23,23,23,23,23,48,48,3,3,3,3,3,3,
3,3,3,3,3,3,3,3,3,3,3,3,3,3,3,3,48,18,23,23,23,18,23,18,18,18,18,18,18,23,18,18,18,18,18,18,18,18,18,23,23,23,23,18,48,3,3,3,3,3,3,
3,3,3,3,3,3,3,3,3,3,3,3,3,3,3,3,48,23,18,23,23,18,18,18,18,18,18,18,18,18,18,18,18,18,18,18,18,18,18,23,23,23,23,18,48,3,3,3,3,3,3,
3,3,3,3,3,3,3,3,3,3,3,3,3,3,3,48,48,18,23,23,18,23,18,18,18,18,23,18,18,18,18,18,18,18,18,18,18,18,23,23,23,23,23,23,48,48,3,3,3,3,3,
3,3,3,3,3,3,3,3,3,3,3,3,3,3,3,48,18,23,23,23,23,23,18,18,18,18,18,18,18,18,18,18,18,18,18,18,23,18,18,23,18,18,23,18,18,48,3,3,3,3,3,
3,3,3,3,3,3,3,3,3,3,3,3,3,3,3,48,23,23,23,18,23,18,18,23,18,18,18,18,18,18,18,18,18,18,18,18,23,18,18,18,23,18,23,18,23,48,3,3,3,3,3,
3,3,3,3,3,3,3,3,3,3,3,3,3,3,3,48,23,23,23,18,18,18,18,18,23,18,18,18,18,18,18,18,18,18,18,18,18,18,18,23,23,18,23,23,23,48,3,3,3,3,3,
3,3,3,3,3,3,3,3,3,3,3,3,3,3,3,48,18,18,23,18,23,23,18,23,18,18,18,18,18,18,18,18,18,18,18,18,23,18,18,18,23,23,23,18,18,48,3,3,3,3,3,
3,3,3,3,3,3,3,3,3,3,3,3,3,3,3,48,23,18,23,23,18,23,18,18,18,18,18,18,18,18,18,18,18,18,23,18,23,18,18,18,23,23,18,23,23,48,3,3,3,3,3,
3,3,3,3,3,3,3,3,3,3,3,3,3,3,3,48,23,18,23,23,23,23,18,18,18,18,18,18,18,18,23,18,18,18,18,18,18,23,18,18,18,23,23,18,23,48,3,3,3,3,3,
3,3,3,3,3,3,3,3,3,3,3,3,3,3,3,48,18,18,23,23,23,18,18,18,18,18,18,18,18,23,18,18,18,18,18,18,23,18,23,23,23,23,23,23,23,48,3,3,3,3,3,
3,3,3,3,3,3,3,3,3,3,3,3,3,3,3,48,48,23,18,23,23,18,18,18,18,23,18,18,18,18,18,18,18,18,23,18,23,18,18,18,23,23,23,23,48,48,3,3,3,3,3,
3,3,3,3,3,3,3,3,3,3,3,3,3,3,3,3,48,23,23,23,23,23,23,18,18,18,23,18,18,18,18,18,18,18,23,18,18,18,23,23,23,18,23,23,48,3,3,3,3,3,3,
3,3,3,3,3,3,3,3,3,3,3,3,3,3,3,3,48,23,23,23,23,18,18,18,18,18,23,18,18,18,18,23,18,18,18,18,18,23,23,23,23,23,23,18,48,3,3,3,3,3,3,
3,3,3,3,3,3,3,3,3,3,3,3,3,3,3,3,48,48,18,23,23,23,23,18,23,18,18,18,23,23,18,18,18,18,18,23,18,23,18,23,23,23,23,48,48,3,3,3,3,3,3,
3,3,3,3,3,3,3,3,3,3,3,3,3,3,3,3,3,48,48,23,23,23,23,23,23,18,18,18,18,18,18,18,18,23,23,23,23,23,23,23,23,18,48,48,3,3,3,3,3,3,3,
3,3,3,3,3,3,3,3,3,3,3,3,3,3,3,3,3,3,48,18,18,23,23,23,23,23,23,18,23,23,18,18,18,23,18,23,23,18,23,23,23,18,48,3,3,3,3,3,3,3,3,
3,3,3,3,3,3,3,3,3,3,3,3,3,3,3,3,3,3,48,48,18,23,23,23,18,23,18,23,18,23,18,23,23,18,18,23,18,23,23,18,18,48,48,3,3,3,3,3,3,3,3,
3,3,3,3,3,3,3,3,3,3,3,3,3,3,3,3,3,3,3,48,48,23,23,23,23,18,23,23,23,23,23,23,23,23,23,23,23,23,18,18,48,48,3,3,3,3,3,3,3,3,3,
3,3,3,3,3,3,3,3,3,3,3,3,3,3,3,3,3,3,3,3,48,48,48,18,23,23,23,23,23,23,23,18,18,18,23,23,18,18,48,48,48,3,3,3,3,3,3,3,3,3,3,
3,3,3,3,3,3,3,3,3,3,3,3,3,3,3,3,3,3,3,3,3,3,48,48,23,23,23,23,23,23,23,23,23,23,23,23,23,48,48,3,3,3,3,3,3,3,3,3,3,3,3,
3,3,3,3,3,3,3,3,3,3,3,3,3,3,3,3,3,3,3,3,3,3,3,48,48,48,48,23,18,23,23,23,23,18,48,48,48,48,3,3,3,3,3,3,3,3,3,3,3,3,3,
3,3,3,3,3,3,3,3,3,3,3,3,3,3,3,3,3,3,3,3,3,3,3,3,3,3,48,48,48,48,48,48,48,48,48,3,3,3,3,3,3,3,3,3,3,3,3,3,3,3,3
</data>
 </layer>
 <objectgroup id="4" name="objects">
  <object id="8" gid="143" x="1480" y="244" width="123" height="113"/>
  <object id="13" gid="158" x="1150.67" y="2381.33" width="165.667" height="157.837"/>
 </objectgroup>
 <objectgroup color="#ff007f" id="2" name="objects_party">
  <object id="1" name="npc" x="200" y="1480" width="40" height="40">
   <properties>
    <property name="actor" value="kipkip"/>
    <property name="cutscene" value="chapter1/treasures.evaluateCaveTreasure"/>
   </properties>
  </object>
  <object id="4" name="interactable" x="1480" y="160" width="122.666" height="78.1667">
   <properties>
    <property name="cutscene" value="chapter1/treasures.cave_escape"/>
    <property name="solid" type="bool" value="true"/>
   </properties>
  </object>
  <object id="5" name="interactable" x="1462.58" y="136.542" width="161.166" height="139.417">
   <properties>
    <property name="cutscene" value="chapter1/treasures.cant_proceed_cave"/>
    <property name="solid" type="bool" value="true"/>
   </properties>
  </object>
  <object id="6" name="script" x="854.667" y="1834.67" width="752.333" height="262.833">
   <properties>
    <property name="cutscene" value="chapter1/caveEnemyDrops.sublevel5Boss"/>
   </properties>
  </object>
  <object id="7" name="enemy" x="0" y="2840" width="40" height="40">
   <properties>
    <property name="actor" value="flowerylonglegs"/>
    <property name="chase" type="bool" value="true"/>
    <property name="chasedist" type="int" value="500"/>
    <property name="chasespeed" type="int" value="20"/>
    <property name="chasing" type="bool" value="false"/>
    <property name="encounter" value="flowerylonglegs"/>
    <property name="enemy" value="flowerylonglegs"/>
    <property name="once" type="bool" value="true"/>
   </properties>
  </object>
  <object id="12" name="interactable" x="1149.33" y="2222.67" width="166.332" height="156.666">
   <properties>
    <property name="cutscene" value="chapter1/treasures.pickupTheKey"/>
    <property name="solid" type="bool" value="true"/>
   </properties>
  </object>
 </objectgroup>
 <objectgroup color="#0000ff" id="6" name="collision">
  <object id="14" x="0" y="0" width="639.568" height="1278.92"/>
  <object id="15" x="0" y="1280" width="159.568" height="1278.92"/>
  <object id="16" x="160" y="1560" width="479.841" height="918.284"/>
  <object id="17" x="443" y="1400" width="715.174" height="172.284"/>
  <object id="18" x="1280" y="1400" width="712.841" height="280.284"/>
  <object id="19" x="1360" y="1680" width="712.841" height="39.284"/>
  <object id="20" x="1480" y="1720" width="712.841" height="39.284"/>
  <object id="21" x="1520" y="1760" width="148.841" height="39.284"/>
  <object id="22" x="1640" y="1840" width="148.841" height="39.284"/>
  <object id="23" x="1600.58" y="1799.36" width="148.841" height="39.284"/>
  <object id="24" x="1680" y="1880" width="148.841" height="39.284"/>
  <object id="25" x="1720" y="1960" width="148.841" height="39.284"/>
  <object id="26" x="1680" y="1920" width="148.841" height="39.284"/>
  <object id="27" x="1760" y="2000" width="148.841" height="39.284"/>
  <object id="28" x="1760" y="2040" width="148.841" height="39.284"/>
  <object id="29" x="1760" y="2080" width="148.841" height="39.284"/>
  <object id="30" x="1800" y="2120" width="43.841" height="320.284"/>
  <object id="31" x="1760" y="2399" width="41.841" height="160.284"/>
  <object id="32" x="1720" y="2520" width="41.841" height="81.284"/>
  <object id="33" x="1680" y="2559" width="41.841" height="122.284"/>
  <object id="34" x="1640" y="2640" width="41.841" height="81.284"/>
  <object id="35" x="1600" y="2680" width="41.841" height="81.284"/>
  <object id="36" x="1520" y="2720" width="79.841" height="81.284"/>
  <object id="37" x="1480" y="2760" width="41.841" height="81.284"/>
  <object id="38" x="1360" y="2800" width="120.841" height="81.284"/>
  <object id="39" x="1040" y="2840" width="321.841" height="81.284"/>
  <object id="40" x="920" y="2800" width="120.841" height="81.284"/>
  <object id="41" x="1040" y="2800" width="41.841" height="81.284"/>
  <object id="42" x="640" y="2401" width="41.841" height="160.284"/>
  <object id="43" x="680" y="2520" width="41.841" height="79.284"/>
  <object id="44" x="720" y="2559" width="41.841" height="120.284"/>
  <object id="45" x="760" y="2640" width="41.841" height="79.284"/>
  <object id="46" x="800" y="2680" width="41.841" height="79.284"/>
  <object id="47" x="840" y="2720" width="75.841" height="79.284"/>
  <object id="48" x="920" y="2762" width="37.841" height="37.284"/>
  <object id="49" x="527.58" y="1957.69" width="150.174" height="160.617"/>
  <object id="50" x="680" y="1919.33" width="40.8407" height="81.2837"/>
  <object id="51" x="720" y="1839.33" width="40.8407" height="121.95"/>
  <object id="52" x="760" y="1800" width="40.8407" height="81.95"/>
  <object id="53" x="800" y="1760" width="40.8407" height="81.95"/>
  <object id="54" x="840" y="1720" width="78.8407" height="80.2833"/>
  <object id="55" x="920" y="1680" width="39.174" height="80.2833"/>
  <object id="56" x="960" y="1640" width="120.174" height="80.2833"/>
  <object id="57" x="1080" y="1569.67" width="78.174" height="110.617"/>
  <object id="58" x="640" y="1201" width="198.341" height="79.2833"/>
  <object id="59" x="760" y="1160.5" width="38.841" height="38.7833"/>
  <object id="60" x="720" y="1120" width="38.841" height="38.7833"/>
  <object id="61" x="680" y="1080" width="38.841" height="38.7833"/>
  <object id="62" x="640" y="1040" width="38.841" height="38.7833"/>
  <object id="63" x="640" y="960" width="38.841" height="38.7833"/>
  <object id="64" x="680" y="920" width="38.841" height="38.7833"/>
  <object id="65" x="720" y="880" width="38.841" height="38.7833"/>
  <object id="66" x="760" y="840" width="38.841" height="38.7833"/>
  <object id="67" x="840" y="760" width="38.841" height="38.7833"/>
  <object id="68" x="800" y="800" width="38.841" height="38.7833"/>
  <object id="69" x="880" y="720" width="38.841" height="38.7833"/>
  <object id="70" x="920" y="680" width="38.841" height="38.7833"/>
  <object id="71" x="960" y="640" width="38.841" height="38.7833"/>
  <object id="72" x="1000" y="600" width="38.841" height="38.7833"/>
  <object id="73" x="1040" y="560" width="38.841" height="38.7833"/>
  <object id="74" x="1080" y="520" width="38.841" height="38.7833"/>
  <object id="75" x="1120" y="480" width="38.841" height="38.7833"/>
  <object id="76" x="1160" y="440" width="38.841" height="38.7833"/>
  <object id="77" x="1200" y="400" width="38.841" height="38.7833"/>
  <object id="78" x="1240" y="360" width="38.841" height="38.7833"/>
  <object id="79" x="1280" y="400" width="38.841" height="38.7833"/>
  <object id="80" x="1320" y="360" width="38.841" height="38.7833"/>
  <object id="81" x="1360" y="320" width="38.841" height="38.7833"/>
  <object id="82" x="1440" y="360" width="38.841" height="38.7833"/>
  <object id="83" x="1400" y="400" width="38.841" height="38.7833"/>
  <object id="84" x="1360" y="440" width="38.841" height="38.7833"/>
  <object id="85" x="1400" y="480" width="38.841" height="38.7833"/>
  <object id="86" x="1360" y="520" width="38.841" height="38.7833"/>
  <object id="87" x="1320" y="560" width="38.841" height="38.7833"/>
  <object id="88" x="1280" y="600" width="38.841" height="38.7833"/>
  <object id="89" x="1240" y="640" width="38.841" height="38.7833"/>
  <object id="90" x="1200" y="680" width="38.841" height="38.7833"/>
  <object id="91" x="1160" y="720" width="38.841" height="38.7833"/>
  <object id="92" x="1200" y="760" width="38.841" height="38.7833"/>
  <object id="93" x="1240" y="800" width="38.841" height="38.7833"/>
  <object id="94" x="1280" y="840" width="38.841" height="38.7833"/>
  <object id="95" x="1320" y="880" width="38.841" height="38.7833"/>
  <object id="96" x="1360" y="920" width="38.841" height="38.7833"/>
  <object id="97" x="1400" y="960" width="38.841" height="38.7833"/>
  <object id="98" x="1440" y="1000" width="38.841" height="38.7833"/>
  <object id="99" x="1480" y="1040" width="38.841" height="38.7833"/>
  <object id="100" x="1520" y="1080" width="38.841" height="38.7833"/>
  <object id="101" x="1560" y="1120" width="38.841" height="38.7833"/>
  <object id="102" x="1520" y="1160" width="38.841" height="38.7833"/>
  <object id="103" x="1480" y="1200" width="38.841" height="38.7833"/>
  <object id="104" x="1440" y="1240" width="38.841" height="38.7833"/>
  <object id="105" x="1400" y="1280" width="38.841" height="38.7833"/>
  <object id="106" x="1360" y="1320" width="38.841" height="38.7833"/>
  <object id="107" x="1320" y="1360" width="38.841" height="38.7833"/>
  <object id="108" x="1480" y="320" width="159.341" height="38.7833"/>
  <object id="109" x="1480" y="40" width="159.341" height="38.7833"/>
  <object id="110" x="1440" y="80" width="38.841" height="38.7833"/>
  <object id="111" x="1640" y="80" width="38.841" height="38.7833"/>
  <object id="112" x="1640" y="280" width="38.841" height="38.7833"/>
  <object id="113" x="1400" y="120" width="40.841" height="198.783"/>
  <object id="114" x="1680" y="120" width="40.841" height="158.783"/>
 </objectgroup>
 <objectgroup color="#aa00ff" id="3" name="markers">
  <object id="2" name="spawn" x="280" y="1400">
   <point/>
  </object>
 </objectgroup>
 <objectgroup color="#ffff00" id="5" name="controllers">
  <object id="10" name="toggle" x="720" y="1755.94">
   <properties>
    <property name="flag" value="pickedUpTheKey"/>
    <property name="inverted" type="bool" value="true"/>
    <property name="target1" type="object" value="12"/>
    <property name="target2" type="object" value="13"/>
   </properties>
   <point/>
  </object>
  <object id="115" name="toggle" x="800" y="1680">
   <properties>
    <property name="flag" value="pickedUpTheKey"/>
    <property name="inverted" type="bool" value="false"/>
    <property name="target1" type="object" value="6"/>
   </properties>
   <point/>
  </object>
 </objectgroup>
</map>
