<?xml version="1.0" encoding="UTF-8"?>
<map version="1.11" tiledversion="1.12.2" orientation="orthogonal" renderorder="right-down" width="15" height="20" tilewidth="40" tileheight="40" infinite="0" nextlayerid="11" nextobjectid="48">
 <editorsettings>
  <export target="garden1.lua" format="lua"/>
 </editorsettings>
 <properties>
  <property name="music" value="the entrance"/>
 </properties>
 <tileset firstgid="1" source="../../../tilesets/farm_world.tsx"/>
 <tileset firstgid="101" source="../../../tilesets/garden.tsx"/>
 <tileset firstgid="201" source="../../../tilesets/farm_world_extras.tsx"/>
 <tileset firstgid="226" source="../../../tilesets/garden_extras.tsx"/>
 <layer id="1" name="Camada de Blocos 1" width="15" height="20">
  <data encoding="csv">
111,103,114,103,111,113,112,101,111,101,114,112,112,102,112,
114,103,114,101,112,104,113,111,114,102,102,111,114,104,104,
101,114,114,103,113,102,101,101,101,101,113,111,104,114,102,
113,112,111,101,101,111,103,103,104,112,102,114,102,114,101,
103,103,113,112,111,101,101,112,101,112,112,111,112,103,111,
101,111,104,101,104,111,103,112,112,102,112,103,114,104,114,
112,103,103,102,104,111,114,114,101,102,102,101,111,103,112,
105,105,105,105,105,105,105,105,105,105,105,105,105,105,105,
105,105,105,105,105,105,105,106,105,105,105,105,105,105,105,
105,105,106,105,105,105,105,105,105,105,105,105,105,105,105,
105,105,105,105,105,105,105,105,105,105,105,105,105,105,105,
105,105,105,105,105,105,105,105,105,105,105,105,105,105,105,
105,105,105,105,106,105,105,105,105,106,105,105,105,105,105,
105,105,105,105,105,106,105,105,105,105,105,105,106,105,105,
117,117,117,117,117,117,117,117,117,117,117,117,117,117,117,
127,127,127,127,127,127,127,127,127,127,127,127,127,127,127,
125,125,125,125,125,125,125,125,125,125,125,125,125,125,125,
126,126,126,126,126,126,126,126,126,126,126,126,126,126,126,
135,135,135,135,135,135,135,135,135,135,135,135,135,135,135,
135,135,135,135,135,135,135,135,135,135,135,135,135,135,135
</data>
 </layer>
 <layer id="5" name="Camada de Blocos 2" width="15" height="20">
  <data encoding="csv">
0,0,0,0,0,0,0,0,0,0,0,0,0,0,0,
0,0,0,0,0,0,0,0,0,0,0,0,0,0,0,
0,0,0,0,0,0,0,0,0,0,0,0,0,0,0,
0,0,0,0,0,0,0,0,0,0,0,0,0,0,0,
0,0,0,0,0,0,0,0,0,0,0,0,0,0,0,
0,0,0,0,0,0,0,0,0,0,0,0,0,0,0,
0,0,0,0,0,0,0,0,0,0,0,0,0,0,0,
255,256,258,255,257,258,255,255,257,255,257,255,256,258,257,
0,0,0,0,0,0,0,0,0,0,0,0,0,0,0,
0,0,0,0,0,0,0,0,0,0,0,0,0,0,0,
0,0,0,0,0,0,0,0,0,0,0,0,0,0,0,
0,0,0,0,0,0,0,0,0,0,0,0,0,0,0,
0,0,0,0,0,0,0,105,0,0,0,0,0,0,0,
0,0,0,0,0,0,0,0,0,0,0,0,0,0,0,
0,0,0,0,0,0,0,0,0,0,0,0,0,0,0,
0,0,0,0,0,0,30,30,30,0,0,0,0,0,0,
0,0,0,0,0,0,30,30,30,0,0,0,0,0,0,
0,0,0,0,0,0,30,30,30,0,0,0,0,0,0,
0,0,0,0,0,0,30,30,30,0,0,0,0,0,0,
0,0,0,0,0,0,30,30,30,0,0,0,0,0,0
</data>
 </layer>
 <objectgroup color="#ff007f" id="2" name="objects">
  <object id="2" gid="214" x="120" y="440" width="320" height="80"/>
  <object id="39" name="transition" x="240" y="800" width="120" height="24">
   <properties>
    <property name="map" value="chapter1/farm_world/farm_climb"/>
    <property name="marker" value="to_garden"/>
   </properties>
  </object>
 </objectgroup>
 <objectgroup color="#ff007f" id="7" name="objects_ladder">
  <object id="32" name="climbarea" x="240" y="640.333" width="120" height="159.667"/>
  <object id="40" name="climbexit" x="240" y="600" width="40" height="40">
   <properties>
    <property name="target" type="object" value="46"/>
   </properties>
  </object>
  <object id="41" name="climbexit" x="280" y="600" width="40" height="40">
   <properties>
    <property name="target" type="object" value="46"/>
   </properties>
  </object>
  <object id="42" name="climbexit" x="320" y="600" width="40" height="40">
   <properties>
    <property name="target" type="object" value="46"/>
   </properties>
  </object>
  <object id="43" name="climbentry" x="240" y="560" width="40" height="40">
   <properties>
    <property name="target" type="object" value="40"/>
   </properties>
  </object>
  <object id="44" name="climbentry" x="280" y="560" width="40" height="40">
   <properties>
    <property name="target" type="object" value="41"/>
   </properties>
  </object>
  <object id="45" name="climbentry" x="320" y="560" width="40" height="40">
   <properties>
    <property name="target" type="object" value="42"/>
   </properties>
  </object>
 </objectgroup>
 <objectgroup color="#0000ff" id="6" name="collision">
  <object id="28" x="0" y="280" width="599" height="40"/>
  <object id="29" x="-40" y="320" width="41" height="240"/>
  <object id="30" x="0" y="560" width="361.091" height="42.6667"/>
  <object id="31" x="361" y="560" width="238" height="42.6667"/>
  <object id="36" x="200" y="400" width="40" height="20"/>
  <object id="37" x="340" y="400" width="80" height="20"/>
 </objectgroup>
 <objectgroup color="#ff007f" id="4" name="objects_party">
  <object id="18" name="interactable" x="120" y="360" width="40" height="80">
   <properties>
    <property name="solid" type="bool" value="true"/>
    <property name="text" value="* (Green couch in the room.)"/>
   </properties>
  </object>
  <object id="19" name="interactable" x="160" y="400" width="20" height="40">
   <properties>
    <property name="solid" type="bool" value="true"/>
    <property name="text" value="* (Green couch in the room.)"/>
   </properties>
  </object>
  <object id="20" name="interactable" x="240" y="400" width="100" height="20">
   <properties>
    <property name="solid" type="bool" value="true"/>
    <property name="text" value="* (Green couch in the room.)"/>
   </properties>
  </object>
  <object id="21" name="interactable" x="420" y="360" width="20" height="60">
   <properties>
    <property name="solid" type="bool" value="true"/>
    <property name="text" value="* (Green couch in the room.)"/>
   </properties>
  </object>
  <object id="22" name="interactable" x="180" y="400" width="20" height="20">
   <properties>
    <property name="solid" type="bool" value="true"/>
    <property name="text" value="* (Green couch in the room.)"/>
   </properties>
  </object>
  <object id="23" name="npc" x="200" y="400" width="40" height="40">
   <properties>
    <property name="actor" value="colonel"/>
    <property name="talk" type="bool" value="true"/>
    <property name="talksprite" value="talk"/>
    <property name="text1_1" value="* Welcome to the SECOND BARRACKS room,[wait:5] soldier!"/>
    <property name="text1_2" value="* Me and the company are waiting for orders,[wait:5] soldier!"/>
    <property name="text1_3" value="* No SAVE POINT here though,[wait:5] soldier.[wait:5] We don't have the funds for that"/>
    <property name="text1_4" value="* That stuff is like crazy expensive dude."/>
    <property name="text1_5" value="* ... soldier."/>
    <property name="text2_1" value="* ... soldier."/>
   </properties>
  </object>
  <object id="24" name="npc" x="360" y="400" width="40" height="40">
   <properties>
    <property name="actor" value="colonel"/>
    <property name="cutscene" value="chapter1/garden.barracks2"/>
   </properties>
  </object>
  <object id="25" name="npc" x="120" y="320" width="40" height="40">
   <properties>
    <property name="actor" value="colonel"/>
    <property name="talk" type="bool" value="true"/>
    <property name="talksprite" value="talk"/>
    <property name="text1_1" value="* The GARDEN is beautiful..."/>
   </properties>
  </object>
  <object id="26" name="npc" x="95.1667" y="400" width="24.8333" height="40">
   <properties>
    <property name="actor" value="colonel"/>
    <property name="talk" type="bool" value="true"/>
    <property name="talksprite" value="talk"/>
    <property name="text1_1" value="* Good evening,[wait:5] Master Warrant Officer."/>
   </properties>
  </object>
  <object id="27" name="npc" x="440" y="360" width="40" height="40">
   <properties>
    <property name="actor" value="colonel"/>
    <property name="talk" type="bool" value="true"/>
    <property name="talksprite" value="talk"/>
    <property name="text1_1" value="* Hm?[wait:5] How did we get here first?"/>
    <property name="text1_2" value="* Simple,[wait:5] major.[wait:10] Helicopter"/>
    <property name="text2_1" value="* We could've provided air support while you were being chased but we got scared"/>
   </properties>
  </object>
  <object id="38" name="script" x="560" y="320" width="40" height="239.667">
   <properties>
    <property name="cutscene" value="chapter1/garden.barracks2_partydisband"/>
    <property name="once" type="bool" value="false"/>
   </properties>
  </object>
 </objectgroup>
 <objectgroup color="#aa00ff" id="9" name="markers">
  <object id="33" name="to_farm" x="295.333" y="777.333">
   <properties>
    <property name="player_state" value="CLIMB"/>
   </properties>
   <point/>
  </object>
  <object id="46" name="climb_exit" x="297" y="532.333">
   <properties>
    <property name="player_state" value="CLIMB"/>
   </properties>
   <point/>
  </object>
 </objectgroup>
 <objectgroup color="#ffff00" id="10" name="controllers">
  <object id="47" name="toggle" x="295" y="87">
   <properties>
    <property name="flag" value="leading_colonels_squad"/>
    <property name="inverted" type="bool" value="true"/>
    <property name="target1" type="object" value="25"/>
    <property name="target2" type="object" value="26"/>
    <property name="target3" type="object" value="23"/>
    <property name="target4" type="object" value="24"/>
    <property name="target5" type="object" value="27"/>
   </properties>
   <point/>
  </object>
 </objectgroup>
</map>
