<?xml version="1.0" encoding="UTF-8"?>
<map version="1.10" tiledversion="1.12.2" orientation="orthogonal" renderorder="right-down" width="19" height="74" tilewidth="40" tileheight="40" infinite="0" nextlayerid="10" nextobjectid="26">
 <editorsettings>
  <export target="garden_orchard_maze.lua" format="lua"/>
 </editorsettings>
 <properties>
  <property name="music" value="orchard_wip"/>
  <property name="name" value="Garden - Orchard (Maze)"/>
 </properties>
 <tileset firstgid="1" source="../../../tilesets/garden.tsx"/>
 <tileset firstgid="101" source="../../../tilesets/orchard.tsx"/>
 <tileset firstgid="201" source="../../../tilesets/garden_extras.tsx"/>
 <tileset firstgid="250" source="../../../tilesets/orchard_extras.tsx"/>
 <layer id="1" name="Tile Layer 1" width="19" height="74">
  <data encoding="csv">
5,7,7,5,6,6,5,7,5,5,5,5,6,7,5,5,5,5,5,
5,5,5,5,5,5,5,5,6,5,5,5,5,5,6,5,5,5,6,
6,5,7,5,5,5,5,6,5,5,5,5,6,5,6,6,5,5,5,
5,6,7,5,5,5,5,5,5,6,5,5,5,5,5,5,5,5,5,
5,5,5,5,5,5,5,5,5,5,5,5,5,5,5,5,5,5,6,
5,6,5,5,5,6,6,5,6,7,5,5,5,6,5,5,5,7,6,
5,5,5,5,5,5,7,5,5,5,7,5,7,5,5,5,5,5,5,
5,5,5,5,5,7,6,6,5,5,5,5,5,5,5,5,5,6,6,
5,5,5,5,5,5,5,5,5,5,5,5,5,5,6,5,5,5,6,
5,5,5,6,5,7,6,5,5,5,5,5,5,7,6,5,6,5,5,
5,6,5,5,5,5,5,6,5,5,5,5,5,5,6,5,5,5,5,
5,5,7,5,5,5,5,5,5,5,5,5,5,5,5,5,5,5,5,
5,5,5,5,7,5,5,5,5,5,6,5,5,5,6,5,5,5,5,
5,5,5,5,7,5,6,5,5,5,5,6,6,6,5,5,5,5,7,
5,5,6,5,5,5,5,6,5,5,5,6,5,6,5,5,5,5,5,
5,5,5,5,5,7,6,5,5,5,5,5,7,5,5,5,7,5,6,
5,5,5,5,6,6,5,6,6,5,6,5,5,7,6,5,5,5,5,
7,5,5,5,5,5,6,5,6,5,5,6,7,5,5,5,5,5,5,
5,5,5,5,5,5,5,5,5,6,6,5,6,5,5,6,5,5,6,
6,5,5,6,5,6,6,6,5,5,7,6,5,7,5,5,7,6,5,
6,5,5,5,5,5,5,5,7,6,5,5,7,5,5,5,5,5,6,
5,5,5,5,5,5,6,5,5,5,5,5,6,5,5,7,7,5,5,
6,6,5,5,5,5,5,7,6,5,5,5,6,5,5,5,5,5,5,
6,5,5,5,5,5,7,5,5,5,7,5,6,5,5,5,5,5,5,
5,5,6,5,5,7,5,5,5,5,6,5,5,5,5,5,5,5,5,
5,5,5,5,5,5,5,5,5,5,5,5,5,7,5,5,5,7,5,
5,5,6,6,6,5,6,5,5,5,7,5,5,6,5,5,5,5,5,
6,7,5,6,5,6,5,5,5,5,7,6,5,5,5,5,5,5,5,
5,5,5,5,6,5,6,5,5,5,5,5,5,5,5,5,5,5,7,
5,5,5,5,5,5,6,5,5,5,6,5,5,7,5,5,5,5,5,
5,5,5,6,5,5,5,5,5,5,5,5,5,5,6,5,5,5,6,
6,5,5,5,5,5,5,5,5,5,7,6,6,5,5,5,5,5,5,
5,5,6,5,5,5,5,5,7,5,5,5,6,6,5,5,5,6,5,
5,6,5,5,5,7,5,6,5,5,5,5,5,5,5,5,5,7,5,
5,5,5,5,5,5,5,5,6,5,5,6,5,5,5,5,5,5,6,
5,7,5,5,7,5,5,5,6,5,5,5,7,5,5,5,5,5,5,
5,5,5,5,5,5,5,6,5,5,5,6,6,5,5,5,5,5,7,
5,5,5,5,5,5,5,6,5,6,5,5,5,5,6,5,5,5,5,
5,5,6,5,5,5,5,5,5,5,5,5,5,5,5,6,5,5,5,
6,5,5,6,5,5,5,5,5,5,5,5,7,6,5,6,6,5,5,
7,5,5,7,7,6,5,5,5,5,5,5,6,5,5,7,5,5,6,
6,5,7,5,5,5,5,7,6,5,5,6,5,5,5,5,5,5,6,
5,5,5,6,5,5,6,5,5,5,5,5,5,6,5,5,5,6,5,
5,5,5,5,6,5,5,6,6,5,5,5,5,5,5,5,5,5,6,
6,5,5,5,5,5,6,5,5,5,5,5,5,5,6,5,5,5,5,
7,5,5,5,5,7,5,5,5,5,5,5,7,5,5,5,5,5,7,
6,5,5,5,5,5,7,6,5,5,5,5,5,5,5,5,5,5,5,
5,7,5,5,5,5,6,5,5,5,5,5,5,7,5,7,7,6,5,
7,6,5,5,5,5,5,7,5,6,5,5,5,6,5,5,5,5,5,
7,5,5,5,6,5,6,5,5,5,6,5,5,5,5,6,5,6,5,
5,5,7,7,6,5,5,5,5,5,5,5,5,5,5,5,6,5,5,
5,6,5,5,5,5,6,5,5,7,5,5,5,5,5,5,5,5,5,
5,5,5,5,5,5,5,5,5,5,5,5,6,5,5,5,5,5,5,
5,6,7,5,5,5,5,5,6,5,5,6,5,5,5,6,5,5,5,
5,5,5,5,5,5,5,5,5,5,5,5,6,5,5,5,5,5,5,
5,5,6,6,5,5,5,5,7,6,5,5,5,6,5,6,5,5,5,
5,5,7,5,5,7,6,5,5,5,5,6,5,5,5,5,5,5,5,
5,7,6,5,5,5,6,5,5,5,5,5,5,5,5,6,7,5,5,
7,5,5,7,5,5,5,6,5,6,5,5,5,5,5,5,5,6,5,
5,5,5,5,5,5,7,5,6,5,5,5,5,5,5,5,5,5,5,
5,5,5,7,6,5,5,5,5,6,7,5,6,5,5,5,5,5,5,
7,6,5,5,5,7,5,5,5,5,6,5,5,5,5,6,5,5,5,
5,5,5,5,5,5,5,5,5,6,6,5,5,5,5,5,5,5,5,
7,5,5,5,6,5,5,5,5,5,5,5,5,5,5,6,6,5,6,
5,5,6,5,5,5,5,5,5,6,5,6,6,5,6,5,6,5,6,
5,5,6,5,5,5,6,5,7,6,5,7,5,5,5,5,5,5,5,
5,5,5,5,5,5,6,5,5,5,5,5,5,5,5,5,5,5,5,
5,5,5,6,6,5,5,6,5,5,5,5,6,6,5,7,5,5,5,
5,5,5,5,5,5,5,5,5,5,5,5,5,5,5,5,5,5,6,
5,5,5,7,5,6,5,5,5,5,5,6,5,5,5,5,5,6,7,
7,5,7,6,5,5,5,5,6,5,6,5,5,5,6,5,6,5,5,
6,5,6,5,6,5,5,5,5,7,5,6,5,6,5,5,6,5,5,
5,7,5,7,5,5,5,5,5,5,5,6,7,6,5,5,5,5,5,
6,5,6,5,5,5,5,6,5,5,5,6,5,5,5,7,5,5,5
</data>
 </layer>
 <layer id="4" name="bascktrees" width="19" height="74">
  <data encoding="csv">
0,0,0,0,0,0,0,0,0,0,0,0,0,0,0,0,0,0,0,
0,0,0,0,0,0,0,0,0,0,0,0,0,0,0,0,0,0,0,
0,0,0,0,0,0,0,0,0,0,0,0,0,0,0,0,0,0,0,
0,0,0,0,0,0,0,0,0,0,0,0,0,0,0,0,0,0,0,
0,0,0,0,0,0,0,0,0,0,0,0,0,0,0,0,0,0,0,
0,0,0,0,0,0,0,0,0,0,0,0,0,0,0,0,0,0,0,
0,0,0,0,0,0,0,0,0,0,0,0,0,0,0,0,0,0,0,
0,0,0,0,0,0,0,0,0,0,0,0,0,0,0,0,0,0,0,
0,0,0,0,0,0,0,0,0,0,0,0,0,0,0,0,0,0,0,
0,0,0,0,0,0,0,0,0,0,0,0,0,0,0,0,0,0,0,
0,0,0,0,0,0,0,0,0,0,0,0,0,0,0,0,0,0,0,
0,0,0,0,0,0,0,0,0,0,0,0,0,0,0,0,0,0,0,
0,0,0,0,0,0,0,0,0,0,0,0,0,0,0,0,0,0,0,
0,0,0,0,0,0,0,0,0,0,0,0,0,0,0,0,0,0,0,
0,0,0,0,0,0,0,0,0,0,0,0,0,0,0,0,0,0,0,
0,0,0,0,0,0,0,0,0,0,0,0,0,0,0,0,0,0,0,
0,0,0,0,0,0,0,0,0,0,0,0,0,0,0,0,0,0,0,
0,0,0,0,0,0,0,0,0,0,0,0,0,0,0,0,0,0,0,
0,0,0,0,0,0,0,0,0,0,0,0,0,0,0,0,0,0,0,
0,0,0,0,0,0,0,0,0,0,0,0,0,0,0,0,0,0,0,
0,0,0,0,0,0,0,0,0,0,0,0,0,0,0,0,0,0,0,
0,0,0,0,0,0,0,0,0,0,0,0,0,0,0,0,0,0,0,
0,0,0,0,0,0,0,0,0,0,0,0,0,0,0,0,0,0,0,
0,0,0,0,0,0,0,0,0,0,0,0,0,0,0,0,0,0,0,
0,0,0,0,0,0,0,0,0,0,0,0,0,0,0,0,0,0,0,
0,0,0,0,0,0,0,0,0,0,0,0,0,0,0,0,0,0,0,
0,0,0,0,0,0,0,0,0,0,0,0,0,0,0,0,0,0,0,
0,0,0,0,0,0,0,0,0,0,0,0,0,0,0,0,0,0,0,
0,0,0,0,0,0,0,0,0,0,0,0,0,0,0,0,0,0,0,
185,186,185,186,185,186,185,0,0,0,0,0,186,185,186,185,186,185,186,
195,196,195,196,195,196,195,0,0,0,0,0,196,195,196,195,196,195,196,
0,0,0,0,0,0,0,0,0,0,0,0,0,0,0,0,0,0,0,
0,0,0,0,0,0,0,0,0,0,0,0,0,0,0,0,0,0,0,
0,0,0,0,0,0,0,0,0,0,0,0,0,0,0,0,0,0,0,
0,0,0,0,0,0,0,0,0,0,0,0,0,0,0,0,0,0,0,
0,0,0,0,0,0,0,0,0,0,0,0,0,0,0,0,0,0,0,
0,0,0,0,0,0,0,0,0,0,0,0,0,0,0,0,0,0,0,
0,0,0,0,0,0,0,0,0,0,0,0,0,0,0,0,0,0,0,
0,0,0,0,0,0,0,0,0,0,0,0,0,0,0,0,0,0,0,
0,0,0,0,0,0,0,0,0,0,0,0,0,0,0,0,0,0,0,
0,0,0,0,0,0,0,0,0,0,0,0,0,0,0,0,0,0,0,
0,0,0,0,0,0,0,0,0,0,0,0,0,0,0,0,0,0,0,
0,0,0,0,0,0,0,0,0,0,0,0,0,0,0,0,0,0,0,
0,0,0,0,0,0,0,0,0,0,0,0,0,0,0,0,0,0,0,
0,0,0,0,0,0,0,0,0,0,0,0,0,0,0,0,0,0,0,
0,0,0,0,0,0,0,0,0,0,0,0,0,0,0,0,0,0,0,
185,186,185,186,185,186,185,0,0,0,0,0,186,185,186,185,186,185,186,
195,196,195,196,195,196,195,0,0,0,0,0,196,195,196,195,196,195,196,
0,0,0,0,0,0,0,0,0,0,0,0,0,0,0,0,0,0,0,
0,0,0,0,0,0,0,0,0,0,0,0,0,0,0,0,0,0,0,
0,0,0,0,0,0,0,0,0,0,0,0,0,0,0,0,0,0,0,
0,0,0,0,0,0,0,0,0,0,0,0,0,0,0,0,0,0,0,
0,0,0,0,0,0,0,0,0,0,0,0,0,0,0,0,0,0,0,
0,0,0,0,0,0,0,0,0,0,0,0,0,0,0,0,0,0,0,
0,0,0,0,0,0,0,0,0,0,0,0,0,0,0,0,0,0,0,
0,0,0,0,0,0,0,0,0,0,0,0,0,0,0,0,0,0,0,
0,0,0,0,0,0,0,0,0,0,0,0,0,0,0,0,0,0,0,
0,0,0,0,0,0,0,0,0,0,0,0,0,0,0,0,0,0,0,
0,0,0,0,0,0,0,0,0,0,0,0,0,0,0,0,0,0,0,
0,0,0,0,0,0,0,0,0,0,0,0,0,0,0,0,0,0,0,
0,0,0,0,0,0,0,0,0,0,0,0,0,0,0,0,0,0,0,
0,0,0,0,0,0,0,0,0,0,0,0,0,0,0,0,0,0,0,
0,0,0,0,0,0,0,0,0,0,0,0,0,0,0,0,0,0,0,
185,186,185,186,185,186,185,0,0,0,0,0,186,185,186,185,186,185,186,
195,196,195,196,195,196,195,0,0,0,0,0,196,195,196,195,196,195,196,
0,0,0,0,0,0,0,0,0,0,0,0,0,0,0,0,0,0,0,
0,0,0,0,0,0,0,0,0,0,0,0,0,0,0,0,0,0,0,
0,0,0,0,0,0,0,0,0,0,0,0,0,0,0,0,0,0,0,
0,0,0,0,0,0,0,0,0,0,0,0,0,0,0,0,0,0,0,
0,0,0,0,0,0,0,0,0,0,0,0,0,0,0,0,0,0,0,
0,0,0,0,0,0,0,0,0,0,0,0,0,0,0,0,0,0,0,
0,0,0,0,0,0,0,0,0,0,0,0,0,0,0,0,0,0,0,
0,0,0,0,0,0,0,0,0,0,0,0,0,0,0,0,0,0,0,
0,0,0,0,0,0,0,0,0,0,0,0,0,0,0,0,0,0,0
</data>
 </layer>
 <layer id="3" name="trees" width="19" height="74">
  <data encoding="csv">
0,0,0,0,0,0,0,0,0,0,0,0,0,0,0,0,0,0,0,
0,0,0,0,0,0,0,0,0,0,0,0,0,0,0,0,0,0,0,
0,0,0,0,0,0,0,0,0,0,0,0,0,0,0,0,0,0,0,
0,0,0,0,0,0,0,0,0,0,0,0,0,0,0,0,0,0,0,
0,0,0,0,0,0,0,0,0,0,0,0,0,0,0,0,0,0,0,
0,0,0,0,0,0,0,0,0,0,0,0,0,0,0,0,0,0,0,
0,0,0,0,0,0,0,0,0,0,0,0,0,0,0,0,0,0,0,
0,0,0,0,0,0,0,0,0,0,0,0,0,0,0,0,0,0,0,
0,0,0,0,0,0,0,0,0,0,0,0,0,0,0,0,0,0,0,
0,0,0,0,0,0,0,0,0,0,0,0,0,0,0,0,0,0,0,
0,0,0,0,0,0,0,0,0,0,0,0,0,0,0,0,0,0,0,
0,0,0,0,0,0,0,0,0,0,0,0,0,0,0,0,0,0,0,
0,0,0,0,0,0,0,0,0,0,0,0,0,0,0,0,0,0,0,
0,0,0,0,0,0,0,0,0,0,0,0,0,0,0,0,0,0,0,
0,0,0,0,0,0,0,0,0,0,0,0,0,0,0,0,0,0,0,
0,0,0,0,0,0,0,0,0,0,0,0,0,0,0,0,0,0,0,
0,0,0,0,0,0,0,0,0,0,0,0,0,0,0,0,0,0,0,
0,0,0,0,0,0,0,0,0,0,0,0,0,0,0,0,0,0,0,
0,0,0,0,0,0,0,0,0,0,0,0,0,0,0,0,0,0,0,
0,0,0,0,0,0,0,0,0,0,0,0,0,0,0,0,0,0,0,
0,0,0,0,0,0,0,0,0,0,0,0,0,0,0,0,0,0,0,
0,0,0,0,0,0,0,0,0,0,0,0,0,0,0,0,0,0,0,
0,0,0,0,0,0,0,0,0,0,0,0,0,0,0,0,0,0,0,
0,0,0,0,0,0,0,0,0,0,0,0,0,0,0,0,0,0,0,
0,0,0,0,0,0,0,0,0,0,0,0,0,0,0,0,0,0,0,
0,0,0,0,0,0,0,0,0,0,0,0,0,0,0,0,0,0,0,
0,0,0,0,0,0,0,0,0,0,0,0,0,0,0,0,0,0,0,
0,0,0,0,0,0,0,0,0,0,0,0,0,0,0,0,0,0,0,
122,123,122,123,122,123,122,123,0,0,0,122,123,122,123,122,123,122,123,
182,183,182,183,182,183,182,183,184,0,181,182,183,182,183,182,183,182,183,
192,193,192,193,192,193,192,193,0,0,0,192,193,192,193,192,193,192,193,
0,0,0,0,0,0,0,0,0,0,0,0,0,0,0,0,0,0,0,
0,0,0,0,0,0,0,0,0,0,0,0,0,0,0,0,0,0,0,
0,0,0,0,0,0,0,0,0,0,0,0,0,0,0,0,0,0,0,
0,0,0,0,0,0,0,0,0,0,0,0,0,0,0,0,0,0,0,
0,0,0,0,0,0,0,0,0,0,0,0,0,0,0,0,0,0,0,
0,0,0,0,0,0,0,0,0,0,0,0,0,0,0,0,0,0,0,
0,0,0,0,0,0,0,0,0,0,0,0,0,0,0,0,0,0,0,
0,0,0,0,0,0,0,0,0,0,0,0,0,0,0,0,0,0,0,
0,0,0,0,0,0,0,0,0,0,0,0,0,0,0,0,0,0,0,
0,0,0,0,0,0,0,0,0,0,0,0,0,0,0,0,0,0,0,
0,0,0,0,0,0,0,0,0,0,0,0,0,0,0,0,0,0,0,
0,0,0,0,0,0,0,0,0,0,0,0,0,0,0,0,0,0,0,
0,0,0,0,0,0,0,0,0,0,0,0,0,0,0,0,0,0,0,
0,0,0,0,0,0,0,0,0,0,0,0,0,0,0,0,0,0,0,
122,123,122,123,122,123,122,123,0,0,0,122,123,122,123,122,123,122,123,
182,183,182,183,182,183,182,183,184,0,181,182,183,182,183,182,183,182,183,
192,193,192,193,192,193,192,193,0,0,0,192,193,192,193,192,193,192,193,
0,0,0,0,0,0,0,0,0,0,0,0,0,0,0,0,0,0,0,
0,0,0,0,0,0,0,0,0,0,0,0,0,0,0,0,0,0,0,
0,0,0,0,0,0,0,0,0,0,0,0,0,0,0,0,0,0,0,
0,0,0,0,0,0,0,0,0,0,0,0,0,0,0,0,0,0,0,
0,0,0,0,0,0,0,0,0,0,0,0,0,0,0,0,0,0,0,
0,0,0,0,0,0,0,0,0,0,0,0,0,0,0,0,0,0,0,
0,0,0,0,0,0,0,0,0,0,0,0,0,0,0,0,0,0,0,
0,0,0,0,0,0,0,0,0,0,0,0,0,0,0,0,0,0,0,
0,0,0,0,0,0,0,0,0,0,0,0,0,0,0,0,0,0,0,
0,0,0,0,0,0,0,0,0,0,0,0,0,0,0,0,0,0,0,
0,0,0,0,0,0,0,0,0,0,0,0,0,0,0,0,0,0,0,
0,0,0,0,0,0,0,0,0,0,0,0,0,0,0,0,0,0,0,
0,0,0,0,0,0,0,0,0,0,0,0,0,0,0,0,0,0,0,
0,0,0,0,0,0,0,0,0,0,0,0,0,0,0,0,0,0,0,
122,123,122,123,122,123,122,123,0,0,0,122,123,122,123,122,123,122,123,
182,183,182,183,182,183,182,183,184,0,181,182,183,182,183,182,183,182,183,
192,193,192,193,192,193,192,193,0,0,0,192,193,192,193,192,193,192,193,
0,0,0,0,0,0,0,0,0,0,0,0,0,0,0,0,0,0,0,
0,0,0,0,0,0,0,0,0,0,0,0,0,0,0,0,0,0,0,
0,0,0,0,0,0,0,0,0,0,0,0,0,0,0,0,0,0,0,
0,0,0,0,0,0,0,0,0,0,0,0,0,0,0,0,0,0,0,
0,0,0,0,0,0,0,0,0,0,0,0,0,0,0,0,0,0,0,
0,0,0,0,0,0,0,0,0,0,0,0,0,0,0,0,0,0,0,
0,0,0,0,0,0,0,0,0,0,0,0,0,0,0,0,0,0,0,
0,0,0,0,0,0,0,0,0,0,0,0,0,0,0,0,0,0,0,
0,0,0,0,0,0,0,0,0,0,0,0,0,0,0,0,0,0,0
</data>
 </layer>
 <layer id="5" name="apples" width="19" height="74">
  <data encoding="csv">
0,0,0,0,0,0,0,0,0,0,0,0,0,0,0,0,0,0,0,
0,0,0,0,0,0,0,0,0,0,0,0,0,0,0,0,0,0,0,
0,0,0,0,0,0,0,0,0,0,0,0,0,0,0,0,0,0,0,
0,0,0,0,0,0,0,0,0,0,0,0,0,0,0,0,0,0,0,
0,0,0,0,0,0,0,0,0,0,0,0,0,0,0,0,0,0,0,
0,0,0,0,0,0,0,0,0,0,0,0,0,0,0,0,0,0,0,
0,0,0,0,0,0,0,0,0,0,0,0,0,0,0,0,0,0,0,
0,0,0,0,0,0,0,0,0,0,0,0,0,0,0,0,0,0,0,
0,0,0,0,0,0,0,0,0,0,0,0,0,0,0,0,0,0,0,
0,0,0,0,0,0,0,0,0,0,0,0,0,0,0,0,0,0,0,
0,0,0,0,0,0,0,0,0,0,0,0,0,0,0,0,0,0,0,
0,0,0,0,0,0,0,0,0,0,0,0,0,0,0,0,0,0,0,
0,0,0,0,0,0,0,0,0,0,0,0,0,0,0,0,0,0,0,
0,0,0,0,0,0,0,0,0,0,0,0,0,0,0,0,0,0,0,
0,0,0,0,0,0,0,0,0,0,0,0,0,0,0,0,0,0,0,
0,0,0,0,0,0,0,0,0,0,0,0,0,0,0,0,0,0,0,
0,0,0,0,0,0,0,0,0,0,0,0,0,0,0,0,0,0,0,
0,0,0,0,0,0,0,0,0,0,0,0,0,0,0,0,0,0,0,
0,0,0,0,0,0,0,0,0,0,0,0,0,0,0,0,0,0,0,
0,0,0,0,0,0,0,0,0,0,0,0,0,0,0,0,0,0,0,
0,0,0,0,0,0,0,0,0,0,0,0,0,0,0,0,0,0,0,
0,0,0,0,0,0,0,0,0,0,0,0,0,0,0,0,0,0,0,
0,0,0,0,0,0,0,0,0,0,0,0,0,0,0,0,0,0,0,
0,0,0,0,0,0,0,0,0,0,0,0,0,0,0,0,0,0,0,
0,0,0,0,0,0,0,0,0,0,0,0,0,0,0,0,0,0,0,
0,0,0,0,0,0,0,0,0,0,0,0,0,0,0,0,0,0,0,
0,0,0,0,0,0,0,0,0,0,0,0,0,0,0,0,0,0,0,
0,0,0,0,0,0,0,0,0,0,0,0,0,0,0,0,0,0,0,
189,200,199,188,188,187,187,198,0,0,0,198,198,190,190,198,200,188,187,
200,199,188,199,188,198,190,190,0,0,0,188,190,197,190,198,199,200,198,
0,0,0,0,0,0,0,0,0,0,0,0,0,0,0,0,0,0,0,
0,0,0,0,0,0,0,0,0,0,0,0,0,0,0,0,0,0,0,
0,0,0,0,0,0,0,0,0,0,0,0,0,0,0,0,0,0,0,
0,0,0,0,0,0,0,0,0,0,0,0,0,0,0,0,0,0,0,
0,0,0,0,0,0,0,0,0,0,0,0,0,0,0,0,0,0,0,
0,0,0,0,0,0,0,0,0,0,0,0,0,0,0,0,0,0,0,
0,0,0,0,0,0,0,0,0,0,0,0,0,0,0,0,0,0,0,
0,0,0,0,0,0,0,0,0,0,0,0,0,0,0,0,0,0,0,
0,0,0,0,0,0,0,0,0,0,0,0,0,0,0,0,0,0,0,
0,0,0,0,0,0,0,0,0,0,0,0,0,0,0,0,0,0,0,
0,0,0,0,0,0,0,0,0,0,0,0,0,0,0,0,0,0,0,
0,0,0,0,0,0,0,0,0,0,0,0,0,0,0,0,0,0,0,
0,0,0,0,0,0,0,0,0,0,0,0,0,0,0,0,0,0,0,
0,0,0,0,0,0,0,0,0,0,0,0,0,0,0,0,0,0,0,
0,0,0,0,0,0,0,0,0,0,0,0,0,0,0,0,0,0,0,
188,190,187,188,200,188,188,200,0,0,0,198,198,198,188,200,200,187,187,
190,198,190,187,198,187,198,188,0,0,0,189,188,190,198,188,187,190,199,
0,0,0,0,0,0,0,0,0,0,0,0,0,0,0,0,0,0,0,
0,0,0,0,0,0,0,0,0,0,0,0,0,0,0,0,0,0,0,
0,0,0,0,0,0,0,0,0,0,0,0,0,0,0,0,0,0,0,
0,0,0,0,0,0,0,0,0,0,0,0,0,0,0,0,0,0,0,
0,0,0,0,0,0,0,0,0,0,0,0,0,0,0,0,0,0,0,
0,0,0,0,0,0,0,0,0,0,0,0,0,0,0,0,0,0,0,
0,0,0,0,0,0,0,0,0,0,0,0,0,0,0,0,0,0,0,
0,0,0,0,0,0,0,0,0,0,0,0,0,0,0,0,0,0,0,
0,0,0,0,0,0,0,0,0,0,0,0,0,0,0,0,0,0,0,
0,0,0,0,0,0,0,0,0,0,0,0,0,0,0,0,0,0,0,
0,0,0,0,0,0,0,0,0,0,0,0,0,0,0,0,0,0,0,
0,0,0,0,0,0,0,0,0,0,0,0,0,0,0,0,0,0,0,
0,0,0,0,0,0,0,0,0,0,0,0,0,0,0,0,0,0,0,
0,0,0,0,0,0,0,0,0,0,0,0,0,0,0,0,0,0,0,
0,0,0,0,0,0,0,0,0,0,0,0,0,0,0,0,0,0,0,
200,188,188,198,199,189,198,200,0,0,0,198,200,190,199,200,200,197,200,
198,190,190,187,190,190,190,187,0,0,0,187,190,200,199,199,198,189,200,
0,0,0,0,0,0,0,0,0,0,0,0,0,0,0,0,0,0,0,
0,0,0,0,0,0,0,0,0,0,0,0,0,0,0,0,0,0,0,
0,0,0,0,0,0,0,0,0,0,0,0,0,0,0,0,0,0,0,
0,0,0,0,0,0,0,0,0,0,0,0,0,0,0,0,0,0,0,
0,0,0,0,0,0,0,0,0,0,0,0,0,0,0,0,0,0,0,
0,0,0,0,0,0,0,0,0,0,0,0,0,0,0,0,0,0,0,
0,0,0,0,0,0,0,0,0,0,0,0,0,0,0,0,0,0,0,
0,0,0,0,0,0,0,0,0,0,0,0,0,0,0,0,0,0,0,
0,0,0,0,0,0,0,0,0,0,0,0,0,0,0,0,0,0,0,
0,0,0,0,0,0,0,0,0,0,0,0,0,0,0,0,0,0,0
</data>
 </layer>
 <objectgroup id="9" name="objects_tree">
  <object id="25" gid="250" x="330" y="730" width="102" height="96"/>
 </objectgroup>
 <objectgroup color="#ff007f" id="6" name="objects_party">
  <object id="13" name="transition" x="320" y="2960" width="120" height="40">
   <properties>
    <property name="map" value="chapter1/farm_world/garden_orchard2"/>
    <property name="marker" value="to_maze"/>
   </properties>
  </object>
  <object id="24" name="interactable" x="320" y="680" width="120" height="40">
   <properties>
    <property name="cutscene" value="chapter1/orchard.fallen_tree"/>
    <property name="once" type="bool" value="false"/>
    <property name="solid" type="bool" value="true"/>
   </properties>
  </object>
 </objectgroup>
 <objectgroup color="#aa00ff" id="7" name="markers">
  <object id="14" name="spawn" x="380" y="2920">
   <point/>
  </object>
 </objectgroup>
 <layer id="2" name="leaves" width="19" height="74">
  <data encoding="csv">
0,0,0,0,0,0,0,0,0,0,0,0,0,0,0,0,0,0,0,
0,0,0,0,0,0,0,0,0,0,0,0,0,0,0,0,0,0,0,
0,0,0,0,0,0,0,0,0,0,0,0,0,0,0,0,0,0,0,
0,0,0,0,0,0,0,0,0,0,0,0,0,0,0,0,0,0,0,
0,0,0,0,0,0,0,0,0,0,0,0,0,0,0,0,0,0,0,
0,0,0,0,0,0,0,0,0,0,0,0,0,0,0,0,0,0,0,
0,0,0,0,0,0,0,0,0,0,0,0,0,0,0,0,0,0,0,
0,0,0,0,0,0,0,0,0,0,0,0,0,0,0,0,0,0,0,
0,0,0,0,0,0,0,0,0,0,0,0,0,0,0,0,0,0,0,
0,0,0,0,0,0,0,0,0,0,0,0,0,0,0,0,0,0,0,
0,0,0,0,0,0,0,0,0,0,0,0,0,0,0,0,0,0,0,
0,0,0,0,0,0,0,0,0,0,0,0,0,0,0,0,0,0,0,
0,0,0,0,0,0,0,0,0,0,0,0,0,0,0,0,0,0,0,
0,0,0,0,0,0,0,0,0,0,0,0,0,0,0,0,0,0,0,
0,0,0,0,0,0,0,0,0,0,0,0,0,0,0,0,0,0,0,
0,0,0,0,0,0,0,0,0,0,0,0,0,0,0,0,0,0,0,
102,103,102,103,102,103,102,103,104,0,101,102,103,102,103,102,103,102,103,
112,113,112,113,112,113,112,113,114,0,111,112,113,112,113,112,113,112,113,
122,123,122,123,122,123,122,123,124,0,121,122,123,122,123,122,123,122,123,
112,113,112,113,112,113,112,113,114,0,111,112,113,112,113,112,113,112,113,
122,123,122,123,122,123,122,123,124,0,121,122,123,122,123,122,123,122,123,
112,113,112,113,112,113,112,113,114,0,111,112,113,112,113,112,113,112,113,
122,123,122,123,122,123,122,123,124,0,121,122,123,122,123,122,123,122,123,
112,113,112,113,112,113,112,113,114,0,111,112,113,112,113,112,113,112,113,
122,123,122,123,122,123,122,123,124,0,121,122,123,122,123,122,123,122,123,
112,113,112,113,112,113,112,113,114,0,111,112,113,112,113,112,113,112,113,
122,123,122,123,122,123,122,123,124,0,121,122,123,122,123,122,123,122,123,
112,113,112,113,112,113,112,113,114,0,111,112,113,112,113,112,113,112,113,
0,0,0,0,0,0,0,0,124,0,121,0,0,0,0,0,0,0,0,
0,0,0,0,0,0,0,0,0,0,0,0,0,0,0,0,0,0,0,
0,0,0,0,0,0,0,0,0,0,0,0,0,0,0,0,0,0,0,
0,0,0,0,0,0,0,0,0,0,0,0,0,0,0,0,0,0,0,
0,0,0,0,0,0,0,0,0,0,0,0,0,0,0,0,0,0,0,
102,103,102,103,102,103,102,103,104,0,101,102,103,102,103,102,103,102,103,
112,113,112,113,112,113,112,113,114,0,111,112,113,112,113,112,113,112,113,
122,123,122,123,122,123,122,123,124,0,121,122,123,122,123,122,123,122,123,
112,113,112,113,112,113,112,113,114,0,111,112,113,112,113,112,113,112,113,
122,123,122,123,122,123,122,123,124,0,121,122,123,122,123,122,123,122,123,
112,113,112,113,112,113,112,113,114,0,111,112,113,112,113,112,113,112,113,
122,123,122,123,122,123,122,123,124,0,121,122,123,122,123,122,123,122,123,
112,113,112,113,112,113,112,113,114,0,111,112,113,112,113,112,113,112,113,
122,123,122,123,122,123,122,123,124,0,121,122,123,122,123,122,123,122,123,
112,113,112,113,112,113,112,113,114,0,111,112,113,112,113,112,113,112,113,
122,123,122,123,122,123,122,123,124,0,121,122,123,122,123,122,123,122,123,
112,113,112,113,112,113,112,113,114,0,111,112,113,112,113,112,113,112,113,
0,0,0,0,0,0,0,0,124,0,121,0,0,0,0,0,0,0,0,
0,0,0,0,0,0,0,0,0,0,0,0,0,0,0,0,0,0,0,
0,0,0,0,0,0,0,0,0,0,0,0,0,0,0,0,0,0,0,
0,0,0,0,0,0,0,0,0,0,0,0,0,0,0,0,0,0,0,
0,0,0,0,0,0,0,0,0,0,0,0,0,0,0,0,0,0,0,
102,103,102,103,102,103,102,103,104,0,101,102,103,102,103,102,103,102,103,
112,113,112,113,112,113,112,113,114,0,111,112,113,112,113,112,113,112,113,
122,123,122,123,122,123,122,123,124,0,121,122,123,122,123,122,123,122,123,
112,113,112,113,112,113,112,113,114,0,111,112,113,112,113,112,113,112,113,
122,123,122,123,122,123,122,123,124,0,121,122,123,122,123,122,123,122,123,
112,113,112,113,112,113,112,113,114,0,111,112,113,112,113,112,113,112,113,
122,123,122,123,122,123,122,123,124,0,121,122,123,122,123,122,123,122,123,
112,113,112,113,112,113,112,113,114,0,111,112,113,112,113,112,113,112,113,
122,123,122,123,122,123,122,123,124,0,121,122,123,122,123,122,123,122,123,
112,113,112,113,112,113,112,113,114,0,111,112,113,112,113,112,113,112,113,
122,123,122,123,122,123,122,123,124,0,121,122,123,122,123,122,123,122,123,
112,113,112,113,112,113,112,113,114,0,111,112,113,112,113,112,113,112,113,
0,0,0,0,0,0,0,0,124,0,121,0,0,0,0,0,0,0,0,
0,0,0,0,0,0,0,0,0,0,0,0,0,0,0,0,0,0,0,
0,0,0,0,0,0,0,0,0,0,0,0,0,0,0,0,0,0,0,
0,0,0,0,0,0,0,0,0,0,0,0,0,0,0,0,0,0,0,
0,0,0,0,0,0,0,0,0,0,0,0,0,0,0,0,0,0,0,
102,103,102,103,102,103,102,103,104,0,101,102,103,102,103,102,103,102,103,
112,113,112,113,112,113,112,113,114,0,111,112,113,112,113,112,113,112,113,
122,123,122,123,122,123,122,123,124,0,121,122,123,122,123,122,123,122,123,
112,113,112,113,112,113,112,113,114,0,111,112,113,112,113,112,113,112,113,
122,123,122,123,122,123,122,123,124,0,121,122,123,122,123,122,123,122,123,
112,113,112,113,112,113,112,113,114,0,111,112,113,112,113,112,113,112,113,
122,123,122,123,122,123,122,123,124,0,121,122,123,122,123,122,123,122,123
</data>
 </layer>
 <objectgroup color="#0000ff" id="8" name="collision">
  <object id="2" x="0" y="2480" width="320" height="100"/>
  <object id="3" x="440" y="2480" width="320" height="100"/>
  <object id="4" x="0" y="2720" width="320" height="40"/>
  <object id="5" x="280" y="2760" width="40" height="200"/>
  <object id="6" x="440" y="2720" width="40" height="240"/>
  <object id="8" x="480" y="2720" width="280" height="40"/>
  <object id="11" x="0" y="2040" width="320" height="440"/>
  <object id="12" x="440" y="2040" width="320" height="440"/>
  <object id="15" x="0" y="1800" width="320" height="100"/>
  <object id="16" x="440" y="1800" width="320" height="100"/>
  <object id="17" x="0" y="1360" width="320" height="440"/>
  <object id="18" x="440" y="1360" width="320" height="440"/>
  <object id="19" x="0" y="1120" width="320" height="100"/>
  <object id="20" x="440" y="1120" width="320" height="100"/>
  <object id="21" x="0" y="680" width="320" height="440"/>
  <object id="22" x="440" y="680" width="320" height="440"/>
 </objectgroup>
</map>
