<?xml version="1.0" encoding="UTF-8"?>
<map version="1.11" tiledversion="1.12.2" orientation="orthogonal" renderorder="right-down" width="17" height="16" tilewidth="40" tileheight="40" infinite="0" nextlayerid="13" nextobjectid="101">
 <editorsettings>
  <export target="garden_ladder2.lua" format="lua"/>
 </editorsettings>
 <properties>
  <property name="music" value="garden"/>
  <property name="name" value="Garden - Ladder 2"/>
 </properties>
 <tileset firstgid="1" source="../../../tilesets/garden.tsx"/>
 <tileset firstgid="101" source="../../../tilesets/farm_world.tsx"/>
 <tileset firstgid="201" source="../../../tilesets/farm_world_extras.tsx"/>
 <layer id="1" name="Tile Layer 1" width="17" height="16">
  <data encoding="csv">
0,0,0,0,0,0,0,0,0,0,0,0,0,0,0,0,0,
0,0,0,0,0,0,0,21,5,22,0,0,0,0,0,0,0,
0,0,0,0,0,0,0,5,5,6,0,0,0,0,0,0,0,
0,0,0,0,0,0,0,5,5,5,0,0,0,0,0,0,0,
0,0,21,5,5,5,5,6,5,5,6,5,5,5,22,0,0,
0,0,5,7,15,6,6,5,6,5,5,5,6,6,5,0,0,
0,0,5,15,15,16,6,15,16,15,7,15,6,5,5,0,0,
0,0,5,15,5,15,15,15,15,15,15,15,5,15,5,0,0,
0,0,5,15,15,15,5,6,5,15,16,15,15,15,5,0,0,
0,0,5,15,6,15,15,15,15,15,15,16,5,5,5,0,0,
0,0,5,5,5,6,6,15,15,15,15,15,15,5,5,0,0,
0,0,9,9,9,9,9,5,5,5,9,9,9,9,9,0,0,
0,0,19,19,19,19,19,5,5,5,19,19,19,19,19,0,0,
0,0,29,29,29,29,29,9,9,9,29,29,29,29,29,0,0,
0,0,39,39,39,39,39,19,19,19,39,39,39,39,39,0,0,
0,0,59,59,59,59,59,29,29,29,59,59,59,59,59,0,0
</data>
 </layer>
 <layer id="4" name="ladders" width="17" height="16">
  <data encoding="csv">
0,0,0,0,0,0,0,0,0,0,0,0,0,0,0,0,0,
0,0,0,0,0,0,0,0,0,0,0,0,0,0,0,0,0,
0,0,0,0,0,0,0,0,0,0,0,0,0,0,0,0,0,
0,0,0,0,0,0,0,0,0,0,0,0,0,0,0,0,0,
0,0,0,0,0,0,0,0,0,0,0,0,0,0,0,0,0,
0,0,0,0,0,0,0,0,0,0,0,0,0,0,0,0,0,
0,0,0,0,0,0,0,0,0,0,0,0,0,0,0,0,0,
0,0,0,0,0,0,0,0,0,0,0,0,0,0,0,0,0,
0,0,0,0,0,0,0,0,0,0,0,0,0,0,0,0,0,
0,0,0,0,0,0,0,0,0,0,0,0,0,0,0,0,0,
0,0,0,0,0,0,0,0,0,0,0,0,0,0,0,0,0,
0,0,0,0,0,0,0,0,0,0,0,0,0,0,0,0,0,
0,0,0,0,0,0,0,0,0,0,0,0,0,0,0,0,0,
0,0,0,0,0,0,0,0,0,0,0,0,0,0,0,0,0,
0,0,0,0,0,0,0,0,130,0,0,0,0,0,0,0,0,
0,0,0,0,0,0,0,0,130,0,0,0,0,0,0,0,0
</data>
 </layer>
 <objectgroup id="5" name="objects_ladders">
  <object id="4" name="climbarea" x="320" y="560" width="40" height="80"/>
 </objectgroup>
 <objectgroup id="6" name="objects_climb_entry">
  <object id="6" name="climbentry" x="320" y="560" width="40" height="40">
   <properties>
    <property name="target" type="object" value="9"/>
   </properties>
  </object>
 </objectgroup>
 <objectgroup id="7" name="objects_climb_exit">
  <object id="9" name="climbexit" x="320" y="560" width="40" height="40">
   <properties>
    <property name="target" type="object" value="11"/>
   </properties>
  </object>
 </objectgroup>
 <objectgroup id="9" name="objects_tilebutton">
  <object id="23" name="tilebutton" x="120" y="360" width="40" height="40">
   <properties>
    <property name="blocks" type="bool" value="true"/>
    <property name="cutscene" value="chapter1/garden.ladder2"/>
    <property name="group" type="int" value="1"/>
    <property name="keepdown" type="bool" value="false"/>
    <property name="once" type="bool" value="true"/>
    <property name="onsound" value="noise"/>
   </properties>
  </object>
  <object id="26" name="tilebutton" x="520" y="280" width="40" height="40">
   <properties>
    <property name="blocks" type="bool" value="true"/>
    <property name="cutscene" value="chapter1/garden.ladder2"/>
    <property name="group" type="int" value="1"/>
    <property name="keepdown" type="bool" value="false"/>
    <property name="once" type="bool" value="true"/>
    <property name="onsound" value="noise"/>
   </properties>
  </object>
  <object id="29" name="tilebutton" x="160" y="200" width="40" height="40">
   <properties>
    <property name="blocks" type="bool" value="true"/>
    <property name="cutscene" value="chapter1/garden.ladder2"/>
    <property name="group" type="int" value="1"/>
    <property name="keepdown" type="bool" value="false"/>
    <property name="once" type="bool" value="true"/>
    <property name="onsound" value="noise"/>
   </properties>
  </object>
  <object id="94" name="tilebutton" x="440" y="240" width="40" height="40">
   <properties>
    <property name="blocks" type="bool" value="true"/>
    <property name="cutscene" value="chapter1/garden.ladder2"/>
    <property name="group" type="int" value="1"/>
    <property name="keepdown" type="bool" value="false"/>
    <property name="once" type="bool" value="true"/>
    <property name="onsound" value="noise"/>
   </properties>
  </object>
 </objectgroup>
 <objectgroup color="#ff007f" id="2" name="objects_party">
  <object id="1" name="transition" x="280" y="620" width="120" height="40">
   <properties>
    <property name="map" value="chapter1/farm_world/garden_manorladders"/>
    <property name="marker" value="to_ladder2"/>
   </properties>
  </object>
  <object id="14" name="dirtflower" x="320" y="80" width="40" height="40">
   <properties>
    <property name="setflag" value="dirt1"/>
    <property name="setvalue" type="bool" value="true"/>
   </properties>
  </object>
  <object id="17" name="spike1" gid="213" x="280" y="200" width="40" height="40"/>
  <object id="18" name="spike2" gid="213" x="320" y="200" width="40" height="40"/>
  <object id="19" name="spike3" gid="213" x="360" y="200" width="40" height="40"/>
  <object id="20" name="interactable" x="280" y="160" width="120" height="40">
   <properties>
    <property name="cutscene" value="chapter1/garden.garden_warfare"/>
    <property name="solid" type="bool" value="true"/>
   </properties>
  </object>
  <object id="30" name="pushblock" x="280" y="400" width="40" height="40"/>
  <object id="31" name="pushblock" x="320" y="400" width="40" height="40"/>
  <object id="32" name="pushblock" x="360" y="400" width="40" height="40"/>
  <object id="84" name="pushblock" x="560" y="160" width="40" height="40"/>
  <object id="85" name="pushblock" x="280" y="200" width="40" height="40"/>
  <object id="86" name="pushblock" x="320" y="200" width="40" height="40"/>
  <object id="87" name="pushblock" x="360" y="200" width="40" height="40"/>
  <object id="88" name="pushblock" x="400" y="200" width="40" height="40"/>
  <object id="96" name="pushblock" x="360" y="360" width="40" height="40"/>
  <object id="97" name="interactable" x="200" y="360" width="40" height="40">
   <properties>
    <property name="cutscene" value="chapter1/garden.garden_warfare"/>
    <property name="solid" type="bool" value="true"/>
   </properties>
  </object>
  <object id="99" name="spike" gid="213" x="200" y="400" width="40" height="40"/>
  <object id="100" name="resetbell" x="560" y="200" width="40" height="40"/>
 </objectgroup>
 <objectgroup color="#0000ff" id="10" name="collision">
  <object id="33" x="40" y="160" width="40" height="320"/>
  <object id="34" x="80" y="480" width="200" height="40"/>
  <object id="35" x="240" y="520" width="40" height="120"/>
  <object id="36" x="400" y="480" width="40" height="160"/>
  <object id="37" x="440" y="480" width="160" height="40"/>
  <object id="38" x="600" y="160" width="40" height="320"/>
  <object id="39" x="80" y="120" width="200" height="40"/>
  <object id="40" x="400" y="120" width="200" height="40"/>
  <object id="41" x="240" y="40" width="40" height="80"/>
  <object id="42" x="280" y="0" width="120" height="40"/>
  <object id="43" x="400" y="40" width="40" height="80"/>
 </objectgroup>
 <objectgroup color="#ffff00" id="8" name="controllers">
  <object id="21" name="toggle" x="230" y="-50">
   <properties>
    <property name="flag" value="garden_ladder2"/>
    <property name="inverted" type="bool" value="true"/>
    <property name="target1" type="object" value="21"/>
    <property name="target2" type="object" value="19"/>
    <property name="target3" type="object" value="18"/>
    <property name="target4" type="object" value="17"/>
    <property name="target5" type="object" value="20"/>
    <property name="target6" type="object" value="99"/>
    <property name="target7" type="object" value="97"/>
    <property name="target8" type="object" value="65"/>
   </properties>
   <point/>
  </object>
 </objectgroup>
 <objectgroup color="#aa00ff" id="3" name="markers">
  <object id="3" name="entry" x="340" y="600">
   <properties>
    <property name="player_state" value="CLIMB"/>
   </properties>
   <point/>
  </object>
  <object id="11" x="340" y="520">
   <point/>
  </object>
 </objectgroup>
 <objectgroup color="#00ffff" id="12" name="blockcollision" locked="1">
  <object id="63" x="160" y="360" width="40" height="40"/>
  <object id="64" x="240" y="400" width="40" height="40"/>
  <object id="65" x="200" y="360" width="40" height="40"/>
  <object id="66" x="120" y="400" width="40" height="40"/>
  <object id="67" x="80" y="320" width="40" height="80"/>
  <object id="68" x="80" y="240" width="40" height="80"/>
  <object id="69" x="120" y="160" width="120" height="40"/>
  <object id="71" x="240" y="200" width="200" height="40"/>
  <object id="72" x="400" y="240" width="40" height="40"/>
  <object id="73" x="480" y="240" width="40" height="80"/>
  <object id="74" x="520" y="240" width="40" height="40"/>
  <object id="75" x="560" y="280" width="40" height="80"/>
  <object id="76" x="480" y="360" width="80" height="40"/>
  <object id="77" x="520" y="400" width="40" height="40"/>
  <object id="78" x="240" y="440" width="280" height="40"/>
  <object id="79" x="440" y="360" width="40" height="40"/>
  <object id="80" x="400" y="320" width="40" height="40"/>
  <object id="81" x="320" y="240" width="40" height="40"/>
  <object id="82" x="240" y="320" width="120" height="40"/>
  <object id="89" x="120" y="200" width="40" height="40"/>
  <object id="90" x="200" y="200" width="40" height="40"/>
  <object id="91" x="160" y="280" width="40" height="40"/>
  <object id="92" x="240" y="240" width="40" height="40"/>
  <object id="93" x="200" y="240" width="40" height="40"/>
  <object id="95" x="440" y="200" width="40" height="40"/>
 </objectgroup>
</map>
