<?xml version="1.0" encoding="UTF-8"?>
<map version="1.11" tiledversion="1.12.2" orientation="orthogonal" renderorder="right-down" width="32" height="18" tilewidth="40" tileheight="40" infinite="0" nextlayerid="11" nextobjectid="41">
 <editorsettings>
  <export target="garden_manor.lua" format="lua"/>
 </editorsettings>
 <properties>
  <property name="name" value="Garden - Ofer Manor"/>
 </properties>
 <tileset firstgid="1" source="../../../tilesets/garden.tsx"/>
 <tileset firstgid="101" source="../../../tilesets/farm_world_extras.tsx"/>
 <group id="8" name="deco" locked="1">
  <layer id="7" name="star" width="32" height="18" visible="0" parallaxx="0.5" parallaxy="0.5">
   <data encoding="csv">
3,3,3,3,3,3,3,3,3,3,3,3,3,3,3,3,3,3,3,3,3,3,3,3,3,3,3,3,3,3,3,3,
3,3,3,3,3,3,3,3,3,3,3,3,3,3,3,3,3,3,3,3,3,3,3,3,3,3,3,3,3,3,3,3,
3,3,3,3,3,3,3,3,3,3,3,3,3,3,3,3,3,3,3,14,3,3,3,3,3,3,3,3,3,3,3,3,
3,3,3,3,3,3,3,3,3,3,3,3,3,3,3,3,3,3,3,3,3,3,3,3,3,3,3,3,3,3,3,3,
3,3,3,3,3,3,13,3,3,3,3,4,3,3,3,3,3,3,3,3,11,3,14,3,3,3,3,3,3,3,3,3,
1,3,3,3,3,3,3,3,3,3,3,3,3,3,3,2,3,3,3,3,3,3,3,3,3,3,3,3,3,3,3,3,
3,3,3,3,3,3,3,3,3,3,3,13,3,3,3,3,3,3,3,3,3,3,3,3,3,3,3,3,3,3,3,3,
3,3,3,3,3,3,3,3,3,13,3,3,3,3,3,3,3,3,3,3,3,3,3,3,3,3,3,3,3,3,3,3,
3,3,3,3,3,3,3,3,3,3,3,3,3,3,3,3,3,3,3,3,3,3,3,3,3,3,3,3,3,3,3,3,
3,3,3,3,3,3,3,3,3,3,3,3,3,3,3,3,3,3,3,3,3,3,3,3,3,3,3,3,3,3,3,3,
0,0,0,0,0,0,0,0,0,0,0,0,0,0,0,0,0,0,0,0,0,0,0,0,0,0,0,0,0,0,0,0,
0,0,0,0,0,0,0,0,0,0,0,0,0,0,0,0,0,0,0,0,0,0,0,0,0,0,0,0,0,0,0,0,
0,0,0,0,0,0,0,0,0,0,0,0,0,0,0,0,0,0,0,0,0,0,0,0,0,0,0,0,0,0,0,0,
0,0,0,0,0,0,0,0,0,0,0,0,0,0,0,0,0,0,0,0,0,0,0,0,0,0,0,0,0,0,0,0,
0,0,0,0,0,0,0,0,0,0,0,0,0,0,0,0,0,0,0,0,0,0,0,0,0,0,0,0,0,0,0,0,
0,0,0,0,0,0,0,0,0,0,0,0,0,0,0,0,0,0,0,0,0,0,0,0,0,0,0,0,0,0,0,0,
0,0,0,0,0,0,0,0,0,0,0,0,0,0,0,0,0,0,0,0,0,0,0,0,0,0,0,0,0,0,0,0,
0,0,0,0,0,0,0,0,0,0,0,0,0,0,0,0,0,0,0,0,0,0,0,0,0,0,0,0,0,0,0,0
</data>
  </layer>
  <objectgroup id="10" name="objects_background" parallaxx="0.6" parallaxy="0.6">
   <object id="40" gid="125" x="190" y="210" width="38" height="32"/>
  </objectgroup>
  <objectgroup id="9" name="objects_midground" parallaxx="0.75" parallaxy="0.75">
   <object id="38" gid="122" x="100" y="130" width="66" height="50"/>
   <object id="39" gid="124" x="310" y="240" width="86" height="66"/>
  </objectgroup>
 </group>
 <layer id="1" name="Tile Layer 1" width="32" height="18">
  <data encoding="csv">
0,0,0,0,0,0,0,0,0,0,0,0,0,21,5,6,5,6,5,5,5,5,5,5,6,5,22,0,0,0,0,0,
0,0,0,0,0,0,0,0,0,0,0,0,0,6,5,5,5,5,6,5,5,5,6,5,5,5,5,0,0,0,0,0,
0,0,0,0,0,0,0,0,0,0,0,0,0,6,5,5,5,5,5,5,5,5,5,5,5,5,5,0,0,0,0,0,
0,0,0,0,0,0,0,0,0,0,0,0,0,5,5,6,5,5,5,5,6,5,6,5,5,5,5,0,0,0,0,0,
0,0,0,0,0,0,0,0,0,0,0,0,0,5,5,5,5,5,5,5,5,5,5,5,5,5,5,0,0,0,0,0,
0,0,0,0,0,0,0,0,0,0,0,0,0,5,5,5,5,5,5,5,5,5,5,5,5,6,5,0,0,0,0,0,
0,0,0,0,0,0,0,0,0,0,0,0,0,5,5,5,6,5,5,5,5,5,5,5,5,5,5,0,0,0,0,0,
0,0,0,0,0,0,0,0,0,0,0,0,0,6,5,5,5,5,5,5,6,6,5,5,5,6,6,0,0,0,0,0,
0,0,0,0,0,0,0,0,0,0,0,0,0,5,5,5,5,5,5,5,6,5,5,5,5,6,5,0,0,0,0,0,
15,15,15,15,15,15,15,15,15,15,16,15,16,5,5,5,5,5,5,5,5,6,6,6,5,5,5,15,15,15,15,15,
15,15,15,16,15,15,15,15,15,15,15,15,16,15,15,15,15,16,15,15,15,15,15,16,15,15,15,15,15,15,15,15,
37,37,37,37,38,37,37,37,37,37,37,37,37,37,37,37,37,37,37,37,37,37,38,37,37,37,37,38,37,37,37,37,
19,19,19,19,19,19,19,19,19,19,19,19,19,19,19,19,19,19,19,19,19,19,19,19,19,19,19,19,19,19,19,19,
29,29,29,29,29,29,29,29,29,29,29,29,29,29,29,29,29,29,29,29,29,29,29,29,29,29,29,29,29,29,29,29,
39,39,39,39,39,39,39,39,39,39,39,39,39,39,39,39,39,39,39,39,39,39,39,39,39,39,39,39,39,39,39,39,
49,49,49,49,49,49,49,49,49,49,49,49,49,49,49,49,49,49,49,49,49,49,49,49,49,49,49,49,49,49,49,49,
59,59,59,59,59,59,59,59,59,59,59,59,59,59,59,59,59,59,59,59,59,59,59,59,59,59,59,59,59,59,59,59,
0,0,0,0,0,0,0,0,0,0,0,0,0,0,0,0,0,0,0,0,0,0,0,0,0,0,0,0,0,0,0,0
</data>
 </layer>
 <objectgroup color="#0000ff" id="2" name="collision">
  <object id="1" x="0" y="480" width="1280" height="40"/>
  <object id="8" x="604" y="200" width="392" height="40"/>
  <object id="9" x="520" y="-40" width="560" height="40"/>
  <object id="10" x="480" y="0" width="40" height="360"/>
  <object id="11" x="0" y="320" width="480" height="40"/>
  <object id="12" x="1080" y="320" width="200" height="40"/>
  <object id="14" x="1080" y="0" width="40" height="320"/>
  <object id="15" x="604" y="0" width="36" height="200"/>
  <object id="16" x="960" y="0" width="36" height="200"/>
 </objectgroup>
 <objectgroup id="5" name="framing" locked="1">
  <object id="4" x="560" y="0" width="480" height="240"/>
 </objectgroup>
 <objectgroup color="#ff007f" id="3" name="objects_party">
  <object id="2" name="transition" x="-40" y="360" width="40" height="120">
   <properties>
    <property name="map" value="chapter1/farm_world/garden2"/>
    <property name="marker" value="to_manor"/>
   </properties>
  </object>
  <object id="5" gid="126" x="560" y="240" width="480" height="240"/>
  <object id="6" gid="127" x="560" y="240" width="480" height="240"/>
  <object id="17" name="script" x="200" y="360" width="40" height="120">
   <properties>
    <property name="cutscene" value="chapter1/garden.ofer_intro"/>
    <property name="once" type="bool" value="true"/>
   </properties>
  </object>
  <object id="32" name="interactable" x="740" y="200" width="120" height="40">
   <properties>
    <property name="cutscene" value="chapter1/garden.manor_entrance"/>
   </properties>
  </object>
  <object id="33" name="transition" x="1280" y="360" width="40" height="120">
   <properties>
    <property name="map" value="chapter1/farm_world/garden_manorladders"/>
    <property name="marker" value="to_manor"/>
   </properties>
  </object>
  <object id="36" name="savepoint" x="780" y="340" width="40" height="40">
   <properties>
    <property name="heals" type="bool" value="true"/>
    <property name="marker" value="vess_walkback"/>
    <property name="text1" value="* (Tofer has joined your party.)"/>
    <property name="text2" value="* (This development fills you with the power of...)"/>
    <property name="text3" value="* (...[wait:5] of...[wait:5] uh...)"/>
    <property name="text_once" type="bool" value="true"/>
   </properties>
  </object>
 </objectgroup>
 <objectgroup color="#aa00ff" id="4" name="markers">
  <object id="3" name="to_garden2" x="40" y="420">
   <point/>
  </object>
  <object id="18" name="grace_spawn" x="860" y="420">
   <point/>
  </object>
  <object id="19" name="spawn" x="120" y="420">
   <point/>
  </object>
  <object id="20" name="vess_target" x="740" y="420">
   <point/>
  </object>
  <object id="21" name="vess_walkback" x="720" y="420">
   <point/>
  </object>
  <object id="22" name="tofer_spawn" x="1200" y="280">
   <point/>
  </object>
  <object id="23" name="tofer_slide" x="800" y="280">
   <point/>
  </object>
  <object id="24" name="tofer_teleport" x="720" y="280">
   <point/>
  </object>
  <object id="25" name="sofer_spawn" x="800" y="160">
   <point/>
  </object>
  <object id="26" name="sofer_slide" x="800" y="300">
   <point/>
  </object>
  <object id="27" name="grace_run" x="860" y="300">
   <point/>
  </object>
  <object id="29" name="final_slide" x="1200" y="300">
   <point/>
  </object>
  <object id="30" name="tofer_final" x="800" y="420">
   <point/>
  </object>
  <object id="34" name="to_ladders" x="1240" y="420">
   <point/>
  </object>
 </objectgroup>
 <objectgroup color="#ffff00" id="6" name="controllers">
  <object id="31" name="toggle" x="890" y="-90">
   <properties>
    <property name="flag" value="manor_seen"/>
    <property name="inverted" type="bool" value="true"/>
    <property name="target1" type="object" value="6"/>
   </properties>
   <point/>
  </object>
  <object id="37" name="toggle" x="990" y="-80">
   <properties>
    <property name="flag" value="manor_seen"/>
    <property name="inverted" type="bool" value="false"/>
    <property name="target1" type="object" value="36"/>
   </properties>
   <point/>
  </object>
 </objectgroup>
</map>
