<?xml version="1.0" encoding="UTF-8"?>
<map version="1.11" tiledversion="1.12.2" orientation="orthogonal" renderorder="right-down" width="20" height="15" tilewidth="40" tileheight="40" infinite="0" nextlayerid="5" nextobjectid="1">
 <tileset firstgid="1" source="../../../tilesets/garden.tsx"/>
 <tileset firstgid="101" source="../../../tilesets/orchard.tsx"/>
 <layer id="1" name="Camada de Blocos 1" width="20" height="15">
  <data encoding="csv">
2147483653,2147483653,2147483653,2147483653,2147483653,2147483653,2147483653,2147483653,2147483653,2147483653,2147483653,2147483653,2147483653,2147483653,2147483653,2147483653,2147483653,2147483653,2147483653,2147483653,
2147483653,2147483653,2147483653,2147483653,2147483653,2147483653,2147483653,2147483653,2147483653,2147483653,2147483653,2147483653,2147483653,2147483653,2147483653,2147483653,2147483653,2147483653,2147483653,2147483653,
2147483653,2147483653,2147483653,2147483653,2147483653,2147483653,2147483653,2147483653,2147483653,2147483653,2147483653,2147483653,2147483653,2147483653,2147483653,2147483653,2147483653,2147483653,2147483653,2147483653,
2147483653,2147483653,2147483653,2147483653,2147483653,2147483653,2147483653,2147483653,2147483653,2147483653,2147483653,2147483653,2147483653,2147483653,2147483653,2147483653,2147483653,2147483653,2147483653,2147483653,
2147483653,2147483653,2147483653,2147483653,2147483653,2147483653,2147483653,2147483653,2147483653,2147483653,2147483653,2147483653,2147483653,2147483653,2147483653,2147483653,2147483653,2147483653,2147483653,2147483653,
2147483653,2147483653,2147483653,2147483653,2147483653,2147483653,2147483665,2147483665,2147483665,2147483665,2147483653,2147483653,2147483653,2147483653,2147483653,2147483653,2147483653,2147483653,2147483653,2147483653,
2147483653,2147483653,2147483653,2147483653,2147483653,2147483665,2147483665,2147483665,2147483665,2147483665,2147483665,2147483653,2147483653,2147483653,2147483653,2147483653,2147483653,2147483653,2147483653,2147483653,
2147483653,2147483653,2147483653,2147483653,2147483653,2147483665,2147483665,2147483665,2147483665,2147483665,2147483665,2147483665,2147483665,2147483653,2147483653,2147483653,2147483653,2147483665,2147483665,2147483665,
2147483653,2147483653,2147483653,2147483653,2147483653,2147483665,2147483665,2147483665,2147483665,2147483665,2147483665,2147483665,2147483665,2147483665,2147483665,2147483665,2147483665,2147483665,2147483665,2147483653,
2147483653,2147483653,2147483653,2147483653,2147483653,2147483665,2147483665,2147483665,2147483665,2147483665,2147483665,2147483665,2147483653,2147483665,2147483665,2147483653,2147483653,2147483653,2147483653,2147483653,
2147483653,2147483653,2147483653,2147483653,2147483653,2147483653,2147483665,2147483665,2147483665,2147483665,2147483665,2147483653,2147483653,2147483653,2147483653,2147483653,2147483653,2147483653,2147483653,2147483653,
2147483653,2147483653,2147483653,2147483653,2147483653,2147483653,2147483653,2147483653,2147483653,2147483653,2147483653,2147483653,2147483653,2147483653,2147483653,2147483653,2147483653,2147483653,2147483653,2147483653,
2147483653,2147483653,2147483653,2147483653,2147483653,2147483653,2147483653,2147483653,2147483653,2147483653,2147483653,2147483653,2147483653,2147483653,2147483653,2147483653,2147483653,2147483653,2147483653,2147483653,
2147483653,2147483653,2147483653,2147483653,2147483653,2147483653,2147483653,2147483653,2147483653,2147483653,2147483653,2147483653,2147483653,2147483653,2147483653,2147483653,2147483653,2147483653,2147483653,2147483653,
2147483653,2147483653,2147483653,2147483653,2147483653,2147483653,2147483653,2147483653,2147483653,2147483653,2147483653,2147483653,2147483653,2147483653,2147483653,2147483653,2147483653,2147483653,2147483653,2147483653
</data>
 </layer>
 <layer id="2" name="Camada de Blocos 2" width="20" height="15">
  <data encoding="csv">
2147483761,2147483760,2147483761,2147483760,2147483761,2147483760,2147483761,2147483760,2147483761,2147483760,2147483761,2147483760,2147483761,2147483760,2147483761,2147483760,2147483761,2147483760,2147483761,2147483760,
2147483771,2147483770,2147483771,2147483770,2147483771,2147483770,2147483771,2147483770,2147483771,2147483770,2147483771,2147483770,2147483771,2147483770,2147483771,2147483770,2147483771,2147483770,2147483771,2147483770,
2147483831,2147483830,2147483831,2147483830,2147483831,2147483830,2147483831,2147483830,2147483831,2147483830,2147483831,2147483830,2147483831,2147483830,2147483761,2147483760,2147483761,2147483760,2147483761,2147483760,
2147483841,2147483840,2147483841,2147483840,2147483841,2147483840,2147483841,2147483840,2147483841,2147483840,2147483841,2147483840,2147483841,2147483840,2147483771,2147483770,2147483771,2147483770,2147483771,2147483770,
0,0,0,0,0,0,0,0,0,0,0,0,0,0,2147483831,2147483830,2147483831,2147483830,2147483831,2147483830,
0,0,0,0,0,0,0,0,0,0,0,0,0,0,2147483841,2147483840,2147483841,2147483840,2147483841,2147483840,
0,0,0,0,0,0,0,0,0,0,0,0,0,0,0,0,0,0,0,0,
0,0,0,0,0,0,0,0,0,0,0,0,0,0,0,0,0,0,0,0,
0,0,0,0,0,0,0,0,0,0,0,0,0,0,0,0,0,0,0,0,
0,0,0,0,0,0,0,0,0,0,0,0,0,0,0,0,0,0,0,0,
0,0,0,0,0,0,0,0,0,0,0,0,0,0,0,0,0,2147483750,0,0,
0,0,0,0,0,0,0,0,0,0,0,2147483820,0,0,0,0,0,0,0,0,
0,0,0,0,0,0,0,0,0,0,0,0,0,0,0,0,0,0,0,0,
0,0,0,0,0,0,0,0,0,0,0,0,0,0,0,0,0,0,0,0,
0,0,0,0,0,0,0,0,0,0,0,0,0,0,0,0,0,0,0,0
</data>
 </layer>
 <layer id="4" name="Camada de Blocos 4" width="20" height="15">
  <data encoding="csv">
0,0,0,0,0,0,0,0,0,0,0,0,0,0,0,0,0,0,0,0,
2147483838,2147483835,2147483838,2147483838,2147483836,2147483847,2147483848,2147483846,2147483837,2147483838,2147483848,2147483838,2147483835,2147483836,0,0,0,0,0,0,
2147483848,2147483838,2147483846,2147483837,2147483837,2147483846,2147483847,2147483835,2147483835,2147483848,2147483836,2147483848,2147483848,2147483836,0,0,0,0,0,0,
0,0,0,0,0,0,0,0,0,0,0,0,0,0,0,0,0,0,0,0,
0,0,0,0,0,0,0,0,0,0,0,0,0,0,0,0,0,0,0,0,
0,0,0,0,0,0,0,0,0,0,0,0,0,0,0,0,0,0,0,0,
0,0,0,0,0,0,0,0,0,0,0,0,0,0,0,0,0,0,0,0,
0,0,0,0,0,0,0,0,0,0,0,0,0,0,0,0,0,0,0,0,
0,0,0,0,0,0,0,0,0,0,0,0,0,0,0,0,0,2147483752,2147483821,2147483820,
0,0,0,0,0,0,0,0,0,0,0,0,0,0,0,0,0,2147483762,2147483761,2147483760,
0,0,0,0,0,0,0,0,0,0,0,2147483822,2147483821,2147483820,2147483821,2147483820,2147483821,2147483762,2147483771,2147483770,
2147483821,2147483820,2147483821,2147483820,2147483821,2147483820,2147483821,2147483820,2147483821,2147483820,2147483821,2147483832,2147483761,2147483760,2147483761,2147483760,2147483761,2147483760,2147483761,2147483760,
2147483771,2147483770,2147483771,2147483770,2147483771,2147483770,2147483771,2147483770,2147483771,2147483770,2147483771,2147483770,2147483771,2147483770,2147483771,2147483770,2147483771,2147483770,2147483771,2147483770,
2147483761,2147483760,2147483761,2147483760,2147483761,2147483760,2147483761,2147483760,2147483761,2147483760,2147483761,2147483760,2147483761,2147483760,2147483761,2147483760,2147483761,2147483760,2147483761,2147483760,
2147483771,2147483770,2147483771,2147483770,2147483771,2147483770,2147483771,2147483770,2147483771,2147483770,2147483771,2147483770,2147483771,2147483770,2147483771,2147483770,2147483771,2147483770,2147483771,2147483770
</data>
 </layer>
 <layer id="3" name="Camada de Blocos 3" width="20" height="15">
  <data encoding="csv">
0,0,0,0,0,0,0,0,0,0,0,0,0,0,0,0,0,0,0,2147483752,
0,0,0,0,0,0,0,0,0,0,0,0,0,0,0,0,0,0,0,0,
0,0,0,0,0,0,0,0,0,0,0,0,2147483752,2147483762,0,0,0,0,0,0,
0,0,0,0,0,0,0,0,0,0,0,0,0,2147483772,2147483847,2147483837,2147483836,2147483848,2147483835,2147483845,
0,0,0,0,0,0,0,0,0,0,0,0,0,2147483832,2147483846,2147483835,2147483836,2147483838,2147483837,2147483838,
0,0,0,0,0,0,0,0,0,0,0,0,0,0,0,0,0,0,0,0,
0,0,0,0,0,0,0,0,0,0,0,0,0,0,0,0,0,0,0,0,
0,0,0,0,0,0,0,0,0,0,0,0,0,0,0,0,0,0,0,0,
0,0,0,0,0,0,0,0,0,0,0,0,0,0,0,0,0,0,0,0,
0,0,0,0,0,0,0,0,0,0,0,0,0,0,0,0,0,0,0,0,
0,0,0,0,0,0,0,0,0,0,0,0,0,0,0,0,0,0,0,0,
0,0,0,0,0,0,0,0,0,0,0,0,0,0,0,0,0,0,0,0,
0,0,0,0,0,0,0,0,0,0,0,0,0,0,0,0,0,0,0,0,
0,0,0,0,0,0,0,0,0,0,0,0,0,0,0,0,0,0,0,0,
0,0,0,0,0,0,0,0,0,0,0,0,0,0,0,0,0,0,0,0
</data>
 </layer>
</map>
