<?xml version="1.0" encoding="UTF-8"?>
<map version="1.10" tiledversion="1.12.2" orientation="orthogonal" renderorder="right-down" width="20" height="15" tilewidth="40" tileheight="40" infinite="0" nextlayerid="13" nextobjectid="24">
 <editorsettings>
  <export target="garden_orchard_rabbit/data.lua" format="lua"/>
 </editorsettings>
 <properties>
  <property name="music" value="orchard_wip"/>
 </properties>
 <tileset firstgid="1" source="../../../tilesets/garden.tsx"/>
 <tileset firstgid="101" source="../../../tilesets/orchard.tsx"/>
 <tileset firstgid="201" source="../../../tilesets/orchard_extras.tsx"/>
 <layer id="1" name="Camada de Blocos 1" width="20" height="15">
  <data encoding="csv">
5,5,5,5,5,5,5,5,5,5,5,5,5,5,5,5,5,5,5,5,
5,5,5,5,5,5,5,5,5,5,5,5,5,5,5,5,5,5,5,5,
5,5,5,5,5,5,5,5,5,5,5,5,5,5,5,5,5,5,5,5,
5,5,5,5,5,5,5,5,5,5,5,5,5,5,5,5,5,5,5,5,
5,5,5,5,5,5,5,5,5,5,5,5,5,5,5,5,5,5,5,5,
5,5,5,5,5,5,5,5,5,5,17,17,17,17,5,5,5,5,5,5,
5,5,5,5,5,5,5,5,5,17,17,17,17,17,17,5,5,5,5,5,
17,17,17,5,5,5,5,17,17,17,17,17,17,17,17,5,5,5,5,5,
5,17,17,17,17,17,17,17,17,17,17,17,17,17,17,5,5,5,5,5,
5,5,5,5,5,17,17,5,17,17,17,17,17,17,17,5,5,5,5,5,
5,5,5,5,5,5,5,5,5,17,17,17,17,17,5,5,5,5,5,5,
5,5,5,5,5,5,5,5,5,5,5,5,5,5,5,5,5,5,5,5,
5,5,5,5,5,5,5,5,5,5,5,5,5,5,5,5,5,5,5,5,
5,5,5,5,5,5,5,5,5,5,5,5,5,5,5,5,5,5,5,5,
5,5,5,5,5,5,5,5,5,5,5,5,5,5,5,5,5,5,5,5
</data>
 </layer>
 <layer id="10" name="backtrees" width="20" height="15">
  <data encoding="csv">
0,0,0,0,0,0,0,0,0,0,0,0,0,0,0,0,0,0,0,0,
0,0,0,0,0,0,0,0,0,0,0,0,0,0,0,0,0,0,0,0,
0,0,0,0,0,0,185,186,185,186,185,186,185,186,185,186,185,186,0,0,
0,0,0,0,0,0,195,196,195,196,195,196,195,196,195,196,195,196,0,0,
185,186,185,186,185,0,0,0,0,0,0,0,0,0,0,0,0,0,0,0,
195,196,195,196,195,0,0,0,0,0,0,0,0,0,0,0,0,0,0,0,
0,0,0,0,0,0,0,0,0,0,0,0,0,0,0,0,0,0,0,0,
0,0,0,0,0,0,0,0,0,0,0,0,0,0,0,0,0,0,0,0,
0,0,0,0,0,0,0,0,0,0,0,0,0,0,0,0,0,0,0,0,
0,0,0,0,0,0,0,0,0,0,0,0,0,0,0,0,0,0,0,0,
0,0,0,0,0,0,0,0,0,0,0,0,0,0,0,0,0,0,0,0,
0,0,0,0,0,0,0,0,0,0,0,0,0,0,0,0,0,0,0,0,
0,0,0,0,0,0,0,0,0,0,0,0,0,0,0,0,0,0,0,0,
0,0,0,0,0,0,0,0,0,0,0,0,0,0,0,0,0,0,0,0,
0,0,0,0,0,0,0,0,0,0,0,0,0,0,0,0,0,0,0,0
</data>
 </layer>
 <layer id="2" name="trees" width="20" height="15">
  <data encoding="csv">
112,113,112,113,112,113,112,113,112,113,112,113,112,113,112,113,112,113,112,113,
122,123,122,123,122,123,122,123,122,123,122,123,122,123,122,123,122,123,122,123,
112,113,112,113,112,113,182,183,182,183,182,183,182,183,182,183,182,183,182,183,
122,123,122,123,122,123,192,193,192,193,192,193,192,193,192,193,192,193,192,193,
182,183,182,183,182,183,184,0,0,0,0,0,0,0,0,0,0,0,0,0,
192,193,192,193,192,193,0,0,0,0,0,0,0,0,0,0,0,0,0,0,
0,0,0,0,0,0,0,0,0,0,0,0,0,0,0,0,0,0,0,0,
0,0,0,0,0,0,0,0,0,0,0,0,0,0,0,0,0,0,0,0,
0,0,0,0,0,0,0,0,0,0,0,0,0,0,0,0,0,0,0,0,
0,0,0,0,0,0,0,0,0,0,0,0,0,0,0,0,0,0,0,0,
0,0,0,0,0,0,0,0,0,0,0,0,0,0,0,0,0,0,0,0,
0,0,0,0,0,0,0,0,0,0,0,0,0,0,0,0,0,0,0,0,
0,0,0,0,0,0,0,0,0,0,0,0,0,0,0,0,0,0,0,0,
0,0,0,0,0,0,0,0,0,0,0,0,0,0,0,0,0,0,0,0,
0,0,0,0,0,0,0,0,0,0,0,0,0,0,0,0,0,0,0,0
</data>
 </layer>
 <layer id="9" name="apples" width="20" height="15">
  <data encoding="csv">
0,0,0,0,0,0,0,0,0,0,0,0,0,0,0,0,0,0,0,0,
0,0,0,0,0,0,188,187,190,200,190,189,198,200,199,188,190,190,0,0,
0,0,0,0,0,0,188,200,200,188,200,187,187,199,198,189,189,0,0,0,
197,187,200,188,189,199,0,0,0,0,0,0,0,0,0,0,0,0,0,0,
190,189,190,188,187,198,0,0,0,0,0,0,0,0,0,0,0,0,0,0,
0,0,0,0,0,0,0,0,0,0,0,0,0,0,0,0,0,0,0,0,
0,0,0,0,0,0,0,0,0,0,0,0,0,0,0,0,0,0,0,0,
0,0,0,0,0,0,0,0,0,0,0,0,0,0,0,0,0,0,0,0,
0,0,0,0,0,0,0,0,0,0,0,0,0,0,0,0,0,0,0,0,
0,0,0,0,0,0,0,0,0,0,0,0,0,0,0,0,0,0,0,0,
0,0,0,0,0,0,0,0,0,0,0,0,0,0,0,0,0,0,0,0,
0,0,0,0,0,0,0,0,0,0,0,0,0,0,0,0,0,0,0,0,
0,0,0,0,0,0,0,0,0,0,0,0,0,0,0,0,0,0,0,0,
0,0,0,0,0,0,0,0,0,0,0,0,0,0,0,0,0,0,0,0,
0,0,0,0,0,0,0,0,0,0,0,0,0,0,0,0,0,0,0,0
</data>
 </layer>
 <objectgroup color="#ff007f" id="6" name="objects_party">
  <object id="2" name="transition" x="-40" y="240" width="40" height="120">
   <properties>
    <property name="map" value="chapter1/farm_world/garden_orchard_maze"/>
    <property name="marker" value="to_rabbit"/>
   </properties>
  </object>
  <object id="15" name="script" x="200" y="200.125" width="40" height="239.693">
   <properties>
    <property name="cutscene" value="chapter1/orchard.rabbit"/>
    <property name="once" type="bool" value="true"/>
   </properties>
  </object>
  <object id="16" name="npc" x="420" y="280" width="40" height="40">
   <properties>
    <property name="actor" value="bluebunny"/>
    <property name="animation" value="stool"/>
    <property name="cutscene" value="chapter1/orchard.rabbit_talk"/>
    <property name="solid" type="bool" value="true"/>
    <property name="talk" type="bool" value="false"/>
   </properties>
  </object>
  <object id="13" gid="203" x="480" y="360" width="150.949" height="391.577"/>
  <object id="17" name="chest" x="520" y="270" width="40" height="40">
   <properties>
    <property name="item" value="axe_piece"/>
   </properties>
  </object>
  <object id="20" name="interactable" x="180" y="320" width="370" height="110">
   <properties>
    <property name="solid" type="bool" value="true"/>
    <property name="text1_1" value="* (A fallen tower...)"/>
    <property name="text2_1" value="* (...)"/>
   </properties>
  </object>
  <object id="22" name="interactable" x="480" y="290" width="140" height="50">
   <properties>
    <property name="solid" type="bool" value="true"/>
    <property name="text1_1" value="* (Arisen tower...)"/>
    <property name="text2_1" value="* (..!)"/>
   </properties>
  </object>
 </objectgroup>
 <layer id="4" name="edge" width="20" height="15">
  <data encoding="csv">
0,0,0,0,0,0,0,0,0,0,0,0,0,0,0,0,0,0,112,113,
0,0,0,0,0,0,0,0,0,0,0,0,0,0,0,0,0,0,122,123,
0,0,0,0,0,0,0,0,0,0,0,0,0,0,0,0,0,121,112,113,
0,0,0,0,0,0,0,0,0,0,0,0,0,0,0,0,0,111,122,123,
0,0,0,0,0,0,0,0,0,0,0,0,0,0,0,0,0,121,112,113,
0,0,0,0,0,0,0,0,0,0,0,0,0,0,0,0,0,111,122,123,
0,0,0,0,0,0,0,0,0,0,0,0,0,0,0,0,0,121,112,113,
0,0,0,0,0,0,0,0,0,0,0,0,0,0,0,0,0,111,122,123,
172,173,104,0,0,0,0,0,0,0,0,0,0,0,0,0,0,121,112,113,
112,113,114,0,0,0,0,0,0,0,0,0,0,0,0,0,0,111,122,123,
122,123,142,173,172,173,172,173,174,0,0,0,0,0,0,0,0,121,112,113,
112,113,112,113,112,113,112,113,142,173,172,173,172,173,172,173,172,143,122,123,
122,123,122,123,122,123,122,123,122,123,122,123,122,123,122,123,122,123,122,123,
112,113,112,113,112,113,112,113,112,113,112,113,112,113,112,113,112,113,112,113,
122,123,122,123,122,123,122,123,122,123,122,123,122,123,122,123,122,123,122,123
</data>
 </layer>
 <layer id="3" name="edge 2" width="20" height="15">
  <data encoding="csv">
0,0,0,0,0,0,0,0,0,0,0,0,0,0,0,0,0,0,0,0,
0,0,0,0,0,0,0,0,0,0,0,0,0,0,0,0,0,0,0,0,
0,0,0,0,0,0,114,0,0,0,0,0,0,0,0,0,0,0,0,0,
0,0,0,0,0,0,124,0,0,0,0,0,0,0,0,0,0,0,0,0,
0,0,0,0,0,198,0,0,0,0,0,0,0,0,0,0,0,0,0,0,
0,0,0,0,0,0,0,0,0,0,0,0,0,0,0,0,0,0,0,0,
0,0,0,0,0,0,0,0,0,0,0,0,0,0,0,0,0,0,0,0,
0,0,0,0,0,0,0,0,0,0,0,0,0,0,0,0,0,0,0,0,
0,0,0,0,0,0,0,0,0,0,0,0,0,0,0,0,0,0,0,0,
0,0,0,0,0,0,0,0,0,0,0,0,0,0,0,0,0,0,0,0,
0,0,0,0,0,0,0,0,0,0,0,0,0,0,0,0,0,0,0,0,
0,0,0,0,0,0,0,0,0,0,0,0,0,0,0,0,0,0,0,0,
0,0,0,0,0,0,0,0,0,0,0,0,0,0,0,0,0,0,0,0,
0,0,0,0,0,0,0,0,0,0,0,0,0,0,0,0,0,0,0,0,
0,0,0,0,0,0,0,0,0,0,0,0,0,0,0,0,0,0,0,0
</data>
 </layer>
 <objectgroup color="#0000ff" id="7" name="collision">
  <object id="3" x="0" y="160" width="240" height="40"/>
  <object id="4" x="200" y="60" width="40" height="100"/>
  <object id="5" x="240" y="80" width="480" height="50"/>
  <object id="6" x="720" y="80" width="40" height="400"/>
  <object id="7" x="320" y="480" width="400" height="40"/>
  <object id="8" x="80" y="440" width="240" height="40"/>
  <object id="9" x="40" y="400" width="40" height="80"/>
  <object id="10" x="0" y="360" width="80" height="40"/>
 </objectgroup>
 <objectgroup id="12" name="controllers">
  <object id="19" name="toggle" x="450" y="-40">
   <properties>
    <property name="flag" value="jenga_tower_fell"/>
    <property name="inverted" type="bool" value="false"/>
    <property name="target1" type="object" value="20"/>
    <property name="value" type="int" value="1"/>
   </properties>
   <point/>
  </object>
  <object id="21" name="toggle" x="530" y="-100">
   <properties>
    <property name="flag" value="jenga_tower_fell"/>
    <property name="inverted" type="bool" value="false"/>
    <property name="target1" type="object" value="22"/>
    <property name="value" type="int" value="2"/>
   </properties>
   <point/>
  </object>
 </objectgroup>
 <objectgroup color="#aa00ff" id="5" name="markers">
  <object id="1" name="spawn" x="40" y="300">
   <point/>
  </object>
 </objectgroup>
 <objectgroup id="11" name="objects"/>
</map>
