<?xml version="1.0" encoding="UTF-8"?>
<map version="1.11" tiledversion="1.12.2" orientation="orthogonal" renderorder="right-down" width="35" height="15" tilewidth="40" tileheight="40" infinite="0" nextlayerid="11" nextobjectid="37">
 <editorsettings>
  <export target="garden_orchard_paint.lua" format="lua"/>
 </editorsettings>
 <properties>
  <property name="music" value="orchard_wip"/>
 </properties>
 <tileset firstgid="1" source="../../../tilesets/garden.tsx"/>
 <tileset firstgid="101" source="../../../tilesets/orchard.tsx"/>
 <tileset firstgid="201" source="../../../tilesets/orchard_extras.tsx"/>
 <layer id="1" name="Camada de Blocos 1" width="35" height="15">
  <data encoding="csv">
2147483653,2147483653,2147483653,2147483653,2147483653,2147483653,2147483653,2147483653,2147483653,2147483653,2147483653,2147483653,2147483653,2147483653,2147483653,2147483653,2147483653,2147483653,2147483653,2147483653,2147483653,2147483653,2147483653,2147483653,2147483653,2147483653,2147483653,2147483653,2147483653,2147483653,2147483653,2147483653,2147483653,2147483653,2147483653,
2147483653,2147483653,2147483653,2147483653,2147483653,2147483653,2147483653,2147483653,2147483653,2147483653,2147483653,2147483653,2147483653,2147483653,2147483653,2147483653,2147483653,2147483653,2147483653,2147483653,2147483653,2147483653,2147483653,2147483653,2147483653,2147483653,2147483653,2147483653,2147483653,2147483653,2147483653,2147483653,2147483653,2147483653,2147483653,
2147483653,2147483653,2147483653,2147483653,2147483653,2147483653,2147483653,2147483653,2147483653,2147483653,2147483653,2147483653,2147483653,2147483653,2147483653,2147483653,2147483653,2147483653,2147483653,2147483653,2147483653,2147483653,2147483653,2147483653,2147483653,2147483653,2147483653,2147483653,2147483653,2147483653,2147483653,2147483653,2147483653,2147483653,2147483653,
2147483653,2147483653,2147483653,2147483653,2147483653,2147483653,2147483653,2147483653,2147483653,2147483653,2147483653,2147483653,2147483653,2147483653,2147483653,2147483653,2147483653,2147483653,2147483653,2147483653,2147483653,2147483653,2147483653,2147483653,2147483653,2147483653,2147483653,2147483653,2147483653,2147483653,2147483653,2147483653,2147483653,2147483653,2147483653,
2147483653,2147483653,2147483653,2147483653,2147483653,2147483653,2147483653,2147483653,2147483653,2147483653,2147483653,2147483653,2147483653,2147483653,2147483653,2147483653,2147483653,2147483653,2147483653,2147483653,2147483653,2147483653,2147483653,2147483653,2147483653,2147483653,2147483653,2147483653,2147483653,2147483653,2147483653,2147483653,2147483653,2147483653,2147483653,
2147483653,2147483653,2147483653,2147483665,2147483665,2147483665,2147483665,2147483665,2147483665,2147483665,2147483665,2147483653,2147483653,2147483653,2147483653,2147483653,2147483653,2147483653,2147483653,2147483653,2147483653,2147483653,2147483653,2147483653,2147483653,2147483653,2147483653,2147483653,2147483653,2147483653,2147483653,2147483653,2147483653,2147483653,2147483653,
2147483653,2147483653,2147483653,2147483665,2147483665,2147483665,2147483665,2147483665,2147483665,2147483665,2147483665,2147483665,2147483665,2147483665,2147483665,2147483653,2147483653,2147483653,2147483653,2147483653,2147483653,2147483653,2147483653,2147483653,2147483653,2147483653,2147483653,2147483653,2147483653,2147483653,2147483653,2147483653,2147483653,2147483653,2147483653,
2147483653,2147483653,2147483653,2147483665,2147483665,2147483665,2147483665,2147483665,2147483665,2147483665,2147483665,2147483665,2147483665,2147483665,2147483665,2147483665,2147483665,2147483665,2147483665,2147483665,2147483665,2147483665,2147483665,2147483665,2147483665,2147483665,2147483665,2147483665,2147483665,2147483665,2147483665,2147483665,2147483665,2147483665,2147483665,
2147483653,2147483653,2147483653,2147483665,2147483665,2147483665,2147483665,2147483665,2147483665,2147483665,2147483665,2147483665,2147483665,2147483665,2147483665,2147483665,2147483665,2147483665,2147483665,2147483653,2147483653,2147483653,2147483653,2147483653,2147483653,2147483653,2147483653,2147483653,2147483653,2147483653,2147483653,2147483653,2147483653,2147483653,2147483653,
2147483653,2147483653,2147483653,2147483665,2147483665,2147483665,2147483665,2147483665,2147483665,2147483665,2147483665,2147483665,2147483665,2147483665,2147483665,2147483653,2147483653,2147483653,2147483653,2147483653,2147483653,2147483653,2147483653,2147483653,2147483653,2147483653,2147483653,2147483653,2147483653,2147483653,2147483653,2147483653,2147483653,2147483653,2147483653,
2147483653,2147483653,2147483653,2147483653,2147483653,2147483653,2147483665,2147483665,2147483665,2147483665,2147483665,2147483653,2147483653,2147483653,2147483653,2147483653,2147483653,2147483653,2147483653,2147483653,2147483653,2147483653,2147483653,2147483653,2147483653,2147483653,2147483653,2147483653,2147483653,2147483653,2147483653,2147483653,2147483653,2147483653,2147483653,
2147483653,2147483653,2147483653,2147483653,2147483653,2147483653,2147483653,2147483653,2147483653,2147483653,2147483653,2147483653,2147483653,2147483653,2147483653,2147483653,2147483653,2147483653,2147483653,2147483653,2147483653,2147483653,2147483653,2147483653,2147483653,2147483653,2147483653,2147483653,2147483653,2147483653,2147483653,2147483653,2147483653,2147483653,2147483653,
2147483653,2147483653,2147483653,2147483653,2147483653,2147483653,2147483653,2147483653,2147483653,2147483653,2147483653,2147483653,2147483653,2147483653,2147483653,2147483653,2147483653,2147483653,2147483653,2147483653,2147483653,2147483653,2147483653,2147483653,2147483653,2147483653,2147483653,2147483653,2147483653,2147483653,2147483653,2147483653,2147483653,2147483653,2147483653,
2147483653,2147483653,2147483653,2147483653,2147483653,2147483653,2147483653,2147483653,2147483653,2147483653,2147483653,2147483653,2147483653,2147483653,2147483653,2147483653,2147483653,2147483653,2147483653,2147483653,2147483653,2147483653,2147483653,2147483653,2147483653,2147483653,2147483653,2147483653,2147483653,2147483653,2147483653,2147483653,2147483653,2147483653,2147483653,
2147483653,2147483653,2147483653,2147483653,2147483653,2147483653,2147483653,2147483653,2147483653,2147483653,2147483653,2147483653,2147483653,2147483653,2147483653,2147483653,2147483653,2147483653,2147483653,2147483653,2147483653,2147483653,2147483653,2147483653,2147483653,2147483653,2147483653,2147483653,2147483653,2147483653,2147483653,2147483653,2147483653,2147483653,2147483653
</data>
 </layer>
 <layer id="5" name="backtree" width="35" height="15">
  <data encoding="csv">
0,0,0,0,0,0,0,0,0,0,0,0,0,0,0,0,0,0,0,0,0,0,0,0,0,0,0,0,0,0,0,0,0,0,0,
0,0,0,0,0,0,0,0,0,0,0,0,0,0,0,0,0,0,0,0,0,0,0,0,0,0,0,0,0,0,0,0,0,0,0,
185,186,185,186,185,186,185,186,185,186,185,186,185,186,185,186,0,0,0,0,0,0,0,0,0,0,0,0,0,0,0,0,0,0,0,
195,196,195,196,195,196,195,196,195,196,195,196,195,196,195,196,0,0,0,0,0,0,0,0,0,0,0,0,0,0,0,0,0,0,0,
0,0,0,0,0,0,0,0,0,0,0,0,0,0,0,0,0,186,185,186,185,186,185,186,185,186,185,186,185,186,185,186,185,186,185,
0,0,0,0,0,0,0,0,0,0,0,0,0,0,0,0,0,196,195,196,195,196,195,196,195,196,195,196,195,196,195,196,195,196,195,
0,0,0,0,0,0,0,0,0,0,0,0,0,0,0,0,0,0,0,0,0,0,0,0,0,0,0,0,0,0,0,0,0,0,0,
0,0,0,0,0,0,0,0,0,0,0,0,0,0,0,0,0,0,0,0,0,0,0,0,0,0,0,0,0,0,0,0,0,0,0,
0,0,0,0,0,0,0,0,0,0,0,0,0,0,0,0,0,0,0,0,0,0,0,0,0,0,0,0,0,0,0,0,0,0,0,
0,0,0,0,0,0,0,0,0,0,0,0,0,0,0,0,0,0,0,0,0,0,0,0,0,0,0,0,0,0,0,0,0,0,0,
0,0,0,0,0,0,0,0,0,0,0,0,0,0,0,0,0,0,0,0,0,0,0,0,0,0,0,0,0,0,0,0,0,0,0,
0,0,0,0,0,0,0,0,0,0,0,0,0,0,0,0,0,0,0,0,0,0,0,0,0,0,0,0,0,0,0,0,0,0,0,
0,0,0,0,0,0,0,0,0,0,0,0,0,0,0,0,0,0,0,0,0,0,0,0,0,0,0,0,0,0,0,0,0,0,0,
0,0,0,0,0,0,0,0,0,0,0,0,0,0,0,0,0,0,0,0,0,0,0,0,0,0,0,0,0,0,0,0,0,0,0,
0,0,0,0,0,0,0,0,0,0,0,0,0,0,0,0,0,0,0,0,0,0,0,0,0,0,0,0,0,0,0,0,0,0,0
</data>
 </layer>
 <layer id="2" name="tree" width="35" height="15">
  <data encoding="csv">
2147483761,2147483760,112,113,112,113,112,113,112,113,112,113,112,113,112,113,112,113,112,113,112,113,112,113,112,113,112,113,112,113,112,113,112,113,112,
2147483771,2147483770,122,123,122,123,122,123,122,123,122,123,122,123,122,123,122,123,122,123,122,123,122,123,122,123,122,123,122,123,122,123,122,123,122,
2147483831,2147483830,2147483831,2147483830,2147483831,2147483830,2147483831,2147483830,2147483831,2147483830,2147483831,2147483830,2147483831,2147483830,182,183,112,113,112,113,112,113,112,113,112,113,112,113,112,113,112,113,112,113,112,
2147483841,2147483840,2147483841,2147483840,2147483841,2147483840,2147483841,2147483840,2147483841,2147483840,2147483841,2147483840,2147483841,2147483840,192,193,122,123,122,123,122,123,122,123,122,123,122,123,122,123,122,123,122,123,122,
0,0,0,0,0,0,0,0,0,0,0,0,0,0,0,0,2147483831,2147483830,2147483831,2147483830,182,183,182,183,182,183,182,183,182,183,182,183,182,183,182,
0,0,0,0,0,0,0,0,0,0,0,0,0,0,0,0,2147483841,2147483840,2147483841,2147483840,192,193,192,193,192,193,192,193,192,193,192,193,192,193,192,
0,0,0,0,0,0,0,0,0,0,0,0,0,0,0,0,0,0,0,0,0,0,0,0,0,0,0,0,0,0,0,0,0,0,0,
0,0,0,0,0,0,0,0,0,0,0,0,0,0,0,0,0,0,0,0,0,0,0,0,0,0,0,0,0,0,0,0,0,0,0,
0,0,0,0,0,0,0,0,0,0,0,0,0,0,0,0,0,0,0,0,0,0,0,0,0,173,172,173,172,173,172,173,172,173,172,
0,0,0,0,0,0,0,0,0,0,0,0,0,0,0,0,0,0,0,0,0,0,0,0,0,113,112,113,112,113,112,113,112,113,112,
0,0,0,0,0,0,0,0,0,0,0,0,0,0,0,0,0,0,0,0,0,0,0,0,0,123,122,123,122,123,122,123,122,123,122,
0,0,0,0,0,0,0,0,0,0,0,0,0,0,0,0,0,0,0,0,0,0,0,0,0,113,112,113,112,113,112,113,112,113,112,
0,0,0,0,0,0,0,0,0,0,0,0,0,0,0,0,0,0,0,0,0,0,0,0,0,123,122,123,122,123,122,123,122,123,122,
0,0,0,0,0,0,0,0,0,0,0,0,0,0,0,0,0,0,0,0,0,0,0,0,0,113,112,113,112,113,112,113,112,113,112,
0,0,0,0,0,0,0,0,0,0,0,0,0,0,0,0,0,0,0,0,0,0,0,0,0,123,122,123,122,123,122,123,122,123,122
</data>
 </layer>
 <layer id="7" name="apple" width="35" height="15">
  <data encoding="csv">
0,0,0,0,0,0,0,0,0,0,0,0,0,0,0,0,0,0,0,0,0,0,0,0,0,0,0,0,0,0,0,0,0,0,0,
0,0,2147483838,2147483838,2147483836,2147483847,2147483848,2147483846,2147483837,2147483838,2147483848,2147483838,2147483835,198,200,190,0,0,0,0,0,0,0,0,0,0,0,0,0,0,0,0,0,0,0,
0,0,2147483846,2147483837,2147483837,2147483846,2147483847,2147483835,2147483835,2147483848,2147483836,2147483848,2147483848,190,200,198,0,0,0,0,0,0,0,0,0,0,0,0,0,0,0,0,0,0,0,
0,0,0,0,0,0,0,0,0,0,0,0,0,0,0,0,2147483836,2147483848,2147483835,2147483845,200,188,190,188,190,200,187,190,200,188,187,188,198,190,200,
0,0,0,0,0,0,0,0,0,0,0,0,0,0,2147483846,0,2147483836,2147483838,2147483837,2147483838,198,200,187,187,190,188,187,200,190,190,199,199,198,188,200,
0,0,0,0,0,0,0,0,0,0,0,0,0,0,0,0,0,0,0,0,0,0,0,0,0,0,0,0,0,0,0,0,0,0,0,
0,0,0,0,0,0,0,0,0,0,0,0,0,0,0,0,0,0,0,0,0,0,0,0,0,0,0,0,0,0,0,0,0,0,0,
0,0,0,0,0,0,0,0,0,0,0,0,0,0,0,0,0,0,0,0,0,0,0,0,0,0,0,0,0,0,0,0,0,0,0,
0,0,0,0,0,0,0,0,0,0,0,0,0,0,0,0,0,0,0,0,0,0,0,0,0,0,0,0,0,0,0,0,0,0,0,
0,0,0,0,0,0,0,0,0,0,0,0,0,0,0,0,0,0,0,0,0,0,0,0,0,0,0,0,0,0,0,0,0,0,0,
0,0,0,0,0,0,0,0,0,0,0,0,0,0,0,0,0,0,0,0,0,0,0,0,0,0,0,0,0,0,0,0,0,0,0,
0,0,0,0,0,0,0,0,0,0,0,0,0,0,0,0,0,0,0,0,0,0,0,0,0,0,0,0,0,0,0,0,0,0,0,
0,0,0,0,0,0,0,0,0,0,0,0,0,0,0,0,0,0,0,0,0,0,0,0,0,0,0,0,0,0,0,0,0,0,0,
0,0,0,0,0,0,0,0,0,0,0,0,0,0,0,0,0,0,0,0,0,0,0,0,0,0,0,0,0,0,0,0,0,0,0,
0,0,0,0,0,0,0,0,0,0,0,0,0,0,0,0,0,0,0,0,0,0,0,0,0,0,0,0,0,0,0,0,0,0,0
</data>
 </layer>
 <objectgroup color="#ff007f" id="6" name="objects_party">
  <object id="2" name="transition" x="1400" y="240" width="40" height="120">
   <properties>
    <property name="map" value="chapter1/farm_world/garden_orchard_maze"/>
    <property name="marker" value="to_paint"/>
   </properties>
  </object>
  <object id="12" name="chest" x="120" y="400" width="40" height="40">
   <properties>
    <property name="item" value="axe_piece"/>
   </properties>
  </object>
  <object id="19" gid="204" x="210" y="280" width="56" height="94"/>
  <object id="20" gid="204" x="290" y="280" width="56" height="94"/>
  <object id="23" name="script" x="1080" y="160" width="40" height="300">
   <properties>
    <property name="cutscene" value="chapter1/orchard.painting"/>
    <property name="once" type="bool" value="false"/>
   </properties>
  </object>
  <object id="25" gid="205" x="430" y="210" width="120" height="100"/>
 </objectgroup>
 <objectgroup id="10" name="objects_interactables">
  <object id="27" name="interactable" x="430" y="140" width="120" height="50">
   <properties>
    <property name="solid" type="bool" value="true"/>
    <property name="text1_1" value="* (A solitary motorcycle.)"/>
    <property name="text1_2" value="* (Even you can't drive this...)"/>
    <property name="text2_1" value="* (...)"/>
    <property name="text2_2" value="* (...[wait:5]you Wondered to Yourself where grace and Sofer got this Cycle.)"/>
    <property name="text3_1" value="* (A solitary motorcycle.)"/>
   </properties>
  </object>
  <object id="28" name="interactable" x="210" y="270" width="50" height="10">
   <properties>
    <property name="solid" type="bool" value="true"/>
    <property name="text1_1" value="* (Grace's painting.)"/>
    <property name="text1_2" value="* (Try as you might,[wait:5] you just can't see it from this side.)"/>
   </properties>
  </object>
  <object id="29" name="interactable" x="290" y="270" width="50" height="10">
   <properties>
    <property name="solid" type="bool" value="true"/>
    <property name="text1_1" value="* (Sofer's painting.)"/>
    <property name="text1_2" value="* (Try as you might,[wait:5] you just can't see it from this side.)"/>
   </properties>
  </object>
  <object id="30" name="interactable" x="210" y="260" width="50" height="10">
   <properties>
    <property name="solid" type="bool" value="true"/>
    <property name="text1_1" value="* (Grace's painting.)"/>
    <property name="text1_2" value="* (It can be seen!)"/>
   </properties>
  </object>
  <object id="31" name="interactable" x="290" y="260" width="50" height="10">
   <properties>
    <property name="solid" type="bool" value="true"/>
    <property name="text1_1" value="* (Sofer's painting.)"/>
    <property name="text1_2" value="* (It can be seen!)"/>
   </properties>
  </object>
 </objectgroup>
 <objectgroup color="#aa00ff" id="8" name="markers">
  <object id="3" name="spawn" x="1360" y="300">
   <point/>
  </object>
  <object id="21" name="gracepos" x="240" y="260">
   <point/>
  </object>
  <object id="22" name="soferpos" x="320" y="260">
   <point/>
  </object>
  <object id="24" name="camera" x="320" y="300">
   <point/>
  </object>
  <object id="32" name="toferpos" x="720" y="300">
   <point/>
  </object>
  <object id="33" name="vesspos" x="820" y="320">
   <point/>
  </object>
  <object id="34" name="soferpos2" x="480" y="300">
   <point/>
  </object>
  <object id="35" name="gracepos2" x="420" y="320">
   <point/>
  </object>
  <object id="36" name="turn" x="400" y="260">
   <point/>
  </object>
 </objectgroup>
 <layer id="4" name="leaf" width="35" height="15">
  <data encoding="csv">
112,113,0,0,0,0,0,0,0,0,0,0,0,0,0,0,0,0,0,0,0,0,0,0,0,0,0,0,0,0,0,0,0,0,0,
122,123,0,0,0,0,0,0,0,0,0,0,0,0,0,0,0,0,0,0,0,0,0,0,0,0,0,0,0,0,0,0,0,0,0,
112,113,0,0,0,0,0,0,0,0,0,0,0,0,0,0,0,0,112,113,0,0,0,0,0,0,0,0,0,0,0,0,0,0,0,
122,123,0,0,0,0,0,0,0,0,0,0,0,0,0,0,0,0,0,0,0,0,0,0,0,0,0,0,0,0,0,0,0,0,0,
112,113,0,0,0,0,0,0,0,0,0,0,0,0,0,0,0,0,0,0,0,0,0,0,0,0,0,0,0,0,0,0,0,0,0,
122,123,0,0,0,0,0,0,0,0,0,0,0,0,0,0,0,0,0,0,0,0,0,0,0,0,0,0,0,0,0,0,0,0,0,
112,113,0,0,0,0,0,0,0,0,0,0,0,0,0,0,0,0,0,0,0,0,0,0,0,0,0,0,0,0,0,0,0,0,0,
122,123,0,0,0,0,0,0,0,0,0,0,0,0,0,0,0,0,0,0,0,0,0,0,0,0,0,0,0,0,0,0,0,0,0,
112,113,0,0,0,0,0,0,0,0,0,0,0,0,0,0,0,101,2147483821,2147483820,0,0,0,0,0,0,0,0,0,0,0,0,0,0,0,
122,123,0,0,0,0,0,0,0,0,0,0,0,0,0,0,0,121,112,113,112,113,112,113,112,0,0,0,0,0,0,0,0,0,0,
112,113,0,0,0,0,0,0,0,0,0,101,2147483821,2147483820,2147483821,2147483820,2147483821,143,122,123,122,123,122,123,122,0,0,0,0,0,0,0,0,0,0,
122,123,0,2147483820,2147483821,2147483820,2147483821,2147483820,2147483821,2147483820,2147483821,143,112,113,112,113,112,113,112,113,112,113,112,113,112,0,0,0,0,0,0,0,0,0,0,
112,113,112,113,112,113,112,113,112,113,112,113,122,123,122,123,122,123,122,123,122,123,122,123,122,0,0,0,0,0,0,0,0,0,0,
122,123,122,123,122,123,122,123,122,123,122,123,112,113,112,113,112,113,112,113,112,113,112,113,112,0,0,0,0,0,0,0,0,0,0,
2147483771,2147483770,2147483771,2147483770,2147483771,2147483770,2147483771,2147483770,2147483771,2147483770,2147483771,2147483770,122,123,122,123,122,123,122,123,122,123,122,123,122,0,0,0,0,0,0,0,0,0,0
</data>
 </layer>
 <layer id="3" name="edge" width="35" height="15">
  <data encoding="csv">
0,0,0,0,0,0,0,0,0,0,0,0,0,0,0,0,0,0,0,0,0,0,0,0,0,0,0,0,0,0,0,0,0,0,0,
0,0,0,0,0,0,0,0,0,0,0,0,0,0,0,0,0,0,0,0,0,0,0,0,0,0,0,0,0,0,0,0,0,0,0,
0,0,114,0,0,0,0,0,0,0,0,0,0,0,0,111,0,0,0,0,0,0,0,0,0,0,0,0,0,0,0,0,0,0,0,
0,0,124,0,0,0,0,0,0,0,0,0,0,0,0,121,0,0,0,0,0,0,0,0,0,0,0,0,0,0,0,0,0,0,0,
0,0,114,0,0,0,0,0,0,0,0,0,0,0,2147483846,181,0,0,0,0,0,0,0,0,0,0,0,0,0,0,0,0,0,0,0,
0,0,124,0,0,0,0,0,0,0,0,0,0,0,0,0,0,0,0,0,0,0,0,0,0,0,0,0,0,0,0,0,0,0,0,
0,0,114,0,0,0,0,0,0,0,0,0,0,0,0,0,0,0,0,0,0,0,0,0,0,0,0,0,0,0,0,0,0,0,0,
0,0,124,0,0,0,0,0,0,0,0,0,0,0,0,0,0,0,0,0,0,0,0,0,0,0,0,0,0,0,0,0,0,0,0,
0,0,114,0,0,0,0,0,0,0,0,0,0,0,0,0,0,0,0,0,102,103,102,103,102,173,172,173,172,173,172,173,172,173,172,
0,0,124,0,0,0,0,0,0,0,0,0,0,0,0,0,0,0,0,0,0,0,0,0,0,0,0,0,0,0,0,0,0,0,0,
0,0,124,0,0,0,0,0,0,0,0,0,0,0,0,0,0,0,0,0,0,0,0,0,0,0,0,0,0,0,0,0,0,0,0,
0,0,142,0,0,0,0,0,0,0,0,0,0,0,0,0,0,0,0,0,0,0,0,0,0,0,0,0,0,0,0,0,0,0,0,
0,0,0,0,0,0,0,0,0,0,0,0,0,0,0,0,0,0,0,0,0,0,0,0,0,0,0,0,0,0,0,0,0,0,0,
0,0,0,0,0,0,0,0,0,0,0,0,0,0,0,0,0,0,0,0,0,0,0,0,0,0,0,0,0,0,0,0,0,0,0,
0,0,0,0,0,0,0,0,0,0,0,0,0,0,0,0,0,0,0,0,0,0,0,0,0,0,0,0,0,0,0,0,0,0,0
</data>
 </layer>
 <objectgroup color="#0000ff" id="9" name="collision">
  <object id="4" x="720" y="360" width="680" height="40"/>
  <object id="5" x="720" y="400" width="40" height="80"/>
  <object id="6" x="480" y="440" width="240" height="40"/>
  <object id="7" x="80" y="480" width="400" height="40"/>
  <object id="8" x="40" y="80" width="40" height="400"/>
  <object id="9" x="640" y="180" width="760" height="40"/>
  <object id="10" x="640" y="80" width="40" height="100"/>
  <object id="11" x="80" y="90" width="560" height="50"/>
 </objectgroup>
</map>
