<?xml version="1.0" encoding="UTF-8"?>
<map version="1.11" tiledversion="1.12.2" orientation="orthogonal" renderorder="right-down" width="24" height="12" tilewidth="40" tileheight="40" infinite="0" nextlayerid="11" nextobjectid="30">
 <editorsettings>
  <export target="garden_orchard_pre.lua" format="lua"/>
 </editorsettings>
 <properties>
  <property name="music" value="garden"/>
  <property name="name" value="Garden - Before Orchard"/>
 </properties>
 <tileset firstgid="1" source="../../../tilesets/garden.tsx"/>
 <tileset firstgid="101" source="../../../tilesets/orchard.tsx"/>
 <tileset firstgid="201" source="../../../tilesets/farm_world_extras.tsx"/>
 <layer id="10" name="star" width="24" height="12" visible="0" locked="1" parallaxx="0.5" parallaxy="0.5">
  <data encoding="csv">
3,3,3,3,3,3,3,3,3,3,3,3,3,3,3,3,3,3,3,3,3,3,3,3,
13,3,3,3,3,3,3,3,3,3,3,3,3,3,3,3,3,3,3,3,3,3,3,13,
13,3,3,3,3,3,3,3,3,3,3,3,3,3,3,3,3,3,3,3,3,3,3,3,
3,3,3,3,3,3,3,3,3,3,3,3,3,3,3,3,3,3,3,3,3,3,3,3,
3,14,3,3,3,3,1,3,13,3,3,14,14,3,3,3,14,3,3,3,3,13,3,3,
3,3,3,3,3,3,3,3,3,3,3,3,3,3,3,3,3,3,3,3,3,3,3,3,
3,3,3,3,3,3,3,3,3,3,3,3,3,3,3,3,3,3,3,3,3,3,3,3,
3,14,11,3,3,3,3,3,3,3,3,3,3,3,3,3,3,3,3,3,3,3,3,3,
3,3,3,3,3,3,3,3,3,3,3,3,3,14,3,3,3,3,3,3,3,3,3,3,
3,3,3,3,3,3,3,3,3,3,3,3,3,3,3,3,3,3,3,3,3,3,3,3,
3,3,3,3,3,3,3,3,3,3,3,3,3,3,3,3,3,3,3,3,3,3,3,3,
3,3,3,3,3,3,3,3,3,3,3,3,3,3,3,3,3,3,3,3,3,3,3,3
</data>
 </layer>
 <objectgroup id="9" name="objects_midground" parallaxx="0.75" parallaxy="0.75">
  <object id="23" gid="223" x="30" y="130" width="52" height="56"/>
  <object id="24" gid="223" x="130" y="60" width="52" height="56"/>
  <object id="25" gid="223" x="340" y="190" width="52" height="56"/>
  <object id="26" gid="223" x="540" y="110" width="52" height="56"/>
 </objectgroup>
 <layer id="1" name="Tile Layer 1" width="24" height="12">
  <data encoding="csv">
0,0,0,0,0,0,0,0,0,0,0,0,0,0,0,5,5,0,0,0,0,0,0,0,
0,0,0,0,0,0,0,0,0,0,0,0,0,0,0,5,5,0,0,0,0,0,0,21,
0,0,0,0,0,0,0,0,0,0,0,0,0,0,0,5,5,0,0,0,0,0,21,5,
0,0,0,0,0,0,0,0,0,0,0,0,0,0,0,5,5,0,0,0,0,21,5,5,
0,0,0,0,0,0,0,0,0,0,0,0,0,0,0,5,5,0,0,0,21,5,5,5,
0,0,0,0,0,0,0,0,0,0,0,0,0,0,0,5,5,0,0,0,5,5,5,6,
0,0,0,0,0,0,0,0,0,0,0,0,0,0,0,5,5,0,0,21,5,5,6,5,
0,0,0,0,0,0,0,0,0,0,0,0,0,0,0,5,5,5,5,5,5,5,5,6,
5,5,5,5,5,5,5,5,5,5,5,5,5,5,5,5,5,5,5,5,5,5,5,5,
5,5,5,5,5,5,5,5,5,5,5,5,5,5,5,5,5,5,6,5,5,5,5,5,
5,5,5,5,5,5,5,5,5,5,5,5,5,5,5,5,5,5,5,6,6,5,5,5,
19,19,19,19,19,19,19,19,5,5,5,5,5,5,5,5,5,5,6,7,5,5,7,5
</data>
 </layer>
 <layer id="7" name="backtrees" width="24" height="12">
  <data encoding="csv">
0,0,0,0,0,0,0,0,0,0,0,0,0,0,0,0,0,0,0,0,0,0,0,0,
0,0,0,0,0,0,0,0,0,0,0,0,0,0,0,0,0,0,0,0,0,0,0,0,
0,0,0,0,0,0,0,0,0,0,0,0,0,0,0,0,0,0,0,0,0,0,0,0,
0,0,0,0,0,0,0,0,0,0,0,0,0,0,0,0,0,0,0,0,0,0,0,0,
0,0,0,0,0,0,0,0,0,0,0,0,0,0,0,0,0,0,0,0,0,0,0,0,
0,0,0,0,0,0,0,0,0,0,0,0,0,0,0,0,0,0,0,0,0,186,185,186,
0,0,0,0,0,0,0,0,0,0,0,0,0,0,0,0,0,0,0,0,0,196,195,196,
0,0,0,0,0,0,0,0,0,0,0,0,0,0,0,0,0,0,0,0,0,0,0,0,
0,0,0,0,0,0,0,0,0,0,0,0,0,0,0,0,0,0,0,0,0,0,0,0,
0,0,0,0,0,0,0,0,0,0,0,0,0,0,0,0,0,0,0,0,0,0,0,0,
0,0,0,0,0,0,0,0,0,0,0,0,0,0,0,0,0,0,0,0,0,0,0,0,
0,0,0,0,0,0,0,0,0,0,0,0,0,0,0,0,0,0,0,0,0,0,0,0
</data>
 </layer>
 <layer id="6" name="trees" width="24" height="12">
  <data encoding="csv">
0,0,0,0,0,0,0,0,0,0,0,0,0,0,0,0,0,0,0,0,0,0,0,0,
0,0,0,0,0,0,0,0,0,0,0,0,0,0,0,0,0,0,0,0,0,0,0,0,
0,0,0,0,0,0,0,0,0,0,0,0,0,0,0,0,0,0,0,0,0,0,0,0,
0,0,0,0,0,0,0,0,0,0,0,0,0,0,0,0,0,0,0,0,0,0,0,0,
0,0,0,0,0,0,0,0,0,0,0,0,0,0,0,0,0,0,0,121,122,123,122,123,
0,0,0,0,0,0,0,0,0,0,0,0,0,0,0,0,0,0,0,181,182,183,182,183,
0,0,0,0,0,0,0,0,0,0,0,0,0,0,0,0,0,0,0,0,192,193,192,193,
0,0,0,0,0,0,0,0,0,0,0,0,0,0,0,0,0,0,0,0,0,0,0,0,
0,0,0,0,0,0,0,0,0,0,0,0,0,0,0,0,0,0,0,0,0,0,0,0,
0,0,0,0,0,0,0,0,0,0,0,0,0,0,0,0,0,0,0,0,0,0,0,0,
0,0,0,0,0,0,0,0,0,0,0,0,0,0,0,0,0,0,0,0,0,0,0,0,
0,0,0,0,0,0,0,0,0,0,0,0,0,0,0,0,0,0,0,0,0,0,0,0
</data>
 </layer>
 <layer id="8" name="apople" width="24" height="12">
  <data encoding="csv">
0,0,0,0,0,0,0,0,0,0,0,0,0,0,0,0,0,0,0,0,0,0,0,0,
0,0,0,0,0,0,0,0,0,0,0,0,0,0,0,0,0,0,0,0,0,0,0,0,
0,0,0,0,0,0,0,0,0,0,0,0,0,0,0,0,0,0,0,0,0,0,0,0,
0,0,0,0,0,0,0,0,0,0,0,0,0,0,0,0,0,0,0,0,0,0,0,0,
0,0,0,0,0,0,0,0,0,0,0,0,0,0,0,0,0,0,0,0,187,200,189,187,
0,0,0,0,0,0,0,0,0,0,0,0,0,0,0,0,0,0,0,0,200,190,190,200,
0,0,0,0,0,0,0,0,0,0,0,0,0,0,0,0,0,0,0,0,0,0,0,0,
0,0,0,0,0,0,0,0,0,0,0,0,0,0,0,0,0,0,0,0,0,0,0,0,
0,0,0,0,0,0,0,0,0,0,0,0,0,0,0,0,0,0,0,0,0,0,0,0,
0,0,0,0,0,0,0,0,0,0,0,0,0,0,0,0,0,0,0,0,0,0,0,0,
0,0,0,0,0,0,0,0,0,0,0,0,0,0,0,0,0,0,0,0,0,0,0,0,
0,0,0,0,0,0,0,0,0,0,0,0,0,0,0,0,0,0,0,0,0,0,0,0
</data>
 </layer>
 <objectgroup color="#ff007f" id="2" name="objects_party">
  <object id="1" name="transition" x="-40" y="320" width="40" height="120">
   <properties>
    <property name="map" value="chapter1/farm_world/garden_treasurehunt"/>
    <property name="marker" value="to_orchard"/>
   </properties>
  </object>
  <object id="16" name="transition" x="600" y="-40" width="80" height="40">
   <properties>
    <property name="map" value="chapter1/farm_world/garden_pikmin2cave"/>
    <property name="marker" value="to_orchard"/>
   </properties>
  </object>
  <object id="18" name="transition" x="960" y="240" width="40" height="200">
   <properties>
    <property name="map" value="chapter1/farm_world/garden_orchard1"/>
    <property name="marker" value="spawn"/>
   </properties>
  </object>
  <object id="20" name="transition" x="320" y="560" width="80" height="40">
   <properties>
    <property name="map" value="chapter1/farm_world/garden_orchard_pre_mint"/>
    <property name="marker" value="spawn"/>
   </properties>
  </object>
 </objectgroup>
 <layer id="5" name="leaves" width="24" height="12">
  <data encoding="csv">
0,0,0,0,0,0,0,0,0,0,0,0,0,0,0,0,0,0,0,101,102,143,122,123,
0,0,0,0,0,0,0,0,0,0,0,0,0,0,0,0,0,0,0,111,112,113,112,113,
0,0,0,0,0,0,0,0,0,0,0,0,0,0,0,0,0,0,0,121,122,123,122,123,
0,0,0,0,0,0,0,0,0,0,0,0,0,0,0,0,0,0,0,111,112,113,112,113,
0,0,0,0,0,0,0,0,0,0,0,0,0,0,0,0,0,0,0,0,0,0,0,0,
0,0,0,0,0,0,0,0,0,0,0,0,0,0,0,0,0,0,0,0,0,0,0,0,
0,0,0,0,0,0,0,0,0,0,0,0,0,0,0,0,0,0,0,0,0,0,0,0,
0,0,0,0,0,0,0,0,0,0,0,0,0,0,0,0,0,0,0,0,0,0,0,0,
0,0,0,0,0,0,0,0,0,0,0,0,0,0,0,0,0,0,0,0,0,0,0,0,
0,0,0,0,0,0,0,0,0,0,0,0,0,0,0,0,0,0,0,0,0,0,0,0,
0,0,0,0,0,0,0,0,0,101,102,103,102,103,102,103,102,103,102,103,102,103,102,103,
0,0,0,0,0,0,0,101,102,143,113,112,113,112,113,112,113,112,113,112,113,112,113,112
</data>
 </layer>
 <objectgroup color="#aa00ff" id="3" name="markers">
  <object id="2" name="to_treasure" x="40" y="380">
   <point/>
  </object>
  <object id="17" name="to_cave" x="640" y="40">
   <point/>
  </object>
  <object id="19" name="to_orchard" x="920" y="340">
   <point/>
  </object>
  <object id="21" name="to_mint" x="360" y="440">
   <point/>
  </object>
 </objectgroup>
 <objectgroup color="#0000ff" id="4" name="collision">
  <object id="3" x="0" y="280" width="600" height="40"/>
  <object id="4" x="560" y="0" width="40" height="280"/>
  <object id="5" x="680" y="0" width="40" height="280"/>
  <object id="6" x="720" y="240" width="40" height="40"/>
  <object id="7" x="760" y="160" width="40" height="80"/>
  <object id="8" x="800" y="120" width="40" height="40"/>
  <object id="9" x="840" y="80" width="40" height="40"/>
  <object id="10" x="880" y="40" width="40" height="40"/>
  <object id="11" x="920" y="0" width="40" height="40"/>
  <object id="12" x="0" y="440" width="320" height="40"/>
  <object id="13" x="800" y="200" width="160" height="60"/>
  <object id="15" x="400" y="440" width="560" height="40"/>
  <object id="27" x="280" y="480" width="40" height="120"/>
  <object id="28" x="400" y="480" width="40" height="120"/>
 </objectgroup>
</map>
