<?xml version="1.0" encoding="UTF-8"?>
<map version="1.10" tiledversion="1.12.2" orientation="orthogonal" renderorder="right-down" width="16" height="20" tilewidth="40" tileheight="40" infinite="0" nextlayerid="7" nextobjectid="5">
 <editorsettings>
  <export target="garden_orchard1.lua" format="lua"/>
 </editorsettings>
 <tileset firstgid="1" source="../../../tilesets/garden.tsx"/>
 <tileset firstgid="101" source="../../../tilesets/orchard.tsx"/>
 <layer id="1" name="Tile Layer 1" width="16" height="20">
  <data encoding="csv">
5,5,5,5,5,5,5,5,5,5,5,5,5,6,5,5,
5,5,5,5,6,5,5,5,7,5,6,5,5,5,5,5,
5,5,5,5,5,5,5,5,5,5,5,5,5,6,6,5,
5,5,5,5,6,7,5,5,5,5,5,5,6,5,5,5,
5,5,5,5,5,5,5,7,5,5,6,5,5,5,6,5,
5,7,5,5,5,5,5,5,5,5,5,5,6,6,5,6,
5,5,5,5,6,5,6,6,6,5,5,7,5,5,5,5,
5,5,5,5,5,5,5,5,5,5,5,7,5,5,6,5,
5,6,5,5,5,5,5,5,5,5,5,5,6,5,5,5,
6,7,6,6,5,6,7,5,5,5,5,5,7,6,5,5,
6,5,6,5,5,5,5,5,5,5,5,5,5,5,5,5,
7,5,5,5,5,6,6,5,5,6,6,6,5,5,5,5,
5,5,6,5,5,5,5,5,5,5,5,5,6,6,5,5,
5,5,5,5,5,5,5,5,5,5,5,5,5,5,7,5,
5,5,5,5,5,5,5,5,6,5,6,5,6,5,5,6,
5,5,5,5,5,5,5,5,5,6,5,5,5,5,6,6,
5,5,5,5,6,6,5,5,5,6,5,5,5,5,5,5,
5,5,6,5,7,5,6,6,6,5,5,5,6,5,5,6,
5,5,5,5,5,5,5,6,6,6,5,6,5,5,6,5,
5,6,5,5,6,6,5,5,5,5,7,6,6,5,6,5
</data>
 </layer>
 <layer id="2" name="Tile Layer 2" width="16" height="20">
  <data encoding="csv">
122,123,122,123,122,123,122,123,122,123,122,123,122,123,122,123,
182,183,182,183,182,183,182,183,182,183,182,183,182,183,182,183,
192,193,192,193,192,193,192,193,192,193,192,193,192,193,192,193,
0,0,0,0,0,0,0,0,0,0,0,0,0,0,0,0,
0,0,0,0,0,0,0,0,0,0,0,0,0,0,0,0,
0,0,0,0,0,0,0,0,0,0,0,0,0,0,0,0,
113,112,113,112,113,0,0,0,0,0,0,112,113,112,113,112,
123,122,123,122,123,0,0,0,0,0,0,122,123,122,123,122,
113,112,113,112,113,0,0,0,0,0,0,112,113,112,113,112,
123,122,123,122,123,0,0,0,0,0,0,122,123,122,123,122,
113,112,113,112,113,0,0,0,0,0,0,112,113,112,113,112,
123,122,123,122,123,0,0,0,0,0,0,122,123,122,123,122,
113,112,113,112,113,0,0,0,0,0,0,112,113,112,113,112,
123,122,123,122,123,0,0,0,0,0,0,122,123,122,123,122,
113,112,113,112,113,0,0,0,0,0,0,112,113,112,113,112,
123,122,123,122,123,0,0,0,0,0,0,122,123,122,123,122,
113,112,113,112,113,0,0,0,0,0,0,112,113,112,113,112,
123,122,123,122,123,0,0,0,0,0,0,122,123,122,123,122,
113,112,113,112,113,0,0,0,0,0,0,112,113,112,113,112,
123,122,123,122,123,0,0,0,0,0,0,122,123,122,123,122
</data>
 </layer>
 <objectgroup color="#0000ff" id="3" name="collision">
  <object id="1" x="0" y="240" width="200" height="560"/>
  <object id="2" x="440" y="240" width="200" height="560"/>
  <object id="3" x="0" y="0" width="640" height="80"/>
 </objectgroup>
 <objectgroup id="4" name="objects_party"/>
 <objectgroup color="#aa00ff" id="6" name="markers">
  <object id="4" name="spawn" x="320" y="720">
   <point/>
  </object>
 </objectgroup>
 <layer id="5" name="Tile Layer 3" width="16" height="20">
  <data encoding="csv">
0,0,0,0,0,0,0,0,0,0,0,0,0,0,0,0,
0,0,0,0,0,0,0,0,0,0,0,0,0,0,0,0,
0,0,0,0,0,0,0,0,0,0,0,0,0,0,0,0,
0,0,0,0,0,0,0,0,0,0,0,0,0,0,0,0,
0,0,0,0,0,0,0,0,0,0,0,0,0,0,0,0,
103,102,103,102,103,104,0,0,0,0,101,102,103,102,103,102,
0,0,0,0,0,114,0,0,0,0,111,0,0,0,0,0,
0,0,0,0,0,124,0,0,0,0,121,0,0,0,0,0,
0,0,0,0,0,114,0,0,0,0,111,0,0,0,0,0,
0,0,0,0,0,124,0,0,0,0,121,0,0,0,0,0,
0,0,0,0,0,114,0,0,0,0,111,0,0,0,0,0,
0,0,0,0,0,124,0,0,0,0,121,0,0,0,0,0,
0,0,0,0,0,114,0,0,0,0,111,0,0,0,0,0,
0,0,0,0,0,124,0,0,0,0,121,0,0,0,0,0,
0,0,0,0,0,114,0,0,0,0,111,0,0,0,0,0,
0,0,0,0,0,124,0,0,0,0,121,0,0,0,0,0,
0,0,0,0,0,114,0,0,0,0,111,0,0,0,0,0,
0,0,0,0,0,124,0,0,0,0,121,0,0,0,0,0,
0,0,0,0,0,114,0,0,0,0,111,0,0,0,0,0,
0,0,0,0,0,124,0,0,0,0,121,0,0,0,0,0
</data>
 </layer>
</map>
