<?xml version="1.0" encoding="UTF-8"?>
<map version="1.10" tiledversion="1.12.2" orientation="orthogonal" renderorder="right-down" width="20" height="15" tilewidth="40" tileheight="40" infinite="0" nextlayerid="13" nextobjectid="32">
 <editorsettings>
  <export target="garden_orchard_pond.lua" format="lua"/>
 </editorsettings>
 <properties>
  <property name="music" value="irish_waters"/>
 </properties>
 <tileset firstgid="1" source="../../../tilesets/garden.tsx"/>
 <tileset firstgid="101" source="../../../tilesets/rural.tsx"/>
 <tileset firstgid="201" source="../../../tilesets/orchard.tsx"/>
 <tileset firstgid="301" source="../../../tilesets/rural_buildings.tsx"/>
 <layer id="1" name="Camada de Blocos 1" width="20" height="15">
  <data encoding="csv">
5,5,5,5,5,5,5,5,5,5,5,5,5,5,5,5,5,5,5,5,
5,5,5,5,5,5,5,5,5,5,5,48,48,48,48,48,47,47,5,5,
5,5,5,5,5,5,5,48,48,48,48,48,114,114,114,114,114,47,5,5,
5,5,5,5,5,5,5,47,114,114,114,114,114,114,114,114,114,48,48,5,
5,5,5,5,5,5,48,47,114,114,114,114,114,114,114,114,114,114,48,5,
5,5,5,5,5,5,48,114,114,114,114,114,114,114,114,114,114,114,48,5,
5,5,5,5,5,5,48,114,114,114,114,114,114,114,114,114,114,114,48,5,
5,5,5,5,5,5,48,114,114,114,114,114,114,114,114,114,114,114,48,5,
5,5,5,5,5,5,48,114,114,114,114,114,114,114,114,114,114,114,48,5,
5,5,5,5,5,5,48,114,114,114,114,114,114,114,114,114,114,48,48,5,
5,5,5,5,5,5,47,48,114,114,114,114,114,114,114,114,114,48,5,5,
5,5,5,5,5,5,5,48,47,48,48,114,114,114,114,114,48,48,5,5,
5,5,5,5,5,5,5,5,5,5,48,48,48,47,48,48,48,5,5,5,
5,5,5,5,5,5,5,5,5,5,5,5,5,5,5,5,5,5,5,5,
5,5,5,5,5,5,5,5,5,5,5,5,5,5,5,5,5,5,5,5
</data>
 </layer>
 <layer id="12" name="backtrees" width="20" height="15">
  <data encoding="csv">
0,0,0,0,0,0,285,286,285,0,295,296,295,296,295,296,295,296,0,286,
0,0,0,0,0,0,295,296,295,0,0,0,0,0,0,0,0,0,0,296,
0,0,0,0,0,0,0,0,0,0,0,0,0,0,0,0,0,0,0,0,
0,0,0,0,0,0,0,0,0,0,0,0,0,0,0,0,0,0,0,0,
285,286,285,286,285,0,0,0,0,0,0,0,0,0,0,0,0,0,0,0,
295,296,295,296,295,0,0,0,0,0,0,0,0,0,0,0,0,0,0,0,
0,0,0,0,0,0,0,0,0,0,0,0,0,0,0,0,0,0,0,0,
0,0,0,0,0,0,0,0,0,0,0,0,0,0,0,0,0,0,0,0,
0,0,0,0,0,0,0,0,0,0,0,0,0,0,0,0,0,0,0,0,
0,0,0,0,0,0,0,0,0,0,0,0,0,0,0,0,0,0,0,0,
0,0,0,0,0,0,0,0,0,0,0,0,0,0,0,0,0,0,0,0,
0,0,0,0,0,0,0,0,0,0,0,0,0,0,0,0,0,0,0,0,
0,0,0,0,0,0,0,0,0,0,0,0,0,0,0,0,0,0,0,0,
0,0,0,0,0,0,0,0,0,0,0,0,0,0,0,0,0,0,0,0,
0,0,0,0,0,0,0,0,0,0,0,0,0,0,0,0,0,0,0,0
</data>
 </layer>
 <layer id="5" name="trees" width="20" height="15">
  <data encoding="csv">
212,213,212,213,212,213,282,283,282,283,292,293,292,293,292,293,292,293,282,283,
222,223,222,223,222,223,292,293,292,293,0,0,0,0,0,0,0,0,292,293,
212,213,212,213,212,213,0,0,0,0,0,0,0,0,0,0,0,0,0,0,
222,223,222,223,222,223,0,0,0,0,0,0,0,0,0,0,0,0,0,0,
282,283,282,283,282,283,0,0,0,0,0,0,0,0,0,0,0,0,0,0,
292,293,292,293,292,293,0,0,0,0,0,0,0,0,0,0,0,0,0,0,
0,0,0,0,0,0,0,0,0,0,0,0,0,0,0,0,0,0,0,0,
0,0,0,0,0,0,0,0,0,0,0,0,0,0,0,0,0,0,0,0,
0,0,0,0,0,0,0,0,0,0,0,0,0,0,0,0,0,0,0,0,
0,0,0,0,0,0,0,0,0,0,0,0,0,0,0,0,0,0,0,0,
0,0,0,0,0,0,0,0,0,0,0,0,0,0,0,0,0,0,0,0,
0,0,0,0,0,0,0,0,0,0,0,0,0,0,0,0,0,0,0,0,
0,0,0,0,0,0,0,0,0,0,0,0,0,0,0,0,0,0,0,0,
0,0,0,0,0,0,0,0,0,0,0,0,0,0,0,0,0,0,0,0,
0,0,0,0,0,0,0,0,0,0,0,0,0,0,0,0,0,0,0,0
</data>
 </layer>
 <layer id="6" name="various leaves" width="20" height="15">
  <properties>
   <property name="music" value="orchard_wip"/>
  </properties>
  <data encoding="csv">
0,0,0,0,0,0,0,0,0,0,284,0,0,0,0,0,0,0,298,287,
0,0,0,0,0,0,0,0,0,0,0,0,0,0,0,0,0,0,0,0,
0,0,0,0,0,0,0,0,0,0,0,0,0,0,0,0,0,0,0,0,
0,0,0,0,0,0,0,0,0,0,0,0,0,0,0,0,0,0,0,0,
0,0,0,0,0,0,284,0,0,0,0,0,0,0,0,0,0,0,0,0,
0,0,0,0,0,0,0,0,0,0,0,0,0,0,0,0,0,0,0,0,
0,0,0,0,0,0,0,0,0,0,0,0,0,0,0,0,0,0,0,0,
0,0,0,0,0,0,0,0,0,0,0,0,0,0,0,0,0,0,0,0,
0,0,0,0,0,0,0,0,0,0,0,0,0,0,0,0,0,0,0,0,
212,213,212,213,212,213,0,0,0,0,0,0,0,0,0,0,0,0,0,0,
222,223,222,223,222,223,0,0,0,0,0,0,0,0,0,0,0,0,0,0,
212,213,212,213,212,213,0,0,0,0,0,0,0,0,0,0,0,0,0,0,
222,223,222,223,222,223,0,0,0,0,0,0,0,0,0,0,0,0,0,0,
212,213,212,213,212,213,212,213,212,213,212,213,212,213,212,213,0,0,0,0,
222,223,222,223,222,223,222,223,222,223,222,223,222,223,222,223,0,0,0,0
</data>
 </layer>
 <layer id="11" name="aplpes" width="20" height="15">
  <data encoding="csv">
0,0,0,0,0,0,224,300,300,287,0,0,0,0,0,0,0,0,0,0,
0,0,0,0,0,0,0,0,0,0,0,0,0,0,0,0,0,0,0,0,
0,0,0,0,0,0,0,0,0,0,0,0,0,0,0,0,0,0,0,0,
299,299,300,300,289,299,0,0,0,0,0,0,0,0,0,0,0,0,0,0,
300,289,299,288,298,287,0,0,0,0,0,0,0,0,0,0,0,0,0,0,
0,0,0,0,0,0,0,0,0,0,0,0,0,0,0,0,0,0,0,0,
0,0,0,0,0,0,0,0,0,0,0,0,0,0,0,0,0,0,0,0,
0,0,0,0,0,0,0,0,0,0,0,0,0,0,0,0,0,0,0,0,
0,0,0,0,0,0,0,0,0,0,0,0,0,0,0,0,0,0,0,0,
0,0,0,0,0,0,0,0,0,0,0,0,0,0,0,0,0,0,0,0,
0,0,0,0,0,0,0,0,0,0,0,0,0,0,0,0,0,0,0,0,
0,0,0,0,0,0,0,0,0,0,0,0,0,0,0,0,0,0,0,0,
0,0,0,0,0,0,0,0,0,0,0,0,0,0,0,0,0,0,0,0,
0,0,0,0,0,0,0,0,0,0,0,0,0,0,0,0,0,0,0,0,
0,0,0,0,0,0,0,0,0,0,0,0,0,0,0,0,0,0,0,0
</data>
 </layer>
 <objectgroup color="#ff007f" id="9" name="objects_party">
  <object id="6" name="transition" x="-40" y="240" width="40" height="120">
   <properties>
    <property name="map" value="chapter1/farm_world/garden_orchard_maze"/>
    <property name="marker" value="to_pond"/>
   </properties>
  </object>
  <object id="25" gid="333" x="690" y="90" width="40" height="36"/>
  <object id="26" name="interactable" x="680" y="50" width="60" height="50">
   <properties>
    <property name="once" type="bool" value="false"/>
    <property name="solid" type="bool" value="true"/>
    <property name="text1_1" value="* (A collision-minded rock.)"/>
    <property name="text2_1" value="* (Which is new and by the water)"/>
   </properties>
  </object>
  <object id="27" name="npc" x="720" y="400" width="40" height="40">
   <properties>
    <property name="actor" value="fisher_turtle"/>
    <property name="text1_1" value="[speed:0.7]* I heard there's some sort of chest somewhere in the trees to our left."/>
    <property name="text2_1" value="[speed:0.7]* You can relax and sit with me a while,[wait:5] you two."/>
    <property name="text2_2" value="[speed:0.7]* The waters are nice."/>
    <property name="text2_3" value="[speed:0.7]* The choice is up to you, though."/>
    <property name="text3_1" value="[speed:0.7]* Most the time in this life,[wait:5] you don't get such a choice."/>
    <property name="text3_2" value="[speed:0.7]* I know that from experience."/>
    <property name="text3_3" value="[speed:0.7]* Even so,[wait:5] whichever road life takes you down..."/>
    <property name="text3_4" value="[speed:0.7]* ...I believe it all works out in the end."/>
    <property name="text4_1" value="[speed:0.7]* I had been searching for truth for the longest time..."/>
    <property name="text4_2" value="[speed:0.7]* ...[wait:5]this pond holds that truth."/>
    <property name="text4_3" value="[speed:0.7]* The waters,[wait:5] in general,[wait:5] hold the truth."/>
    <property name="text5_1" value="[speed:0.7]* The waters,[wait:5] in general,[wait:5] hold the truth."/>
   </properties>
  </object>
  <object id="30" name="chest" x="720" y="560" width="40" height="40">
   <properties>
    <property name="item" value="axe_piece"/>
   </properties>
  </object>
 </objectgroup>
 <layer id="7" name="edge" width="20" height="15">
  <data encoding="csv">
0,0,0,0,0,0,214,0,0,0,0,0,0,0,0,0,0,281,0,0,
0,0,0,0,0,0,224,0,0,0,0,0,0,0,0,0,0,0,0,0,
0,0,0,0,0,0,214,0,0,0,0,0,0,0,0,0,0,0,0,0,
0,0,0,0,0,0,224,0,0,0,0,0,0,0,0,0,0,0,0,0,
0,0,0,0,0,0,0,0,0,0,0,0,0,0,0,0,0,0,0,0,
0,0,0,0,0,0,0,0,0,0,0,0,0,0,0,0,0,0,0,0,
0,0,0,0,0,0,0,0,0,0,0,0,0,0,0,0,0,0,0,0,
0,0,0,0,0,0,0,0,0,0,0,0,0,0,0,0,0,0,0,0,
202,203,202,203,202,203,274,0,0,0,0,0,0,0,0,0,0,0,0,0,
0,0,0,0,0,0,232,0,0,0,0,0,0,0,0,0,0,0,0,0,
0,0,0,0,0,0,214,0,0,0,0,0,0,0,0,0,0,0,0,201,
0,0,0,0,0,0,232,0,0,0,0,0,0,0,0,0,0,0,0,211,
0,0,0,0,0,0,242,203,202,203,202,203,202,203,202,203,202,203,204,221,
0,0,0,0,0,0,0,0,0,0,0,0,0,0,0,0,212,213,242,243,
0,0,0,0,0,0,0,0,0,0,0,0,0,0,0,0,222,223,222,223
</data>
 </layer>
 <objectgroup color="#aa00ff" id="10" name="markers">
  <object id="7" name="spawn" x="40" y="300">
   <point/>
  </object>
 </objectgroup>
 <objectgroup color="#0000ff" id="8" name="collision">
  <object id="1" x="0" y="180" width="240" height="40"/>
  <object id="4" x="0" y="360" width="240" height="40"/>
  <object id="8" x="280" y="200" width="40" height="200"/>
  <object id="9" x="320" y="400" width="120" height="40"/>
  <object id="10" x="440" y="440" width="200" height="40"/>
  <object id="11" x="640" y="360" width="40" height="80"/>
  <object id="12" x="680" y="160" width="40" height="200"/>
  <object id="13" x="640" y="80" width="40" height="80"/>
  <object id="14" x="480" y="80" width="160" height="40"/>
  <object id="15" x="320" y="120" width="160" height="40"/>
  <object id="16" x="320" y="160" width="40" height="40"/>
  <object id="17" x="200" y="400" width="40" height="160"/>
  <object id="18" x="240" y="520" width="480" height="40"/>
  <object id="20" x="800" y="0" width="40" height="560"/>
  <object id="21" x="200" y="0" width="40" height="200"/>
  <object id="22" x="240" y="0" width="160" height="60"/>
  <object id="23" x="400" y="0" width="320" height="20"/>
  <object id="24" x="720" y="20" width="80" height="40"/>
  <object id="28" x="760" y="560" width="40" height="80"/>
  <object id="29" x="720" y="600" width="40" height="40"/>
  <object id="31" x="680" y="560" width="40" height="80"/>
 </objectgroup>
</map>
