<?xml version="1.0" encoding="UTF-8"?>
<map version="1.11" tiledversion="1.12.2" orientation="orthogonal" renderorder="right-down" width="29" height="56" tilewidth="40" tileheight="40" infinite="0" nextlayerid="17" nextobjectid="106">
 <editorsettings>
  <export target="garden_ladder3.lua" format="lua"/>
 </editorsettings>
 <properties>
  <property name="music" value="pursuit1"/>
  <property name="name" value="Garden - Ladder 3"/>
 </properties>
 <tileset firstgid="1" source="../../../tilesets/garden.tsx"/>
 <tileset firstgid="101" source="../../../tilesets/farm_world.tsx"/>
 <tileset firstgid="201" source="../../../tilesets/farm_world_extras.tsx"/>
 <tileset firstgid="228" source="../../../tilesets/garden_slide.tsx"/>
 <tileset firstgid="328" source="../../../tilesets/garden_extras.tsx"/>
 <group id="13" name="deco" locked="1">
  <layer id="15" name="star" width="29" height="56" visible="0" parallaxy="0.5">
   <data encoding="csv">
0,0,0,0,0,0,0,0,0,0,0,0,0,0,0,0,0,0,0,0,0,0,0,0,0,0,0,0,0,
0,0,0,0,0,0,0,0,0,0,0,0,0,0,0,0,0,0,0,0,0,0,0,0,0,0,0,0,0,
0,0,0,0,0,0,0,0,0,0,0,0,0,0,0,0,0,0,0,0,0,0,0,0,0,0,0,0,0,
0,0,0,0,0,0,0,0,0,0,0,0,0,0,0,0,0,0,0,0,0,0,0,0,0,0,0,0,0,
0,0,0,0,0,0,0,0,0,0,0,0,0,0,0,0,0,0,0,0,0,0,0,0,0,0,0,0,0,
0,0,0,0,0,0,0,0,0,0,0,0,0,0,0,0,0,0,0,0,0,0,0,0,0,0,0,0,0,
0,0,0,0,0,0,0,0,0,0,0,0,0,0,0,0,0,0,0,0,0,0,0,0,0,0,0,0,0,
0,0,0,0,0,0,0,0,0,0,0,0,0,0,0,0,0,0,0,0,0,0,0,0,0,0,0,0,0,
0,0,0,0,0,0,0,0,0,0,0,0,0,0,0,0,0,0,0,0,0,0,0,0,0,0,0,0,0,
0,0,0,0,0,0,0,0,0,0,0,0,0,0,0,0,0,0,0,0,0,0,0,0,0,0,0,0,0,
0,0,0,0,0,0,0,0,0,0,0,0,0,0,0,0,0,0,0,0,0,0,0,0,0,0,0,0,0,
0,0,0,0,0,0,0,0,0,0,0,0,0,0,0,0,0,0,0,0,0,0,0,0,0,0,0,0,0,
0,0,0,0,0,0,0,0,0,0,0,0,0,0,0,0,0,0,0,0,0,0,0,0,0,0,0,0,0,
0,0,0,0,0,0,0,0,0,0,0,0,0,0,0,0,0,0,0,0,0,0,0,0,0,0,0,0,0,
0,0,0,0,0,0,0,0,0,0,0,0,0,0,0,0,0,0,0,0,0,0,0,0,0,0,0,0,0,
0,0,0,0,0,0,0,0,0,0,0,0,0,0,0,0,0,0,0,0,0,0,0,0,0,0,0,0,0,
0,0,0,0,0,0,0,0,0,0,0,0,0,0,0,0,0,0,0,0,0,0,0,0,0,0,0,0,0,
0,0,0,0,0,0,0,0,0,0,0,0,0,0,0,0,0,0,0,0,0,0,0,0,0,0,0,0,0,
0,0,0,0,0,0,0,0,0,0,0,0,0,0,0,0,0,0,0,0,0,0,0,0,0,0,0,0,0,
3,3,3,3,3,3,3,3,3,3,3,3,3,3,3,3,3,3,3,3,3,3,3,3,3,3,3,3,3,
3,3,3,3,3,3,3,3,3,3,3,3,3,3,14,3,3,3,3,3,3,3,11,3,3,3,3,3,3,
3,3,4,3,3,3,3,3,3,3,3,3,3,3,3,3,3,3,3,3,3,3,3,3,3,3,3,3,3,
3,3,3,3,3,3,4,3,3,3,3,3,3,3,3,3,3,3,3,3,3,3,3,3,3,3,3,3,3,
3,3,3,3,3,3,3,3,3,3,3,3,3,3,3,3,3,3,3,3,3,3,4,3,3,3,3,3,3,
3,3,3,3,3,3,3,3,3,3,3,3,3,3,3,3,3,3,3,3,3,3,3,3,3,3,3,3,3,
3,3,3,3,3,3,3,3,3,3,3,3,3,3,3,3,3,3,3,3,3,3,3,3,3,3,3,3,3,
3,3,3,3,3,3,3,3,3,3,3,3,3,3,3,3,3,3,3,3,3,3,3,3,3,3,3,3,3,
2,3,3,3,3,3,3,3,4,3,3,3,3,3,14,3,3,13,3,3,3,3,3,3,3,3,3,3,12,
3,3,3,3,3,3,3,3,11,3,3,3,3,3,3,3,3,3,3,3,3,3,3,3,3,3,3,3,3,
3,1,3,3,3,3,3,3,3,3,3,3,3,3,3,3,3,3,3,3,3,3,3,3,3,3,3,3,3,
3,3,3,3,3,3,3,3,3,3,3,3,3,3,3,3,3,3,3,3,3,3,3,3,3,3,3,3,3,
3,3,3,3,3,3,14,3,3,3,3,3,3,3,3,14,3,3,3,3,3,3,3,3,3,3,3,3,3,
3,3,3,3,3,3,3,3,3,3,3,3,3,3,3,3,3,3,3,3,3,3,3,4,3,3,3,3,3,
3,3,3,3,3,3,3,3,3,3,3,3,3,3,3,3,3,3,3,3,3,3,3,3,3,3,3,3,3,
3,3,3,3,3,3,3,3,3,3,3,3,3,3,3,3,3,3,3,3,3,3,3,3,3,3,3,11,3,
3,3,3,3,3,3,3,3,3,3,3,3,3,3,3,3,3,3,3,3,3,3,3,3,3,3,3,3,3,
3,3,3,3,3,3,3,3,3,1,3,3,3,3,3,3,3,3,3,3,3,3,3,3,3,3,3,3,3,
3,11,3,3,3,3,3,3,3,3,3,3,3,3,3,3,3,3,3,3,3,3,3,3,3,3,3,3,3,
3,3,3,3,3,3,3,3,3,3,3,3,3,3,14,13,3,3,3,3,3,3,3,3,3,3,3,3,3,
3,3,3,3,12,3,3,3,3,3,3,3,3,3,3,3,3,3,13,3,3,3,3,3,3,3,3,4,3,
3,3,3,3,3,3,3,3,3,3,3,3,11,3,3,3,3,3,3,3,3,3,3,3,3,3,3,3,3,
3,3,3,3,3,3,3,3,3,3,3,3,3,3,3,3,3,3,3,3,3,3,3,3,3,3,3,3,3,
3,3,3,3,13,3,3,3,3,3,3,12,3,3,3,3,3,3,3,3,3,3,3,3,3,3,3,3,3,
14,3,3,3,3,3,3,3,3,3,3,3,3,3,3,3,3,3,3,3,3,3,3,3,3,3,3,3,3,
3,3,3,3,3,3,1,3,3,3,3,3,3,3,3,3,3,3,3,3,3,14,3,3,3,3,3,3,3,
3,3,3,3,3,3,3,3,3,3,3,3,3,3,3,3,3,3,3,3,3,3,3,3,3,3,3,3,3,
3,3,3,3,3,3,3,1,3,3,3,3,3,3,3,3,3,3,3,3,3,3,3,3,13,3,3,3,3,
3,3,3,3,3,3,3,3,3,3,3,3,3,3,3,3,3,3,3,3,3,3,3,3,3,3,3,3,3,
3,3,3,3,3,4,3,3,3,3,3,3,3,3,3,3,3,3,3,14,3,3,3,3,3,3,2,3,3,
3,3,3,3,3,3,3,3,3,3,3,3,3,3,3,3,3,3,3,3,3,3,3,3,3,3,3,3,3,
3,3,3,3,3,3,3,3,3,3,3,3,3,3,2,3,3,3,3,3,3,3,3,3,3,3,3,3,3,
3,3,3,3,3,3,3,3,3,3,3,3,3,3,3,3,3,3,3,3,4,3,3,3,3,3,3,3,3,
3,3,3,3,3,3,3,3,3,3,3,3,3,3,3,3,3,3,4,3,3,3,3,3,3,3,3,3,3,
1,3,3,3,3,3,3,3,3,3,3,3,3,3,3,3,3,3,3,3,3,3,3,3,3,3,3,3,3,
3,3,3,3,3,3,3,3,3,3,3,13,3,3,3,3,3,3,3,3,3,3,3,3,3,3,3,3,3,
3,3,3,3,3,3,3,3,1,3,3,3,3,3,3,13,3,3,3,3,3,3,3,3,3,3,3,3,3
</data>
  </layer>
  <objectgroup id="14" name="objects_background" locked="1">
   <object id="100" gid="367" x="0" y="720" width="1160" height="720"/>
  </objectgroup>
  <objectgroup id="16" name="objects_foreground" parallaxx="0.85" parallaxy="0.85"/>
 </group>
 <layer id="1" name="Tile Layer 1" width="29" height="56">
  <data encoding="csv">
0,0,0,0,0,0,0,0,0,0,0,0,0,0,0,0,0,0,0,0,0,0,0,0,0,0,0,0,0,
0,0,0,0,0,0,0,0,0,0,0,0,0,0,0,0,0,0,0,0,0,0,0,0,0,0,0,0,0,
0,0,0,0,0,0,0,0,0,0,0,0,0,0,0,0,0,0,0,0,0,0,0,0,0,0,0,0,0,
0,0,0,0,0,0,0,0,0,0,0,0,0,0,0,0,0,0,0,0,0,0,0,0,0,0,0,0,0,
0,0,0,0,0,0,0,0,0,0,0,0,0,0,0,0,0,0,0,0,0,0,0,0,0,0,0,0,0,
0,0,0,0,0,0,0,0,0,0,0,0,0,0,0,0,0,0,0,0,0,0,0,0,0,0,0,0,0,
0,0,0,0,0,0,0,0,21,5,6,5,5,5,6,5,5,7,5,5,22,0,0,0,0,0,0,0,0,
0,0,0,0,0,0,0,0,5,6,7,5,5,5,6,6,5,7,5,5,5,0,0,0,0,0,0,0,0,
0,0,0,0,0,0,0,0,5,5,7,5,5,5,6,5,7,7,5,5,5,0,0,0,0,0,0,0,0,
0,0,0,0,0,0,0,0,5,7,5,5,5,7,5,5,5,5,5,5,6,9,9,9,9,9,9,9,0,
0,0,0,0,0,0,0,0,5,5,5,5,5,5,5,5,6,5,5,5,5,19,19,19,19,19,19,228,0,
0,0,0,0,0,0,0,0,9,9,9,9,9,5,5,5,9,9,9,9,9,29,29,29,29,29,29,238,0,
0,0,0,0,0,0,0,0,19,19,19,19,19,5,5,5,19,19,19,19,19,39,39,39,39,39,39,238,0,
0,0,0,0,0,0,0,0,29,29,29,29,29,9,9,9,29,29,29,29,29,49,49,49,49,49,49,238,0,
0,0,0,0,0,0,0,0,39,39,39,39,39,19,19,19,39,39,39,39,39,59,59,59,59,59,59,238,0,
0,0,0,0,0,0,0,0,59,59,59,59,59,29,29,29,59,59,59,59,59,0,0,0,0,0,0,0,0,
0,0,0,0,0,0,0,0,0,0,0,0,0,39,39,39,0,0,0,0,0,0,0,0,0,0,0,0,0,
0,0,0,0,0,0,0,0,0,39,39,39,39,39,39,39,39,39,39,39,0,0,0,0,0,0,0,0,0,
0,0,0,0,0,0,0,0,0,39,39,39,39,39,39,39,39,39,39,39,0,0,0,0,0,0,0,0,0,
0,0,0,0,0,0,0,0,39,39,39,39,39,39,39,39,39,39,39,39,0,0,0,0,0,0,0,0,0,
0,0,0,0,0,0,0,0,39,39,39,39,39,39,39,39,39,39,39,39,39,0,0,0,0,0,0,0,0,
0,0,0,0,0,0,0,0,0,39,39,39,39,39,39,39,39,39,39,39,39,39,0,0,0,0,0,0,0,
0,0,0,0,0,0,0,0,0,0,39,39,39,39,39,39,39,39,39,39,39,39,0,0,0,0,0,0,0,
0,0,0,0,0,0,0,0,0,0,39,39,39,39,39,39,39,39,39,39,39,39,0,0,0,0,0,0,0,
0,0,39,39,39,39,39,39,39,39,39,39,39,39,39,39,39,39,39,39,39,0,0,0,0,0,0,0,0,
0,0,39,39,39,39,39,39,39,39,39,39,39,39,39,39,39,39,39,39,39,39,39,39,39,39,0,0,0,
0,0,39,39,39,39,39,39,39,39,39,39,39,39,39,39,39,39,39,39,39,39,39,39,39,39,0,0,0,
0,0,39,39,39,39,39,39,39,39,39,39,39,39,39,39,39,39,39,39,39,39,39,39,39,39,0,0,0,
0,0,39,39,39,39,39,39,39,39,39,39,39,39,39,39,39,39,39,39,39,39,39,39,39,39,0,0,0,
0,0,39,39,39,39,39,39,39,39,39,39,39,39,39,39,39,39,39,39,39,39,39,39,39,39,0,0,0,
0,0,39,39,39,39,39,39,39,39,39,39,39,39,39,39,39,39,39,39,39,39,39,39,39,39,0,0,0,
0,0,39,39,39,39,39,39,39,39,39,39,39,39,39,39,39,39,39,39,39,39,39,39,39,39,0,0,0,
0,0,0,0,39,39,39,39,39,39,39,39,39,39,39,39,39,39,39,39,39,39,39,39,39,39,0,0,0,
0,0,0,0,49,49,49,49,49,49,49,49,49,49,49,49,49,49,49,49,49,49,49,49,49,49,0,0,0,
0,0,0,0,49,49,49,49,49,49,49,49,49,49,49,49,49,49,49,49,49,49,49,49,49,49,0,0,0,
0,0,0,0,49,49,49,49,49,49,49,49,49,49,49,49,49,49,49,49,49,49,49,49,49,49,0,0,0,
0,0,0,0,49,49,49,49,49,49,49,49,49,49,49,49,49,49,49,0,0,0,0,0,0,0,0,0,0,
0,0,0,0,49,49,49,49,49,49,49,49,49,49,49,49,49,49,49,0,0,0,0,0,0,0,0,0,0,
0,0,0,0,0,0,0,0,49,49,49,49,49,49,49,49,49,49,49,0,0,0,0,0,0,0,0,0,0,
0,0,0,0,0,0,0,0,0,49,0,0,0,49,49,49,49,49,49,49,0,0,0,0,0,0,0,0,0,
0,0,0,0,0,0,0,0,0,0,0,0,0,49,49,49,49,49,49,49,49,0,0,0,0,0,0,0,0,
0,0,0,0,0,0,0,0,0,0,0,0,0,49,49,49,49,49,49,49,49,0,0,0,0,0,0,0,0,
0,0,0,0,0,0,0,0,0,0,0,0,0,49,49,49,49,49,49,49,49,0,0,0,0,0,0,0,0,
0,0,0,0,0,0,0,0,0,0,0,0,0,49,49,49,49,49,49,49,49,0,0,0,0,0,0,0,0,
0,0,0,0,0,0,0,0,0,0,0,0,0,49,49,49,49,49,49,49,49,0,0,0,0,0,0,0,0,
0,0,0,0,0,0,0,0,0,0,49,49,49,49,49,49,49,49,49,49,49,0,0,0,0,0,0,0,0,
0,0,0,0,0,0,0,0,0,0,49,49,49,49,49,49,49,49,49,49,49,0,0,0,0,0,0,0,0,
0,0,0,0,0,0,0,0,0,0,49,49,49,49,49,49,49,49,49,49,49,0,0,0,0,0,0,0,0,
0,0,0,0,0,0,0,0,0,0,49,49,49,49,49,49,49,49,49,49,49,0,0,0,0,0,0,0,0,
0,0,0,0,0,0,0,0,0,0,49,49,49,49,49,49,49,49,49,49,49,0,0,0,0,0,0,0,0,
0,0,0,0,0,0,0,0,0,0,49,49,49,49,49,49,49,49,49,49,49,0,0,0,0,0,0,0,0,
0,0,0,0,0,0,0,0,0,49,49,49,49,49,49,49,49,0,0,0,0,0,0,0,0,0,0,0,0,
0,0,0,0,0,0,0,0,0,49,49,49,49,49,49,49,0,0,0,0,0,0,0,0,0,0,0,0,0,
0,0,0,0,0,0,0,0,0,0,49,49,49,49,49,49,0,0,0,0,0,0,0,0,0,0,0,0,0,
0,0,0,0,0,0,0,0,0,0,0,0,0,49,49,49,0,0,0,0,0,0,0,0,0,0,0,0,0,
0,0,0,0,0,0,0,0,0,0,0,0,0,49,49,49,0,0,0,0,0,0,0,0,0,0,0,0,0
</data>
 </layer>
 <layer id="4" name="ladders" width="29" height="56">
  <data encoding="csv">
0,0,0,0,0,0,0,0,0,0,0,0,0,0,0,0,0,0,0,0,0,0,0,0,0,0,0,0,0,
0,0,0,0,0,0,0,0,0,0,0,0,0,0,0,0,0,0,0,0,0,0,0,0,0,0,0,0,0,
0,0,0,0,0,0,0,0,0,0,0,0,0,0,0,0,0,0,0,0,0,0,0,0,0,0,0,0,0,
0,0,0,0,0,0,0,0,0,0,0,0,0,0,0,0,0,0,0,0,0,0,0,0,0,0,0,0,0,
0,0,0,0,0,0,0,0,0,0,0,0,0,0,0,0,0,0,0,0,0,0,0,0,0,0,0,0,0,
0,0,0,0,0,0,0,0,0,0,0,0,0,0,0,0,0,0,0,0,0,0,0,0,0,0,0,0,0,
0,0,0,0,0,0,0,0,0,0,0,0,0,0,0,0,0,0,0,0,0,0,0,0,0,0,0,0,0,
0,0,0,0,0,0,0,0,0,0,0,0,0,0,0,0,0,0,0,0,0,0,0,0,0,0,0,0,0,
0,0,0,0,0,0,0,0,0,0,0,0,0,0,0,0,0,0,0,0,0,0,0,0,0,0,0,0,0,
0,0,0,0,0,0,0,0,0,0,0,0,0,0,0,0,0,0,0,0,0,0,0,0,0,0,0,0,0,
0,0,0,0,0,0,0,0,0,0,0,0,0,0,0,0,0,0,0,0,0,0,0,0,0,0,0,0,0,
0,0,0,0,0,0,0,0,0,0,0,0,0,0,0,0,0,0,0,0,0,0,0,0,0,0,0,0,0,
0,0,0,0,0,0,0,0,0,0,0,0,0,0,0,0,0,0,0,0,0,0,0,0,0,0,0,0,0,
0,0,0,0,0,0,0,0,0,0,0,0,0,0,0,0,0,0,0,0,0,0,0,0,0,0,0,0,0,
0,0,0,0,0,0,0,0,0,0,0,0,0,0,130,0,0,0,0,0,0,0,0,0,0,0,0,0,0,
0,0,0,0,0,0,0,0,0,0,0,0,0,0,130,0,0,0,0,0,0,0,0,0,0,0,0,0,0,
0,0,0,0,0,0,0,0,0,0,0,0,0,0,130,0,0,0,0,0,0,0,0,0,0,0,0,0,0,
0,0,0,0,0,0,0,0,0,0,0,0,0,0,130,0,0,0,0,0,0,0,0,0,0,0,0,0,0,
0,0,0,0,0,0,0,0,0,0,0,0,0,0,130,0,0,0,0,0,0,0,0,0,0,0,0,0,0,
0,0,0,0,0,0,0,0,0,0,0,0,0,0,130,0,0,0,0,0,0,0,0,0,0,0,0,0,0,
0,0,0,0,0,0,0,0,0,0,0,0,0,0,130,0,0,0,0,0,0,0,0,0,0,0,0,0,0,
0,0,0,0,0,0,0,0,0,0,0,0,0,0,130,0,0,0,0,0,0,0,0,0,0,0,0,0,0,
0,0,0,0,0,0,0,0,0,0,0,0,0,0,130,130,130,0,0,0,0,0,0,0,0,0,0,0,0,
0,0,0,0,0,0,0,0,0,0,0,0,0,0,0,0,130,0,0,0,0,0,0,0,0,0,0,0,0,
0,0,0,0,0,0,0,0,0,0,0,0,0,0,0,0,130,0,0,0,0,0,0,0,0,0,0,0,0,
0,0,130,130,130,130,130,0,0,0,0,0,0,0,0,0,0,0,0,0,0,0,0,0,0,0,0,0,0,
0,0,130,0,0,0,130,130,130,0,0,0,0,0,0,130,130,130,130,130,130,130,130,130,130,130,0,0,0,
0,0,130,0,0,0,0,0,0,0,0,0,0,0,0,0,0,0,0,0,0,0,0,0,0,130,0,0,0,
0,0,130,0,0,0,0,130,130,130,130,130,130,130,130,130,130,0,0,0,0,0,0,0,0,130,0,0,0,
0,0,130,130,0,0,0,0,0,0,0,0,0,0,0,0,0,0,0,0,0,0,0,0,0,130,0,0,0,
0,0,0,130,130,0,0,0,0,0,0,0,0,0,0,0,0,0,0,0,0,0,0,0,0,130,0,0,0,
0,0,0,0,130,130,0,0,0,130,0,0,0,0,0,0,0,0,0,0,0,0,0,0,0,130,0,0,0,
0,0,0,0,130,130,130,0,0,130,0,0,0,0,0,0,0,0,0,0,0,0,0,0,0,130,0,0,0,
0,0,0,0,130,0,0,0,0,130,0,0,0,0,0,0,0,0,0,0,0,0,0,0,0,130,0,0,0,
0,0,0,0,130,0,0,0,0,130,0,0,0,0,0,0,0,0,0,0,0,0,0,0,0,130,0,0,0,
0,0,0,0,130,130,130,130,130,130,130,130,130,130,130,130,130,130,130,130,130,130,130,130,130,130,0,0,0,
0,0,0,0,0,0,0,0,0,0,0,0,0,0,0,0,0,130,0,0,0,0,0,0,0,0,0,0,0,
0,0,0,0,0,0,0,0,0,0,0,0,0,0,0,0,0,130,0,0,0,0,0,0,0,0,0,0,0,
0,0,0,0,0,0,0,0,0,0,0,0,0,0,0,130,130,130,0,0,0,0,0,0,0,0,0,0,0,
0,0,0,0,0,0,0,0,0,0,0,0,0,0,0,130,0,0,0,0,0,0,0,0,0,0,0,0,0,
0,0,0,0,0,0,0,0,0,0,0,0,0,0,0,130,0,0,0,0,0,0,0,0,0,0,0,0,0,
0,0,0,0,0,0,0,0,0,0,0,0,0,0,0,130,0,0,0,0,0,0,0,0,0,0,0,0,0,
0,0,0,0,0,0,0,0,0,0,0,0,0,0,0,130,0,0,0,0,0,0,0,0,0,0,0,0,0,
0,0,0,0,0,0,0,0,0,0,0,0,0,0,0,130,130,130,130,130,130,0,0,0,0,0,0,0,0,
0,0,0,0,0,0,0,0,0,0,0,0,0,0,0,0,0,0,0,0,130,0,0,0,0,0,0,0,0,
0,0,0,0,0,0,0,0,0,0,0,0,0,0,0,0,0,0,0,0,130,0,0,0,0,0,0,0,0,
0,0,0,0,0,0,0,0,0,0,0,0,0,0,0,0,0,0,130,0,130,0,0,0,0,0,0,0,0,
0,0,0,0,0,0,0,0,0,0,0,130,130,130,130,130,130,0,130,0,130,0,0,0,0,0,0,0,0,
0,0,0,0,0,0,0,0,0,0,0,130,0,0,0,0,0,0,130,0,130,0,0,0,0,0,0,0,0,
0,0,0,0,0,0,0,0,0,0,0,130,0,0,0,0,0,0,0,0,0,0,0,0,0,0,0,0,0,
0,0,0,0,0,0,0,0,0,0,0,130,0,0,0,0,0,0,0,0,0,0,0,0,0,0,0,0,0,
0,0,0,0,0,0,0,0,0,0,0,130,130,130,130,0,0,0,0,0,0,0,0,0,0,0,0,0,0,
0,0,0,0,0,0,0,0,0,0,0,0,0,0,130,0,0,0,0,0,0,0,0,0,0,0,0,0,0,
0,0,0,0,0,0,0,0,0,0,0,0,0,0,130,0,0,0,0,0,0,0,0,0,0,0,0,0,0,
0,0,0,0,0,0,0,0,0,0,0,0,0,0,130,0,0,0,0,0,0,0,0,0,0,0,0,0,0,
0,0,0,0,0,0,0,0,0,0,0,0,0,0,130,0,0,0,0,0,0,0,0,0,0,0,0,0,0
</data>
 </layer>
 <objectgroup id="5" name="objects_ladders">
  <object id="4" name="climbarea" x="560" y="560" width="40" height="360"/>
  <object id="52" name="climbarea" x="600" y="880" width="80" height="40"/>
  <object id="53" name="climbarea" x="640" y="920" width="40" height="80"/>
  <object id="54" name="climbarea" x="600" y="1040" width="440" height="40"/>
  <object id="55" name="climbarea" x="1000" y="1080" width="40" height="360"/>
  <object id="56" name="climbarea" x="560" y="1400" width="440" height="40"/>
  <object id="57" name="climbarea" x="160" y="1400" width="400" height="40"/>
  <object id="58" name="climbarea" x="360" y="1240" width="40" height="160"/>
  <object id="59" name="climbarea" x="160" y="1240" width="40" height="160"/>
  <object id="60" name="climbarea" x="200" y="1240" width="40" height="80"/>
  <object id="61" name="climbarea" x="240" y="1280" width="40" height="40"/>
  <object id="62" name="climbarea" x="120" y="1200" width="80" height="40"/>
  <object id="63" name="climbarea" x="80" y="1160" width="80" height="40"/>
  <object id="65" name="climbarea" x="80" y="1000" width="40" height="160"/>
  <object id="66" name="climbarea" x="120" y="1000" width="160" height="40"/>
  <object id="67" name="climbarea" x="240" y="1040" width="120" height="40"/>
  <object id="68" name="climbarea" x="280" y="1120" width="400" height="40"/>
  <object id="69" name="climbarea" x="680" y="1440" width="40" height="120"/>
  <object id="70" name="climbarea" x="600" y="1520" width="80" height="40"/>
  <object id="71" name="climbarea" x="600" y="1560" width="40" height="200"/>
  <object id="72" name="climbarea" x="640" y="1720" width="200" height="40"/>
  <object id="73" name="climbarea" x="800" y="1760" width="40" height="200"/>
  <object id="74" name="climbarea" x="720" y="1840" width="40" height="120"/>
  <object id="75" name="climbarea" x="440" y="1880" width="240" height="40"/>
  <object id="76" name="climbarea" x="440" y="1920" width="40" height="160"/>
  <object id="77" name="climbarea" x="480" y="2040" width="120" height="40"/>
  <object id="78" name="climbarea" x="560" y="2080" width="40" height="160"/>
 </objectgroup>
 <objectgroup id="6" name="objects_climb_entry"/>
 <objectgroup id="7" name="objects_climb_exit">
  <object id="9" name="climbexit" x="560" y="560" width="40" height="40">
   <properties>
    <property name="solid" type="bool" value="true"/>
    <property name="target" type="object" value="51"/>
   </properties>
  </object>
 </objectgroup>
 <objectgroup id="9" name="objects_tilebutton"/>
 <objectgroup color="#ff007f" id="2" name="objects_party">
  <object id="1" name="transition" x="520" y="2220" width="120" height="40">
   <properties>
    <property name="map" value="chapter1/farm_world/garden_manorladders"/>
    <property name="marker" value="to_ladder3"/>
   </properties>
  </object>
  <object id="83" name="slidearea" x="1080" y="400" width="40" height="160">
   <properties>
    <property name="lock" type="bool" value="true"/>
    <property name="solid" type="bool" value="true"/>
   </properties>
  </object>
  <object id="95" name="transition" x="1040" y="560" width="120" height="40">
   <properties>
    <property name="map" value="chapter1/farm_world/garden_ladder_slide"/>
    <property name="marker" value="entry"/>
   </properties>
  </object>
  <object id="96" name="script" x="520" y="480" width="120" height="80">
   <properties>
    <property name="once" type="bool" value="false"/>
    <property name="script" value="stop_music"/>
   </properties>
  </object>
  <object id="97" name="bloomobeburstcontrol" x="120" y="2000">
   <properties>
    <property name="cooldown" type="float" value="3.5"/>
    <property name="cooldown_diff" type="float" value="1"/>
   </properties>
   <point/>
  </object>
  <object id="99" name="dirtflower" x="560" y="280" width="40" height="40">
   <properties>
    <property name="setflag" value="dirt1"/>
    <property name="setvalue" type="bool" value="true"/>
   </properties>
  </object>
  <object id="102" name="npc" x="360" y="250" width="40" height="40">
   <properties>
    <property name="actor" value="bloom_king"/>
    <property name="text1_1" value="* No cost too great."/>
   </properties>
  </object>
  <object id="103" name="script" x="1080" y="360" width="40" height="40">
   <properties>
    <property name="cutscene" value="chapter1/garden.forgetting"/>
    <property name="once" type="bool" value="false"/>
   </properties>
  </object>
 </objectgroup>
 <objectgroup color="#ff0000" id="12" name="battleareas" locked="1">
  <object id="98" x="0" y="680" width="1160" height="1560"/>
 </objectgroup>
 <objectgroup id="11" name="objects_camera_shenanigans" locked="1">
  <object id="81" name="cameratarget" x="0" y="0" width="1160" height="560">
   <properties>
    <property name="lockx" type="bool" value="false"/>
    <property name="locky" type="bool" value="true"/>
    <property name="marker" value="camera"/>
    <property name="returnspeed" type="int" value="12"/>
    <property name="speed" type="int" value="8"/>
   </properties>
  </object>
 </objectgroup>
 <objectgroup color="#ffff00" id="8" name="controllers">
  <object id="105" name="toggle" x="1120" y="160">
   <properties>
    <property name="flag" value="carrying_dirt"/>
    <property name="inverted" type="bool" value="true"/>
    <property name="target1" type="object" value="103"/>
    <property name="target2" type="object" value="104"/>
   </properties>
   <point/>
  </object>
 </objectgroup>
 <objectgroup color="#0000ff" id="10" name="collision">
  <object id="29" x="480" y="520" width="40" height="120"/>
  <object id="49" x="520" y="560" width="40" height="80"/>
  <object id="50" x="600" y="560" width="40" height="80"/>
  <object id="84" x="840" y="400" width="240" height="40"/>
  <object id="85" x="840" y="320" width="280" height="40"/>
  <object id="86" x="1120" y="360" width="40" height="40"/>
  <object id="87" x="1120" y="400" width="40" height="40"/>
  <object id="88" x="640" y="480" width="200" height="40"/>
  <object id="89" x="840" y="440" width="40" height="40"/>
  <object id="90" x="320" y="480" width="200" height="40"/>
  <object id="91" x="280" y="200" width="40" height="280"/>
  <object id="92" x="320" y="200" width="520" height="40"/>
  <object id="93" x="840" y="200" width="40" height="120"/>
  <object id="94" x="640" y="520" width="40" height="40"/>
  <object id="101" x="560" y="560" width="40" height="10"/>
  <object id="104" x="1090" y="360" width="30" height="40"/>
 </objectgroup>
 <objectgroup color="#aa00ff" id="3" name="markers">
  <object id="3" name="spawn" x="580" y="2180">
   <properties>
    <property name="player_state" value="CLIMB"/>
   </properties>
   <point/>
  </object>
  <object id="51" x="580" y="520">
   <point/>
  </object>
  <object id="82" name="camera" x="580" y="320">
   <point/>
  </object>
 </objectgroup>
</map>
