<?xml version="1.0" encoding="UTF-8"?>
<map version="1.10" tiledversion="1.12.2" orientation="orthogonal" renderorder="right-down" width="20" height="15" tilewidth="40" tileheight="40" infinite="0" nextlayerid="11" nextobjectid="8">
 <editorsettings>
  <export target="garden_orchard_tree_encounter.lua" format="lua"/>
 </editorsettings>
 <properties>
  <property name="music" value="orchard_wip"/>
 </properties>
 <tileset firstgid="1" source="../../../tilesets/garden.tsx"/>
 <tileset firstgid="101" source="../../../tilesets/orchard.tsx"/>
 <layer id="1" name="Camada de Blocos 1" width="20" height="15">
  <data encoding="csv">
5,5,5,5,5,5,5,5,5,5,5,5,5,5,5,5,5,5,5,5,
5,5,5,5,5,5,5,5,5,5,5,5,5,5,5,5,5,5,5,5,
5,5,5,5,5,5,5,5,5,5,5,5,5,5,5,5,5,5,5,5,
5,5,5,5,5,5,5,5,5,5,5,5,5,5,5,5,5,5,5,5,
5,5,5,5,5,5,5,5,5,5,5,5,5,5,5,5,5,5,5,5,
5,5,5,5,5,5,5,5,5,5,5,5,5,5,5,5,5,5,5,5,
5,5,5,5,5,5,5,5,5,5,5,5,5,5,5,5,5,5,5,5,
5,5,5,5,5,5,5,5,5,5,5,5,5,5,5,5,5,5,5,5,
5,5,5,5,5,5,5,5,5,5,5,5,5,5,5,5,5,5,5,5,
5,5,5,5,5,5,5,5,5,5,5,5,5,5,5,5,5,5,5,5,
5,5,5,5,5,5,5,5,5,5,5,5,5,5,5,5,5,5,5,5,
5,5,5,5,5,5,5,5,5,5,5,5,5,5,5,5,5,5,5,5,
5,5,5,5,5,5,5,5,5,5,5,5,5,5,5,5,5,5,5,5,
5,5,5,5,5,5,5,5,5,5,5,5,5,5,5,5,5,5,5,5,
5,5,5,5,5,5,5,5,5,5,5,5,5,5,5,5,5,5,5,5
</data>
 </layer>
 <layer id="9" name="backtrees" width="20" height="15">
  <data encoding="csv">
0,0,0,0,0,0,0,0,0,0,0,0,0,0,0,0,0,0,0,0,
0,0,0,0,0,0,0,0,0,0,0,0,0,0,0,0,0,0,0,0,
0,0,0,0,0,0,0,0,0,0,0,0,0,0,0,0,0,0,0,0,
0,0,0,0,0,0,0,0,0,0,0,0,0,0,0,0,0,0,0,0,
185,186,185,186,185,186,185,186,185,186,185,186,185,186,185,186,185,186,0,0,
195,196,195,196,195,196,195,196,195,196,195,196,195,196,195,196,195,196,0,0,
0,0,0,0,0,0,0,0,0,0,0,0,0,0,0,0,0,0,0,0,
0,0,0,0,0,0,0,0,0,0,0,0,0,0,0,0,0,0,0,0,
0,0,0,0,0,0,0,0,0,0,0,0,0,0,0,0,0,0,0,0,
0,0,0,0,0,0,0,0,0,0,0,0,0,0,0,0,0,0,0,0,
0,0,0,0,0,0,0,0,0,0,0,0,0,0,0,0,0,0,0,0,
0,0,0,0,0,0,0,0,0,0,0,0,0,0,0,0,0,0,0,0,
0,0,0,0,0,0,0,0,0,0,0,0,0,0,0,0,0,0,0,0,
0,0,0,0,0,0,0,0,0,0,0,0,0,0,0,0,0,0,0,0,
0,0,0,0,0,0,0,0,0,0,0,0,0,0,0,0,0,0,0,0
</data>
 </layer>
 <layer id="2" name="treres" width="20" height="15">
  <data encoding="csv">
112,113,112,113,112,113,112,113,112,113,112,113,112,113,112,113,112,113,112,113,
122,123,122,123,122,123,122,123,122,123,122,123,122,123,122,123,122,123,122,123,
112,113,112,113,112,113,112,113,112,113,112,113,112,113,112,113,112,113,112,113,
122,123,122,123,122,123,122,123,122,123,122,123,122,123,122,123,122,123,122,123,
182,183,182,183,182,183,182,183,182,183,182,183,182,183,182,183,182,183,182,183,
192,193,192,193,192,193,192,193,192,193,192,193,192,193,192,193,192,193,192,193,
0,0,0,0,0,0,0,0,0,0,0,0,0,0,0,0,0,0,0,0,
0,0,0,0,0,0,0,0,0,0,0,0,0,0,0,0,0,0,0,0,
0,0,0,0,0,0,0,0,0,0,0,0,0,0,0,0,0,0,0,0,
0,0,0,0,0,0,0,0,0,0,0,0,0,0,0,0,0,0,0,0,
0,0,0,0,0,0,0,0,0,0,0,0,0,0,0,0,0,0,0,0,
0,0,0,0,0,0,0,0,0,0,0,0,0,0,0,0,0,0,0,0,
0,0,0,0,0,0,0,0,0,0,0,0,0,0,0,0,0,0,0,0,
0,0,0,0,0,0,0,0,0,0,0,0,0,0,0,0,0,0,0,0,
0,0,0,0,0,0,0,0,0,0,0,0,0,0,0,0,0,0,0,0
</data>
 </layer>
 <layer id="10" name="apples" width="20" height="15">
  <data encoding="csv">
0,0,0,0,0,0,0,0,0,0,0,0,0,0,0,0,0,0,0,0,
0,0,0,0,0,0,0,0,0,0,0,0,0,0,0,0,0,0,0,0,
0,0,0,0,0,0,0,0,0,0,0,0,0,0,0,0,0,0,0,0,
188,199,197,190,189,189,200,198,187,187,188,188,190,200,190,199,199,190,0,0,
198,188,188,190,199,190,190,189,189,197,190,187,199,199,190,199,199,190,0,0,
0,0,0,0,0,0,0,0,0,0,0,0,0,0,0,0,0,0,0,0,
0,0,0,0,0,0,0,0,0,0,0,0,0,0,0,0,0,0,0,0,
0,0,0,0,0,0,0,0,0,0,0,0,0,0,0,0,0,0,0,0,
0,0,0,0,0,0,0,0,0,0,0,0,0,0,0,0,0,0,0,0,
0,0,0,0,0,0,0,0,0,0,0,0,0,0,0,0,0,0,0,0,
0,0,0,0,0,0,0,0,0,0,0,0,0,0,0,0,0,0,0,0,
0,0,0,0,0,0,0,0,0,0,0,0,0,0,0,0,0,0,0,0,
0,0,0,0,0,0,0,0,0,0,0,0,0,0,0,0,0,0,0,0,
0,0,0,0,0,0,0,0,0,0,0,0,0,0,0,0,0,0,0,0,
0,0,0,0,0,0,0,0,0,0,0,0,0,0,0,0,0,0,0,0
</data>
 </layer>
 <objectgroup color="#ff007f" id="7" name="objects_party">
  <object id="6" name="transition" x="-40" y="240" width="40" height="120">
   <properties>
    <property name="map" value="chapter1/farm_world/garden_orchard_maze"/>
    <property name="marker" value="to_tree"/>
   </properties>
  </object>
 </objectgroup>
 <layer id="3" name="leaves" width="20" height="15">
  <data encoding="csv">
0,0,0,0,0,0,0,0,0,0,0,0,0,0,0,0,0,0,0,0,
0,0,0,0,0,0,0,0,0,0,0,0,0,0,0,0,0,0,0,0,
0,0,0,0,0,0,0,0,0,0,0,0,0,0,0,0,0,0,0,0,
0,0,0,0,0,0,0,0,0,0,0,0,0,0,0,0,0,0,112,113,
0,0,0,0,0,0,0,0,0,0,0,0,0,0,0,0,0,111,122,123,
0,0,0,0,0,0,0,0,0,0,0,0,0,0,0,0,0,121,112,113,
0,0,0,0,0,0,0,0,0,0,0,0,0,0,0,0,0,111,122,123,
0,0,0,0,0,0,0,0,0,0,0,0,0,0,0,0,0,121,112,113,
172,173,172,173,172,173,172,173,172,173,172,173,172,173,172,173,172,143,122,123,
112,113,112,113,112,113,112,113,112,113,112,113,112,113,112,113,112,113,112,113,
122,123,122,123,122,123,122,123,122,123,122,123,122,123,122,123,122,123,122,123,
112,113,112,113,112,113,112,113,112,113,112,113,112,113,112,113,112,113,112,113,
122,123,122,123,122,123,122,123,122,123,122,123,122,123,122,123,122,123,122,123,
112,113,112,113,112,113,112,113,112,113,112,113,112,113,112,113,112,113,112,113,
122,123,122,123,122,123,122,123,122,123,122,123,122,123,122,123,122,123,122,123
</data>
 </layer>
 <layer id="4" name="nothing" width="20" height="15">
  <data encoding="csv">
0,0,0,0,0,0,0,0,0,0,0,0,0,0,0,0,0,0,0,0,
0,0,0,0,0,0,0,0,0,0,0,0,0,0,0,0,0,0,0,0,
0,0,0,0,0,0,0,0,0,0,0,0,0,0,0,0,0,0,0,0,
0,0,0,0,0,0,0,0,0,0,0,0,0,0,0,0,0,0,0,0,
0,0,0,0,0,0,0,0,0,0,0,0,0,0,0,0,0,0,0,0,
0,0,0,0,0,0,0,0,0,0,0,0,0,0,0,0,0,0,0,0,
0,0,0,0,0,0,0,0,0,0,0,0,0,0,0,0,0,0,0,0,
0,0,0,0,0,0,0,0,0,0,0,0,0,0,0,0,0,0,0,0,
0,0,0,0,0,0,0,0,0,0,0,0,0,0,0,0,0,0,0,0,
0,0,0,0,0,0,0,0,0,0,0,0,0,0,0,0,0,0,0,0,
0,0,0,0,0,0,0,0,0,0,0,0,0,0,0,0,0,0,0,0,
0,0,0,0,0,0,0,0,0,0,0,0,0,0,0,0,0,0,0,0,
0,0,0,0,0,0,0,0,0,0,0,0,0,0,0,0,0,0,0,0,
0,0,0,0,0,0,0,0,0,0,0,0,0,0,0,0,0,0,0,0,
0,0,0,0,0,0,0,0,0,0,0,0,0,0,0,0,0,0,0,0
</data>
 </layer>
 <objectgroup color="#0000ff" id="6" name="collision">
  <object id="1" x="0" y="120" width="720" height="100"/>
  <object id="2" x="0" y="360" width="720" height="40"/>
  <object id="3" x="720" y="183.333" width="83.9997" height="177.333"/>
 </objectgroup>
 <objectgroup color="#aa00ff" id="8" name="markers">
  <object id="7" name="spawn" x="40" y="300">
   <point/>
  </object>
 </objectgroup>
</map>
