<?xml version="1.0" encoding="UTF-8"?>
<map version="1.10" tiledversion="1.12.2" orientation="orthogonal" renderorder="right-down" width="23" height="48" tilewidth="40" tileheight="40" infinite="0" nextlayerid="12" nextobjectid="23">
 <editorsettings>
  <export target="garden_orchard2.lua" format="lua"/>
 </editorsettings>
 <properties>
  <property name="music" value="orchard_wip"/>
  <property name="name" value="Garden - Orchard"/>
 </properties>
 <tileset firstgid="1" source="../../../tilesets/garden.tsx"/>
 <tileset firstgid="101" source="../../../tilesets/orchard.tsx"/>
 <tileset firstgid="201" source="../../../tilesets/garden_extras.tsx"/>
 <layer id="1" name="Tile Layer 1" width="23" height="48">
  <data encoding="csv">
6,7,5,5,5,5,5,5,5,5,5,5,5,5,6,5,5,5,6,5,5,5,5,
7,5,5,5,5,5,5,5,5,5,5,5,7,5,5,5,5,5,5,5,5,5,6,
5,5,5,6,5,5,5,5,5,5,5,6,5,6,5,5,5,5,6,7,5,5,5,
6,5,5,6,5,5,6,5,5,5,5,5,5,7,5,6,5,5,5,5,6,5,5,
5,5,5,5,5,5,7,5,5,5,5,5,5,5,6,5,5,6,5,5,5,5,5,
5,7,5,5,5,5,5,5,6,7,6,5,5,5,5,7,5,5,6,5,5,5,5,
5,5,5,5,5,5,5,5,5,7,6,5,5,5,5,5,6,6,5,5,5,5,5,
5,5,5,5,6,5,6,5,5,5,5,5,5,5,5,5,5,7,7,5,5,5,6,
5,5,5,5,5,5,6,5,5,5,7,7,5,5,5,5,5,5,5,5,5,5,5,
6,5,5,5,5,5,7,5,6,5,5,6,6,5,7,5,6,6,5,7,6,5,5,
5,5,5,5,5,5,5,6,5,5,5,7,5,6,5,5,7,5,6,6,5,5,5,
7,7,5,5,5,6,5,6,5,5,6,5,5,5,6,5,6,5,5,7,7,5,7,
5,5,5,5,5,5,5,5,6,6,5,5,5,5,5,5,5,5,5,5,5,5,5,
5,6,5,5,5,5,5,6,5,5,5,5,5,5,6,5,6,5,7,5,5,5,5,
5,5,5,5,5,6,5,5,5,6,5,7,6,7,5,5,6,5,6,6,6,5,5,
5,5,6,5,6,5,5,5,5,7,5,6,5,5,6,5,5,5,7,6,5,5,5,
6,5,5,5,5,6,5,5,5,6,5,5,5,5,5,5,5,5,5,5,5,6,5,
5,6,5,7,5,5,5,5,5,7,5,5,5,5,5,5,5,5,5,5,5,6,5,
5,5,5,6,5,5,7,5,5,7,5,5,5,5,5,5,6,5,5,5,5,5,5,
6,5,5,5,5,6,5,5,5,5,5,5,5,5,5,5,5,5,6,5,5,5,5,
5,5,5,5,6,5,5,5,5,6,5,6,7,6,7,5,5,6,5,5,5,5,6,
5,5,5,5,7,5,5,6,7,6,5,6,5,5,5,7,5,6,5,5,5,5,5,
5,6,5,6,5,5,5,5,5,5,5,5,5,5,5,5,5,5,5,5,5,5,5,
5,5,7,5,5,5,5,5,5,5,5,6,5,5,6,6,5,6,5,5,5,5,6,
5,5,6,5,7,5,5,5,5,6,5,5,5,7,5,5,5,5,5,5,6,6,5,
5,5,5,5,5,5,6,6,5,6,5,5,6,5,5,5,5,5,5,5,5,5,5,
5,5,5,5,7,5,5,5,5,5,6,7,5,5,5,5,5,5,5,5,5,5,5,
5,5,5,5,5,5,6,5,5,5,5,5,5,5,6,5,5,5,5,6,5,6,6,
7,5,6,7,5,5,6,5,6,5,5,5,5,7,5,5,5,5,5,5,6,5,5,
5,5,7,5,5,5,5,5,7,5,5,5,5,6,5,5,5,7,5,5,5,5,7,
7,6,5,6,5,5,5,6,5,6,5,7,7,5,5,5,5,5,6,5,5,5,6,
5,5,5,5,5,7,7,5,5,5,5,5,6,6,7,5,5,5,5,5,5,5,6,
5,5,5,5,5,5,7,7,5,5,5,5,5,5,6,5,5,5,5,5,5,6,7,
5,5,6,5,5,5,5,6,6,6,5,5,7,7,5,6,5,5,5,6,7,5,5,
5,5,5,5,5,5,6,5,5,5,5,7,5,5,5,6,5,5,5,5,5,5,6,
5,5,6,7,5,5,5,5,5,5,5,5,5,5,6,6,5,5,5,6,5,5,5,
5,6,5,6,7,6,5,5,6,5,7,5,5,5,5,6,5,5,5,6,5,5,5,
5,5,5,5,6,5,5,5,5,5,5,5,5,5,5,5,5,5,5,6,5,5,5,
5,5,5,5,5,5,5,5,5,6,6,5,6,5,5,5,5,5,5,5,6,5,5,
6,7,5,6,5,6,7,5,5,5,5,5,5,5,5,5,5,5,5,6,5,6,5,
5,5,5,5,6,5,7,5,5,5,5,5,5,5,5,5,5,5,5,5,5,5,5,
5,5,6,5,5,5,6,5,6,5,5,5,5,5,6,5,5,5,5,5,5,5,5,
5,5,5,5,6,5,5,7,5,5,6,5,5,5,5,5,5,5,5,6,5,5,7,
6,5,5,5,5,5,5,5,5,5,5,5,5,7,5,5,5,6,6,5,5,5,5,
5,6,5,5,7,5,5,5,6,5,5,5,5,5,7,7,5,6,5,5,5,5,6,
5,5,5,5,5,5,5,5,6,5,5,5,5,5,5,5,5,5,5,5,5,5,5,
5,5,5,5,5,6,5,6,5,5,6,5,5,5,5,6,5,5,5,5,5,5,5,
5,5,6,5,5,7,6,5,5,7,5,5,5,5,5,5,6,5,5,5,5,5,6
</data>
 </layer>
 <layer id="4" name="backtrees" width="23" height="48">
  <data encoding="csv">
0,0,0,0,0,0,0,0,0,0,0,0,0,0,0,0,0,0,0,0,0,0,0,
0,0,0,0,0,0,0,0,0,0,0,0,0,0,0,0,0,0,0,0,0,0,0,
0,0,0,0,0,0,0,0,0,0,0,0,0,0,0,0,0,0,0,0,0,0,0,
0,0,0,0,0,0,0,0,0,0,0,0,0,0,0,0,0,0,0,0,0,0,0,
0,0,0,0,0,0,0,0,0,0,0,0,0,0,0,0,0,0,0,0,0,0,0,
0,0,0,0,0,0,0,0,0,0,0,0,0,0,0,0,0,0,0,0,0,0,0,
0,0,0,0,0,0,0,0,0,0,0,0,0,0,0,0,0,0,0,0,0,0,0,
0,0,0,0,0,0,0,0,0,0,0,0,0,0,0,0,0,0,0,0,0,0,0,
0,0,0,0,0,0,0,0,0,0,0,0,0,0,0,0,0,0,0,0,0,0,0,
0,0,0,0,0,0,0,0,0,0,0,0,0,0,0,0,0,0,0,0,0,0,0,
0,0,0,0,0,0,0,0,0,0,0,0,0,0,0,0,0,0,0,0,0,0,0,
0,0,0,0,0,0,0,186,185,186,185,186,185,0,0,0,0,0,0,0,0,0,0,
0,0,0,0,0,0,0,196,195,196,195,196,195,0,0,0,0,0,0,0,0,0,0,
0,0,0,0,0,0,0,0,0,0,0,0,0,0,0,0,0,0,0,0,0,0,0,
0,0,0,0,0,0,0,0,0,0,0,0,0,0,0,0,0,0,0,0,0,0,0,
0,0,0,0,0,0,0,0,0,0,0,0,0,0,0,0,0,0,0,0,0,0,0,
0,0,0,0,0,0,0,0,0,0,0,0,0,0,0,0,0,0,0,0,0,0,0,
0,0,0,0,0,0,0,0,0,0,0,0,0,0,0,0,0,0,0,0,0,0,0,
0,0,0,0,0,0,0,0,0,0,0,0,0,0,0,0,0,0,0,0,0,0,0,
0,0,0,0,0,0,0,0,0,0,0,0,0,0,0,0,0,0,0,0,0,0,0,
0,0,0,0,0,0,0,0,0,0,0,0,0,0,0,0,0,0,0,0,0,0,0,
0,0,0,0,0,0,0,0,0,0,0,0,0,0,0,0,0,0,0,0,0,0,0,
0,0,0,0,0,0,0,0,0,0,0,0,0,0,0,0,0,0,0,0,0,0,0,
0,0,0,0,0,0,0,0,0,0,0,0,0,0,0,0,0,0,0,0,0,0,0,
0,0,0,0,0,0,0,0,0,0,0,0,0,0,0,0,0,0,0,0,0,0,0,
0,0,0,0,0,0,0,0,0,0,0,0,0,0,0,0,0,0,0,0,0,0,0,
0,0,0,0,0,0,0,0,0,0,0,0,0,0,0,0,0,0,0,0,0,0,0,
0,0,0,0,0,0,0,0,0,0,0,0,0,0,0,0,0,0,0,0,0,0,0,
0,0,0,0,0,0,0,0,0,0,0,0,0,0,0,0,0,0,0,0,0,0,0,
0,0,0,0,0,0,0,0,0,0,0,0,0,0,0,0,0,0,0,0,0,0,0,
0,0,0,0,0,0,0,0,0,0,0,0,0,0,0,0,0,0,0,0,0,0,0,
0,0,0,0,0,0,0,0,0,0,0,0,0,0,0,0,0,0,0,0,0,0,0,
0,0,0,0,0,0,0,0,0,0,0,0,0,0,0,0,0,0,0,0,0,0,0,
0,0,0,0,0,0,0,0,0,0,0,0,0,0,0,0,0,0,0,0,0,0,0,
0,0,0,0,0,0,0,0,0,0,0,0,0,0,0,0,0,0,0,0,0,0,0,
0,0,0,0,0,0,0,0,0,0,0,0,0,0,0,0,0,0,0,0,0,0,0,
0,0,0,0,0,0,0,0,0,0,0,0,0,0,0,0,0,0,0,0,0,0,0,
0,0,0,0,0,0,0,0,0,0,0,0,0,0,0,0,0,0,0,0,0,0,0,
0,0,0,0,0,0,0,0,0,0,0,0,0,0,0,0,0,0,0,0,0,0,0,
0,0,0,0,0,0,0,0,0,0,0,0,0,0,0,0,0,0,0,0,0,0,0,
0,0,0,0,0,0,0,0,0,0,0,0,0,0,0,0,0,0,0,0,0,0,0,
0,0,0,0,0,0,0,0,0,0,0,0,0,0,0,0,0,0,0,0,0,0,0,
0,0,0,0,0,0,0,0,0,0,0,0,0,0,0,0,0,0,0,0,0,0,0,
0,0,0,0,0,0,0,0,0,0,0,0,0,0,0,0,0,0,0,0,0,0,0,
0,0,0,0,0,0,0,0,0,0,0,0,0,0,0,0,0,0,0,0,0,0,0,
0,0,0,0,0,0,0,0,0,0,0,0,0,0,0,0,0,0,0,0,0,0,0,
0,0,0,0,0,0,0,0,0,0,0,0,0,0,0,0,0,0,0,0,0,0,0,
0,0,0,0,0,0,0,0,0,0,0,0,0,0,0,0,0,0,0,0,0,0,0
</data>
 </layer>
 <layer id="5" name="trees" width="23" height="48">
  <data encoding="csv">
0,0,0,0,0,0,0,0,0,0,0,0,0,0,0,0,0,0,0,0,0,0,0,
0,0,0,0,0,0,0,0,0,0,0,0,0,0,0,0,0,0,0,0,0,0,0,
0,0,0,0,0,0,0,0,0,0,0,0,0,0,0,0,0,0,0,0,0,0,0,
0,0,0,0,0,0,0,0,0,0,0,0,0,0,0,0,0,0,0,0,0,0,0,
0,0,0,0,0,0,0,0,0,0,0,0,0,0,0,0,0,0,0,0,0,0,0,
0,0,0,0,0,0,112,113,112,113,112,113,112,113,0,0,0,0,0,0,0,0,0,
0,0,0,0,0,0,122,123,122,123,122,123,122,123,0,0,0,0,0,0,0,0,0,
0,0,0,0,0,0,112,113,112,113,112,113,112,113,0,0,0,0,0,0,0,0,0,
0,0,0,0,0,0,122,123,122,123,122,123,122,123,0,0,0,0,0,0,0,0,0,
0,0,0,0,0,0,112,113,112,113,112,113,112,113,0,0,0,0,0,0,0,0,0,
0,0,0,0,0,0,122,123,122,123,122,123,122,123,0,0,0,0,0,0,0,0,0,
0,0,0,0,0,181,182,183,182,183,182,183,182,183,184,0,0,0,0,0,0,0,0,
0,0,0,0,0,0,192,193,192,193,192,193,192,193,0,0,0,0,0,0,0,0,0,
0,0,0,0,0,0,0,0,0,0,0,0,0,0,0,0,0,0,0,0,0,0,0,
0,0,0,0,0,0,0,0,0,0,0,0,0,0,0,0,0,0,0,0,0,0,0,
0,0,0,0,0,0,0,0,0,0,0,0,0,0,0,0,0,0,0,0,0,0,0,
0,0,0,0,0,0,0,0,0,0,0,0,0,0,0,0,0,0,0,0,0,0,0,
0,0,0,0,0,0,0,0,0,0,0,0,0,0,0,0,0,0,0,0,0,0,0,
0,0,0,0,0,0,0,0,0,0,0,0,0,0,0,0,0,0,0,0,0,0,0,
0,0,0,0,0,0,0,0,0,0,0,0,0,0,0,0,0,0,0,0,0,0,0,
0,0,0,0,0,0,0,0,0,0,0,0,0,0,0,0,0,0,0,0,0,0,0,
0,0,0,0,0,0,0,0,0,0,0,0,0,0,0,0,0,0,0,0,0,0,0,
0,0,0,0,0,0,0,0,0,0,0,0,0,0,0,0,0,0,0,0,0,0,0,
0,0,0,0,0,0,0,0,0,0,0,0,0,0,0,0,0,0,0,0,0,0,0,
0,0,0,0,0,0,0,0,0,0,0,0,0,0,0,0,0,0,0,0,0,0,0,
0,0,0,0,0,0,0,0,0,0,0,0,0,0,0,0,0,0,0,0,0,0,0,
0,0,0,0,0,0,0,0,0,0,0,0,0,0,0,0,0,0,0,0,0,0,0,
0,0,0,0,0,0,0,0,0,0,0,0,0,0,0,0,0,0,0,0,0,0,0,
0,0,0,0,0,0,0,0,0,0,0,0,0,0,0,0,0,0,0,0,0,0,0,
0,0,0,0,0,0,0,0,0,0,0,0,0,0,0,0,0,0,0,0,0,0,0,
0,0,0,0,0,0,0,0,0,0,0,0,0,0,0,0,0,0,0,0,0,0,0,
0,0,0,0,0,0,0,0,0,0,0,0,0,0,0,0,0,0,0,0,0,0,0,
0,0,0,0,0,0,0,0,0,0,0,0,0,0,0,0,0,0,0,0,0,0,0,
0,0,0,0,0,0,0,0,0,0,0,0,0,0,0,0,0,0,0,0,0,0,0,
0,0,0,0,0,0,0,0,0,0,0,0,0,0,0,0,0,0,0,0,0,0,0,
0,0,0,0,0,0,0,0,0,0,0,0,0,0,0,0,0,0,0,0,0,0,0,
0,0,0,0,0,0,0,0,0,0,0,0,0,0,0,0,0,0,0,0,0,0,0,
0,0,0,0,0,0,0,0,0,0,0,0,0,0,0,0,0,0,0,0,0,0,0,
0,0,0,0,0,0,0,0,0,0,0,0,0,0,0,0,0,0,0,0,0,0,0,
0,0,0,0,0,0,0,0,0,0,0,0,0,0,0,0,0,0,0,0,0,0,0,
0,0,0,0,0,0,0,0,0,0,0,0,0,0,0,0,0,0,0,0,0,0,0,
0,0,0,0,0,0,0,0,0,0,0,0,0,0,0,0,0,0,0,0,0,0,0,
0,0,0,0,0,0,0,0,0,0,0,0,0,0,0,0,0,0,0,0,0,0,0,
0,0,0,0,0,0,0,0,0,0,0,0,0,0,0,0,0,0,0,0,0,0,0,
0,0,0,0,0,0,0,0,0,0,0,0,0,0,0,0,0,0,0,0,0,0,0,
0,0,0,0,0,0,0,0,0,0,0,0,0,0,0,0,0,0,0,0,0,0,0,
0,0,0,0,0,0,0,0,0,0,0,0,0,0,0,0,0,0,0,0,0,0,0,
0,0,0,0,0,0,0,0,0,0,0,0,0,0,0,0,0,0,0,0,0,0,0
</data>
 </layer>
 <layer id="6" name="apples" width="23" height="48">
  <data encoding="csv">
0,0,0,0,0,0,0,0,0,0,0,0,0,0,0,0,0,0,0,0,0,0,0,
0,0,0,0,0,0,0,0,0,0,0,0,0,0,0,0,0,0,0,0,0,0,0,
0,0,0,0,0,0,0,0,0,0,0,0,0,0,0,0,0,0,0,0,0,0,0,
0,0,0,0,0,0,0,0,0,0,0,0,0,0,0,0,0,0,0,0,0,0,0,
0,0,0,0,0,0,0,0,0,0,0,0,0,0,0,0,0,0,0,0,0,0,0,
0,0,0,0,0,0,0,0,0,0,0,0,0,0,0,0,0,0,0,0,0,0,0,
0,0,0,0,0,0,0,0,0,0,0,0,0,0,0,0,0,0,0,0,0,0,0,
0,0,0,0,0,0,0,0,0,0,0,0,0,0,0,0,0,0,0,0,0,0,0,
0,0,0,0,0,0,0,0,0,0,0,0,0,0,0,0,0,0,0,0,0,0,0,
0,0,0,0,0,0,0,0,0,0,0,0,0,0,0,0,0,0,0,0,0,0,0,
0,0,0,0,0,0,200,190,187,200,188,198,199,200,0,0,0,0,0,0,0,0,0,
0,0,0,0,0,0,188,188,188,198,188,198,190,198,0,0,0,0,0,0,0,0,0,
0,0,0,0,0,0,0,0,0,0,0,0,0,0,0,0,0,0,0,0,0,0,0,
0,0,0,0,0,0,0,0,0,0,0,0,0,0,0,0,0,0,0,0,0,0,0,
0,0,0,0,0,0,0,0,0,0,0,0,0,0,0,0,0,0,0,0,0,0,0,
0,0,0,0,0,0,0,0,0,0,0,0,0,0,0,0,0,0,0,0,0,0,0,
0,0,0,0,0,0,0,0,0,0,0,0,0,0,0,0,0,0,0,0,0,0,0,
0,0,0,0,0,0,0,0,0,0,0,0,0,0,0,0,0,0,0,0,0,0,0,
0,0,0,0,0,0,0,0,0,0,0,0,0,0,0,0,0,0,0,0,0,0,0,
0,0,0,0,0,0,0,0,0,0,0,0,0,0,0,0,0,0,0,0,0,0,0,
0,0,0,0,0,0,0,0,0,0,0,0,0,0,0,0,0,0,0,0,0,0,0,
0,0,0,0,0,0,0,0,0,0,0,0,0,0,0,0,0,0,0,0,0,0,0,
0,0,0,0,0,0,0,0,0,0,0,0,0,0,0,0,0,0,0,0,0,0,0,
0,0,0,0,0,0,0,0,0,0,0,0,0,0,0,0,0,0,0,0,0,0,0,
0,0,0,0,0,0,0,0,0,0,0,0,0,0,0,0,0,0,0,0,0,0,0,
0,0,0,0,0,0,0,0,0,0,0,0,0,0,0,0,0,0,0,0,0,0,0,
0,0,0,0,0,0,0,0,0,0,0,0,0,0,0,0,0,0,0,0,0,0,0,
0,0,0,0,0,0,0,0,0,0,0,0,0,0,0,0,0,0,0,0,0,0,0,
0,0,0,0,0,0,0,0,0,0,0,0,0,0,0,0,0,0,0,0,0,0,0,
0,0,0,0,0,0,0,0,0,0,0,0,0,0,0,0,0,0,0,0,0,0,0,
0,0,0,0,0,0,0,0,0,0,0,0,0,0,0,0,0,0,0,0,0,0,0,
0,0,0,0,0,0,0,0,0,0,0,0,0,0,0,0,0,0,0,0,0,0,0,
0,0,0,0,0,0,0,0,0,0,0,0,0,0,0,0,0,0,0,0,0,0,0,
0,0,0,0,0,0,0,0,0,0,0,0,0,0,0,0,0,0,0,0,0,0,0,
0,0,0,0,0,0,0,0,0,0,0,0,0,0,0,0,0,0,0,0,0,0,0,
0,0,0,0,0,0,0,0,0,0,0,0,0,0,0,0,0,0,0,0,0,0,0,
0,0,0,0,0,0,0,0,0,0,0,0,0,0,0,0,0,0,0,0,0,0,0,
0,0,0,0,0,0,0,0,0,0,0,0,0,0,0,0,0,0,0,0,0,0,0,
0,0,0,0,0,0,0,0,0,0,0,0,0,0,0,0,0,0,0,0,0,0,0,
0,0,0,0,0,0,0,0,0,0,0,0,0,0,0,0,0,0,0,0,0,0,0,
0,0,0,0,0,0,0,0,0,0,0,0,0,0,0,0,0,0,0,0,0,0,0,
0,0,0,0,0,0,0,0,0,0,0,0,0,0,0,0,0,0,0,0,0,0,0,
0,0,0,0,0,0,0,0,0,0,0,0,0,0,0,0,0,0,0,0,0,0,0,
0,0,0,0,0,0,0,0,0,0,0,0,0,0,0,0,0,0,0,0,0,0,0,
0,0,0,0,0,0,0,0,0,0,0,0,0,0,0,0,0,0,0,0,0,0,0,
0,0,0,0,0,0,0,0,0,0,0,0,0,0,0,0,0,0,0,0,0,0,0,
0,0,0,0,0,0,0,0,0,0,0,0,0,0,0,0,0,0,0,0,0,0,0,
0,0,0,0,0,0,0,0,0,0,0,0,0,0,0,0,0,0,0,0,0,0,0
</data>
 </layer>
 <objectgroup color="#ff007f" id="7" name="objects_party">
  <object id="2" name="transition" x="400" y="1920" width="120" height="40">
   <properties>
    <property name="map" value="chapter1/farm_world/garden_orchard1"/>
    <property name="marker" value="to_orch2"/>
   </properties>
  </object>
  <object id="9" gid="244" x="160" y="1040" width="600" height="200"/>
  <object id="17" name="savepoint" x="460" y="520" width="40" height="40">
   <properties>
    <property name="heals" type="bool" value="true"/>
    <property name="marker" value="spawn"/>
    <property name="text1" value="* (The smell of apples in the air fills you with a much-needed calm.)"/>
    <property name="text2" value="* (And yet...)"/>
    <property name="text3" value="* (...[wait:5]for some reason...[wait:5] some odd reason...)"/>
    <property name="text4" value="* (...[wait:5]your [color:yellow]DARK WALLET[color:reset] enters a quivering state.)"/>
    <property name="text_once" type="bool" value="true"/>
   </properties>
  </object>
  <object id="22" gid="247" x="300" y="600" width="100" height="100"/>
 </objectgroup>
 <objectgroup id="11" name="objects_apple_i_forgot">
  <object id="15" gid="245" x="440" y="850" width="40" height="60"/>
  <object id="21" name="interactable" x="300" y="500" width="100" height="100">
   <properties>
    <property name="once" type="bool" value="false"/>
    <property name="script" value="apple_bucket"/>
    <property name="solid" type="bool" value="true"/>
   </properties>
  </object>
 </objectgroup>
 <layer id="8" name="leaves" width="23" height="48">
  <data encoding="csv">
0,0,0,0,0,0,0,0,0,0,0,0,0,0,0,0,0,0,0,0,0,0,0,
0,0,0,0,0,0,0,0,0,0,0,0,0,0,0,0,0,0,0,0,0,0,0,
0,0,0,0,0,0,0,0,0,0,0,0,0,0,0,0,0,0,0,0,0,0,0,
0,0,114,0,0,0,0,0,0,0,0,0,0,0,0,0,0,0,0,0,111,0,0,
112,113,124,0,0,101,102,103,102,103,102,103,102,103,104,0,0,0,0,0,121,112,113,
122,123,114,0,0,111,0,0,0,0,0,0,0,0,114,0,0,0,0,0,111,122,123,
112,113,124,0,0,121,0,0,0,0,0,0,0,0,124,0,0,0,0,0,121,112,113,
122,123,114,0,0,111,0,0,0,0,0,0,0,0,114,0,0,0,0,0,111,122,123,
112,113,124,0,0,121,0,0,0,0,0,0,0,0,124,0,0,0,0,0,121,112,113,
122,123,114,0,0,111,0,0,0,0,0,0,0,0,114,0,0,0,0,0,111,122,123,
112,113,124,0,0,121,0,0,0,0,0,0,0,0,124,0,0,0,0,0,121,112,113,
122,123,114,0,0,0,0,0,0,0,0,0,0,0,0,0,0,0,0,0,111,122,123,
112,113,124,0,0,0,0,0,0,0,0,0,0,0,0,0,0,0,0,0,121,112,113,
122,123,114,0,0,0,0,0,0,0,0,0,0,0,0,0,0,0,0,0,111,122,123,
112,113,124,0,0,0,0,0,0,0,0,0,0,0,0,0,0,0,0,0,121,112,113,
122,123,114,0,0,0,0,0,0,0,0,0,0,0,0,0,0,0,0,0,111,122,123,
112,113,124,0,0,0,0,0,0,0,0,0,0,0,0,0,0,0,0,0,121,112,113,
122,123,114,0,0,0,0,0,0,0,0,0,0,0,0,0,0,0,0,0,111,122,123,
112,113,124,0,0,0,0,0,0,0,0,0,0,0,0,0,0,0,0,0,121,112,113,
122,123,114,0,0,0,0,0,0,0,0,0,0,0,0,0,0,0,0,0,111,122,123,
112,113,124,0,0,0,0,0,0,0,0,0,0,0,0,0,0,0,0,0,121,112,113,
122,123,142,103,104,0,0,0,0,0,0,0,0,0,0,0,0,0,101,102,143,122,123,
112,113,112,113,114,0,0,0,0,0,0,0,0,0,0,0,0,0,111,112,113,112,113,
122,123,122,123,124,0,0,0,0,0,0,0,0,0,0,0,0,0,121,122,123,122,123,
112,113,112,113,114,0,0,0,0,0,0,0,0,0,0,0,0,0,111,112,113,112,113,
122,123,122,123,124,0,0,0,0,0,0,0,0,0,0,0,0,0,121,122,123,122,123,
112,113,112,113,114,0,0,0,0,0,0,0,0,0,0,0,0,0,111,112,113,112,113,
122,123,122,123,124,0,0,0,0,0,0,0,0,0,0,0,0,0,121,122,123,122,123,
112,113,112,113,114,0,0,0,0,0,0,0,0,0,0,0,0,0,111,112,113,112,113,
122,123,122,123,124,0,0,0,0,0,0,0,0,0,0,0,0,0,121,122,123,122,123,
112,113,112,113,114,0,0,0,0,0,0,0,0,0,0,0,0,0,111,112,113,112,113,
122,123,122,123,142,103,102,103,102,103,104,0,101,102,103,102,103,102,143,122,123,122,123,
112,113,112,113,112,113,112,113,112,113,114,0,111,112,113,112,113,112,113,112,113,112,113,
122,123,122,123,122,123,122,123,122,123,124,0,121,122,123,122,123,122,123,122,123,122,123,
112,113,112,113,112,113,112,113,112,113,114,0,111,112,113,112,113,112,113,112,113,112,113,
122,123,122,123,122,123,122,123,122,123,124,0,121,122,123,122,123,122,123,122,123,122,123,
112,113,112,113,112,113,112,113,112,113,114,0,111,112,113,112,113,112,113,112,113,112,113,
122,123,122,123,122,123,122,123,122,123,124,0,121,122,123,122,123,122,123,122,123,122,123,
112,113,112,113,112,113,112,113,112,113,114,0,111,112,113,112,113,112,113,112,113,112,113,
122,123,122,123,122,123,122,123,122,123,124,0,121,122,123,122,123,122,123,122,123,122,123,
112,113,112,113,112,113,112,113,112,113,114,0,111,112,113,112,113,112,113,112,113,112,113,
122,123,122,123,122,123,122,123,122,123,124,0,121,122,123,122,123,122,123,122,123,122,123,
112,113,112,113,112,113,112,113,112,113,114,0,111,112,113,112,113,112,113,112,113,112,113,
122,123,122,123,122,123,122,123,122,123,124,0,121,122,123,122,123,122,123,122,123,122,123,
112,113,112,113,112,113,112,113,112,113,114,0,111,112,113,112,113,112,113,112,113,112,113,
122,123,122,123,122,123,122,123,122,123,124,0,121,122,123,122,123,122,123,122,123,122,123,
112,113,112,113,112,113,112,113,112,113,114,0,111,112,113,112,113,112,113,112,113,112,113,
122,123,122,123,122,123,122,123,122,123,124,0,121,122,123,122,123,122,123,122,123,122,123
</data>
 </layer>
 <objectgroup color="#aa00ff" id="9" name="markers">
  <object id="1" name="to_orch1" x="460" y="1880">
   <point/>
  </object>
 </objectgroup>
 <objectgroup color="#0000ff" id="10" name="collision">
  <object id="3" x="360" y="1280" width="40" height="640"/>
  <object id="4" x="160" y="1280" width="200" height="40"/>
  <object id="5" x="520" y="1280" width="40" height="640"/>
  <object id="6" x="560" y="1280" width="200" height="40"/>
  <object id="10" x="120" y="880" width="40" height="440"/>
  <object id="11" x="760" y="880" width="40" height="440"/>
  <object id="12" x="160" y="1020" width="240"/>
  <object id="14" x="520" y="1020" width="240"/>
  <object id="19" x="240" y="200" width="320" height="300"/>
 </objectgroup>
</map>
