<?xml version="1.0" encoding="UTF-8"?>
<map version="1.11" tiledversion="1.12.2" orientation="orthogonal" renderorder="right-down" width="20" height="15" tilewidth="40" tileheight="40" infinite="0" nextlayerid="11" nextobjectid="20">
 <editorsettings>
  <export target="garden_orchard_warp.lua" format="lua"/>
 </editorsettings>
 <properties>
  <property name="music" value="orchard_wip"/>
 </properties>
 <tileset firstgid="1" source="../../../tilesets/garden.tsx"/>
 <tileset firstgid="101" source="../../../tilesets/orchard.tsx"/>
 <layer id="1" name="Camada de Blocos 1" width="20" height="15">
  <data encoding="csv">
5,5,5,5,5,5,5,5,5,5,5,5,5,5,5,5,5,5,5,5,
5,5,5,5,5,5,5,5,5,5,5,5,5,5,5,5,5,5,5,5,
5,5,5,5,5,5,5,5,5,5,5,5,5,5,5,5,5,5,5,5,
5,5,5,5,5,5,5,5,5,5,5,5,5,5,5,5,5,5,5,5,
5,5,5,5,5,5,5,5,5,5,5,5,5,5,5,5,5,5,5,5,
5,5,5,5,5,5,5,5,5,5,5,5,5,5,5,5,5,5,5,5,
5,5,5,5,5,5,5,5,5,5,5,5,5,5,5,5,5,5,5,5,
5,5,5,5,5,5,5,5,5,5,5,5,5,5,5,5,5,5,5,5,
5,5,5,5,5,5,5,5,5,5,5,5,5,5,5,5,5,5,5,5,
5,5,5,5,5,5,5,5,5,5,5,5,5,5,5,5,5,5,5,5,
5,5,5,5,5,5,5,5,5,5,5,5,5,5,5,5,5,5,5,5,
5,5,5,5,5,5,5,5,5,5,5,5,5,5,5,5,5,5,5,5,
5,5,5,5,5,5,5,5,5,5,5,5,5,5,5,5,5,5,5,5,
5,5,5,5,5,5,5,5,5,5,5,5,5,5,5,5,5,5,5,5,
5,5,5,5,5,5,5,5,5,5,5,5,5,5,5,5,5,5,5,5
</data>
 </layer>
 <layer id="9" name="backtrees" width="20" height="15">
  <data encoding="csv">
0,0,0,0,0,0,0,0,0,0,0,0,0,0,0,0,0,0,0,0,
0,0,0,0,0,0,0,0,0,0,0,0,0,0,0,0,0,0,0,0,
0,0,0,0,0,0,0,0,0,0,0,0,0,0,0,0,0,0,0,0,
0,0,0,0,0,0,0,0,0,0,0,0,0,0,0,0,0,0,0,0,
185,186,185,186,185,186,185,186,185,186,185,186,185,186,185,186,185,186,0,0,
195,196,195,196,195,196,195,196,195,196,195,196,195,196,195,196,195,196,0,0,
0,0,0,0,0,0,0,0,0,0,0,0,0,0,0,0,0,0,0,0,
0,0,0,0,0,0,0,0,0,0,0,0,0,0,0,0,0,0,0,0,
0,0,0,0,0,0,0,0,0,0,0,0,0,0,0,0,0,0,0,0,
0,0,0,0,0,0,0,0,0,0,0,0,0,0,0,0,0,0,0,0,
0,0,0,0,0,0,0,0,0,0,0,0,0,0,0,0,0,0,0,0,
0,0,0,0,0,0,0,0,0,0,0,0,0,0,0,0,0,0,0,0,
0,0,0,0,0,0,0,0,0,0,0,0,0,0,0,0,0,0,0,0,
0,0,0,0,0,0,0,0,0,0,0,0,0,0,0,0,0,0,0,0,
0,0,0,0,0,0,0,0,0,0,0,0,0,0,0,0,0,0,0,0
</data>
 </layer>
 <layer id="2" name="treres" width="20" height="15">
  <data encoding="csv">
2147483761,2147483760,2147483761,2147483760,2147483761,2147483760,2147483761,2147483760,2147483761,2147483760,2147483761,2147483760,2147483761,2147483760,2147483761,2147483760,2147483761,2147483760,2147483761,2147483760,
2147483771,2147483770,2147483771,2147483770,2147483771,2147483770,2147483771,2147483770,2147483771,2147483770,2147483771,2147483770,2147483771,2147483770,2147483771,2147483770,2147483771,2147483770,2147483771,2147483770,
2147483761,2147483760,2147483761,2147483760,2147483761,2147483760,2147483761,2147483760,2147483761,2147483760,2147483761,2147483760,2147483761,2147483760,2147483761,2147483760,2147483761,2147483760,2147483761,2147483760,
2147483771,2147483770,2147483771,2147483770,2147483771,2147483770,2147483771,2147483770,2147483771,2147483770,2147483771,2147483770,2147483771,2147483770,2147483771,2147483770,2147483771,2147483770,2147483771,2147483770,
2147483831,2147483830,2147483831,2147483830,2147483831,2147483830,2147483831,2147483830,2147483831,2147483830,2147483831,2147483830,2147483831,2147483830,2147483831,2147483830,2147483831,2147483830,2147483831,2147483830,
2147483841,2147483840,2147483841,2147483840,2147483841,2147483840,2147483841,2147483840,2147483841,2147483840,2147483841,2147483840,2147483841,2147483840,2147483841,2147483840,2147483841,2147483840,2147483841,2147483840,
0,0,0,0,0,0,0,0,0,0,0,0,0,0,0,0,0,0,0,0,
0,0,0,0,0,0,0,0,0,0,0,0,0,0,0,0,0,0,0,0,
0,0,0,0,0,0,0,0,0,0,0,0,0,0,0,0,0,0,0,0,
0,0,0,0,0,0,0,0,0,0,0,0,0,0,0,0,0,0,0,0,
0,0,0,0,0,0,0,0,0,0,0,0,0,0,0,0,0,0,0,0,
0,0,0,0,0,0,0,0,0,0,0,0,0,0,0,0,0,0,0,0,
0,0,0,0,0,0,0,0,0,0,0,0,0,0,0,0,0,0,0,0,
0,0,0,0,0,0,0,0,0,0,0,0,0,0,0,0,0,0,0,0,
0,0,0,0,0,0,0,0,0,0,0,0,0,0,0,0,0,0,0,0
</data>
 </layer>
 <layer id="10" name="apples" width="20" height="15">
  <data encoding="csv">
0,0,0,0,0,0,0,0,0,0,0,0,0,0,0,0,0,0,0,0,
0,0,0,0,0,0,0,0,0,0,0,0,0,0,0,0,0,0,0,0,
0,0,0,0,0,0,0,0,0,0,0,0,0,0,0,0,0,0,0,0,
188,199,197,190,189,189,200,198,187,187,188,188,190,200,190,199,199,190,0,0,
198,188,188,190,199,190,190,189,189,197,190,187,199,199,190,199,199,190,0,0,
0,0,0,0,0,0,0,0,0,0,0,0,0,0,0,0,0,0,0,0,
0,0,0,0,0,0,0,0,0,0,0,0,0,0,0,0,0,0,0,0,
0,0,0,0,0,0,0,0,0,0,0,0,0,0,0,0,0,0,0,0,
0,0,0,0,0,0,0,0,0,0,0,0,0,0,0,0,0,0,0,0,
0,0,0,0,0,0,0,0,0,0,0,0,0,0,0,0,0,0,0,0,
0,0,0,0,0,0,0,0,0,0,0,0,0,0,0,0,0,0,0,0,
0,0,0,0,0,0,0,0,0,0,0,0,0,0,0,0,0,0,0,0,
0,0,0,0,0,0,0,0,0,0,0,0,0,0,0,0,0,0,0,0,
0,0,0,0,0,0,0,0,0,0,0,0,0,0,0,0,0,0,0,0,
0,0,0,0,0,0,0,0,0,0,0,0,0,0,0,0,0,0,0,0
</data>
 </layer>
 <objectgroup color="#ff007f" id="7" name="objects_party">
  <object id="17" name="transition" x="800" y="222.667" width="40" height="137.333">
   <properties>
    <property name="map" value="chapter1/farm_world/garden_orchard_maze"/>
    <property name="marker" value="to_corridor"/>
   </properties>
  </object>
  <object id="18" name="warpdoor" x="440" y="240">
   <properties>
    <property name="flag1" value="barracks"/>
    <property name="flag2" value="gardner_chase_end"/>
    <property name="map1" value="chapter1/farm_world/farm6_warpdoor"/>
    <property name="map2" value="chapter1/farm_world/garden1"/>
    <property name="map3" value="chapter1/farm_world/garden_orchard_warp"/>
    <property name="marker1" value="warp"/>
    <property name="marker2" value="warp"/>
    <property name="marker3" value="warp"/>
    <property name="name1" value="Wheat Field"/>
    <property name="name2" value="Garden"/>
    <property name="name3" value="Orchard"/>
   </properties>
   <point/>
  </object>
 </objectgroup>
 <layer id="3" name="leaves" width="20" height="15">
  <data encoding="csv">
0,0,0,0,0,0,0,0,0,0,0,0,0,0,0,0,0,0,0,0,
0,0,0,0,0,0,0,0,0,0,0,0,0,0,0,0,0,0,0,0,
0,0,0,0,0,0,0,0,0,0,0,0,0,0,0,0,0,0,0,0,
2147483761,2147483760,0,0,0,0,0,0,0,0,0,0,0,0,0,0,0,0,0,0,
2147483771,2147483770,2147483759,0,0,0,0,0,0,0,0,0,0,0,0,0,0,0,0,0,
2147483761,2147483760,2147483769,0,0,0,0,0,0,0,0,0,0,0,0,0,0,0,0,0,
2147483771,2147483770,2147483759,0,0,0,0,0,0,0,0,0,0,0,0,0,0,0,0,0,
2147483761,2147483760,2147483769,0,0,0,0,0,0,0,0,0,0,0,0,0,0,0,0,0,
2147483771,2147483770,2147483791,2147483820,2147483821,2147483820,2147483821,2147483820,2147483821,2147483820,2147483821,2147483820,2147483821,2147483820,2147483821,2147483820,2147483821,2147483820,2147483821,2147483820,
2147483761,2147483760,2147483761,2147483760,2147483761,2147483760,2147483761,2147483760,2147483761,2147483760,2147483761,2147483760,2147483761,2147483760,2147483761,2147483760,2147483761,2147483760,2147483761,2147483760,
2147483771,2147483770,2147483771,2147483770,2147483771,2147483770,2147483771,2147483770,2147483771,2147483770,2147483771,2147483770,2147483771,2147483770,2147483771,2147483770,2147483771,2147483770,2147483771,2147483770,
2147483761,2147483760,2147483761,2147483760,2147483761,2147483760,2147483761,2147483760,2147483761,2147483760,2147483761,2147483760,2147483761,2147483760,2147483761,2147483760,2147483761,2147483760,2147483761,2147483760,
2147483771,2147483770,2147483771,2147483770,2147483771,2147483770,2147483771,2147483770,2147483771,2147483770,2147483771,2147483770,2147483771,2147483770,2147483771,2147483770,2147483771,2147483770,2147483771,2147483770,
2147483761,2147483760,2147483761,2147483760,2147483761,2147483760,2147483761,2147483760,2147483761,2147483760,2147483761,2147483760,2147483761,2147483760,2147483761,2147483760,2147483761,2147483760,2147483761,2147483760,
2147483771,2147483770,2147483771,2147483770,2147483771,2147483770,2147483771,2147483770,2147483771,2147483770,2147483771,2147483770,2147483771,2147483770,2147483771,2147483770,2147483771,2147483770,2147483771,2147483770
</data>
 </layer>
 <layer id="4" name="nothing" width="20" height="15">
  <data encoding="csv">
0,0,0,0,0,0,0,0,0,0,0,0,0,0,0,0,0,0,0,0,
0,0,0,0,0,0,0,0,0,0,0,0,0,0,0,0,0,0,0,0,
0,0,0,0,0,0,0,0,0,0,0,0,0,0,0,0,0,0,0,0,
0,0,0,0,0,0,0,0,0,0,0,0,0,0,0,0,0,0,0,0,
0,0,0,0,0,0,0,0,0,0,0,0,0,0,0,0,0,0,0,0,
0,0,0,0,0,0,0,0,0,0,0,0,0,0,0,0,0,0,0,0,
0,0,0,0,0,0,0,0,0,0,0,0,0,0,0,0,0,0,0,0,
0,0,0,0,0,0,0,0,0,0,0,0,0,0,0,0,0,0,0,0,
0,0,0,0,0,0,0,0,0,0,0,0,0,0,0,0,0,0,0,0,
0,0,0,0,0,0,0,0,0,0,0,0,0,0,0,0,0,0,0,0,
0,0,0,0,0,0,0,0,0,0,0,0,0,0,0,0,0,0,0,0,
0,0,0,0,0,0,0,0,0,0,0,0,0,0,0,0,0,0,0,0,
0,0,0,0,0,0,0,0,0,0,0,0,0,0,0,0,0,0,0,0,
0,0,0,0,0,0,0,0,0,0,0,0,0,0,0,0,0,0,0,0,
0,0,0,0,0,0,0,0,0,0,0,0,0,0,0,0,0,0,0,0
</data>
 </layer>
 <objectgroup color="#0000ff" id="6" name="collision">
  <object id="14" x="83.9997" y="120" width="720" height="100"/>
  <object id="15" x="83.9997" y="360" width="720" height="40"/>
  <object id="16" x="0" y="183.333" width="83.9997" height="177.333"/>
 </objectgroup>
 <objectgroup color="#aa00ff" id="8" name="markers">
  <object id="7" name="spawn" x="753.333" y="302.667">
   <point/>
  </object>
  <object id="19" name="warp" x="440" y="280">
   <point/>
  </object>
 </objectgroup>
</map>
