<?xml version="1.0" encoding="UTF-8"?>
<map version="1.11" tiledversion="1.12.2" orientation="orthogonal" renderorder="right-down" width="16" height="12" tilewidth="40" tileheight="40" infinite="0" nextlayerid="8" nextobjectid="16">
 <editorsettings>
  <export target="garden_orchard_pre_mint.lua" format="lua"/>
 </editorsettings>
 <properties>
  <property name="music" value="garden"/>
  <property name="name" value="Garden - Orchard Mint"/>
 </properties>
 <tileset firstgid="1" source="../../../tilesets/garden.tsx"/>
 <tileset firstgid="101" source="../../../tilesets/orchard.tsx"/>
 <layer id="1" name="Tile Layer 1" width="16" height="12">
  <data encoding="csv">
5,5,5,5,6,5,5,5,5,5,5,5,5,5,5,5,
5,5,6,5,5,5,5,5,5,6,5,6,6,5,5,5,
6,5,5,6,7,7,5,5,5,5,5,5,5,5,5,7,
5,7,5,5,5,5,6,5,5,5,5,5,5,5,5,5,
5,5,5,5,5,5,5,5,5,5,5,5,5,6,6,5,
5,5,5,5,5,6,5,5,6,5,7,5,5,5,6,6,
5,5,5,5,5,5,6,5,5,5,5,6,5,5,5,7,
5,5,5,5,6,5,5,5,5,5,5,5,5,5,6,5,
5,7,6,5,5,6,5,5,5,5,5,5,5,5,5,6,
6,6,5,5,5,5,7,5,6,5,6,6,5,5,5,7,
7,7,7,5,6,5,7,5,5,5,5,5,5,6,5,5,
5,5,6,5,5,6,5,5,5,5,5,5,5,5,5,5
</data>
 </layer>
 <layer id="2" name="trees" width="16" height="12">
  <data encoding="csv">
0,0,0,0,0,0,0,0,0,0,0,0,0,0,0,0,
0,0,0,0,0,0,0,0,0,0,0,0,0,0,0,0,
0,0,183,184,181,182,0,0,0,0,0,0,0,0,0,0,
0,0,193,0,0,192,0,0,0,0,0,0,0,0,0,0,
0,0,0,0,0,0,0,0,0,0,122,123,122,123,0,0,
0,0,0,0,0,0,122,123,122,123,182,183,182,183,0,0,
0,0,0,0,0,181,182,183,182,183,192,193,192,193,0,0,
0,0,0,0,0,0,192,193,192,193,0,0,0,0,0,0,
0,0,0,0,0,0,0,0,0,0,0,0,0,0,0,0,
0,0,0,0,0,0,0,0,0,0,0,0,0,0,0,0,
0,0,0,0,0,0,0,0,0,0,0,0,0,0,0,0,
0,0,0,0,0,0,0,0,0,0,0,0,0,0,0,0
</data>
 </layer>
 <layer id="4" name="apple" width="16" height="12">
  <data encoding="csv">
0,0,0,0,0,0,0,0,0,0,0,0,0,0,0,0,
0,0,0,0,0,0,0,0,0,0,0,0,0,0,0,0,
0,0,0,0,0,0,0,0,0,0,0,0,0,0,0,0,
0,0,0,0,0,0,0,0,0,0,0,0,0,0,0,0,
0,0,0,0,0,0,0,0,0,0,190,188,177,199,0,0,
0,0,0,0,0,0,178,187,190,180,114,190,189,180,0,0,
0,0,0,0,0,0,188,180,187,200,184,0,0,0,0,0,
0,0,0,0,0,0,0,0,0,0,0,0,0,0,0,0,
0,0,0,0,0,0,0,0,0,0,0,0,0,0,0,0,
0,0,0,0,0,0,0,0,0,0,0,0,0,0,0,0,
0,0,0,0,0,0,0,0,0,0,0,0,0,0,0,0,
0,0,0,0,0,0,0,0,0,0,0,0,0,0,0,0
</data>
 </layer>
 <objectgroup color="#ff007f" id="5" name="objects_party">
  <object id="1" name="chest" x="460" y="320" width="40" height="40">
   <properties>
    <property name="item" value="revivemint"/>
   </properties>
  </object>
  <object id="2" name="transition" x="120" y="-40" width="80" height="40">
   <properties>
    <property name="map" value="chapter1/farm_world/garden_orchard_pre"/>
    <property name="marker" value="to_mint"/>
   </properties>
  </object>
 </objectgroup>
 <objectgroup color="#aa00ff" id="6" name="markers">
  <object id="4" name="spawn" x="160" y="40">
   <point/>
  </object>
 </objectgroup>
 <layer id="3" name="leaves" width="16" height="12">
  <data encoding="csv">
112,113,113,114,111,113,112,113,112,113,112,113,112,113,112,113,
122,123,113,124,121,113,122,123,122,123,122,123,122,123,122,123,
112,113,114,0,0,111,112,113,112,113,112,113,112,113,112,113,
122,123,124,0,0,111,122,123,122,123,122,123,122,123,122,123,
112,113,114,0,0,121,112,113,112,113,104,0,0,101,112,113,
122,123,124,0,0,111,0,0,0,0,0,0,0,121,122,123,
112,113,114,0,0,0,0,0,0,0,0,0,0,133,112,113,
122,123,124,0,0,0,0,0,0,0,0,0,0,111,122,123,
112,113,114,0,0,0,0,0,0,0,0,0,0,111,112,113,
122,123,142,103,102,103,102,103,102,103,104,0,0,121,122,123,
112,113,112,113,112,113,112,113,112,113,142,103,102,143,112,113,
122,123,122,123,122,123,122,123,122,123,112,113,112,113,122,123
</data>
 </layer>
 <objectgroup color="#0000ff" id="7" name="collision">
  <object id="5" x="80" y="0" width="40" height="140"/>
  <object id="6" x="200" y="0" width="40" height="140"/>
  <object id="7" x="40" y="120" width="40" height="280"/>
  <object id="8" x="80" y="400" width="320" height="40"/>
  <object id="9" x="400" y="440" width="160" height="40"/>
  <object id="10" x="560" y="200" width="40" height="240"/>
  <object id="12" x="410" y="200" width="140" height="60"/>
  <object id="14" x="240" y="120" width="160" height="180"/>
 </objectgroup>
</map>
