<?xml version="1.0" encoding="UTF-8"?>
<map version="1.11" tiledversion="1.12.2" orientation="orthogonal" renderorder="right-down" width="40" height="20" tilewidth="40" tileheight="40" infinite="0" nextlayerid="8" nextobjectid="45">
 <editorsettings>
  <export target="garden_treasurehunt2.lua" format="lua"/>
 </editorsettings>
 <properties>
  <property name="music" value="garden"/>
  <property name="name" value="Garden - Weight Puzzle"/>
 </properties>
 <tileset firstgid="1" source="../../../tilesets/garden.tsx"/>
 <tileset firstgid="101" name="garden_extras" tilewidth="1160" tileheight="738" tilecount="19" columns="0">
  <grid orientation="orthogonal" width="1" height="1"/>
  <tile id="29">
   <image source="../../../../../assets/sprites/tilesets/farm_world/garden/pikmin_flowers.png" width="60" height="80"/>
  </tile>
  <tile id="30">
   <image source="../../../../../assets/sprites/tilesets/farm_world/garden/saskatchewan_flowers.png" width="60" height="80"/>
  </tile>
  <tile id="31">
   <image source="../../../../../assets/sprites/tilesets/farm_world/garden/saskatchewan_flowers_small.png" width="60" height="80"/>
  </tile>
  <tile id="32">
   <image source="../../../../../assets/sprites/tilesets/farm_world/garden/trillium_flowers.png" width="60" height="80"/>
  </tile>
  <tile id="33">
   <image source="../../../../../assets/sprites/tilesets/farm_world/pikmin3_stonebarrier.png" width="864" height="580"/>
  </tile>
  <tile id="34">
   <image source="../../../../../assets/sprites/tilesets/farm_world/pikmin3_flowerbg.png" width="404" height="304"/>
  </tile>
  <tile id="35">
   <image source="../../../../../assets/sprites/tilesets/farm_world/pikmin3_pot.png" width="197" height="219"/>
  </tile>
  <tile id="36">
   <image source="../../../../../assets/sprites/tilesets/farm_world/pikmin3_rock.png" width="252" height="202"/>
  </tile>
  <tile id="37">
   <image source="../../../../../assets/sprites/tilesets/farm_world/pikmin2_cave.png" width="640" height="480"/>
  </tile>
  <tile id="38">
   <image source="../../../../../assets/sprites/tilesets/farm_world/garden/dirt_pile.png" width="360" height="360"/>
  </tile>
  <tile id="39">
   <image source="../../../../../assets/sprites/tilesets/farm_world/garden/purple_ladder3.png" width="1160" height="720"/>
  </tile>
  <tile id="40">
   <image source="../../../../../assets/sprites/tilesets/farm_world/garden/shop_door.png" width="36" height="49"/>
  </tile>
  <tile id="41">
   <image source="../../../../../assets/sprites/tilesets/farm_world/garden/shop_sign.png" width="36" height="16"/>
  </tile>
  <tile id="42">
   <image source="../../../../../assets/sprites/tilesets/farm_world/pikmin2_geyser.png" width="123" height="113"/>
  </tile>
  <tile id="43">
   <image source="../../../../../assets/sprites/tilesets/farm_world/garden/orchard/fence.png" width="600" height="200"/>
  </tile>
  <tile id="44">
   <image source="../../../../../assets/sprites/tilesets/farm_world/garden/orchard/apple.png" width="40" height="60"/>
  </tile>
  <tile id="45">
   <image source="../../../../../assets/sprites/tilesets/farm_world/garden/orchard/apple_bucket.png" width="866" height="738"/>
  </tile>
  <tile id="46">
   <image source="../../../../../assets/sprites/tilesets/farm_world/garden/orchard/apple_bucket_2.png" width="866" height="738"/>
  </tile>
  <tile id="47">
   <image source="../../../../../assets/sprites/tilesets/farm_world/garden/paperbag.png" width="456" height="205"/>
  </tile>
 </tileset>
 <tileset firstgid="149" source="../../../tilesets/treasures.tsx"/>
 <tileset firstgid="162" source="../../../tilesets/garden_extras.tsx"/>
 <layer id="1" name="Camada de Blocos 1" width="40" height="20">
  <data encoding="csv">
0,0,0,0,0,0,0,0,0,0,0,0,0,0,0,0,0,0,0,0,0,0,0,0,0,0,0,0,0,0,0,0,0,0,0,0,0,0,0,0,
0,0,0,0,0,0,0,0,0,0,0,0,0,0,0,0,0,0,0,0,0,0,0,0,0,0,0,0,0,0,0,0,0,0,0,0,0,0,0,0,
0,0,0,0,0,0,0,0,0,0,0,0,0,0,0,0,0,0,0,0,0,0,0,0,0,0,0,0,0,0,0,0,0,0,0,0,0,0,0,0,
0,0,0,0,0,0,0,0,0,0,0,0,0,0,0,0,0,0,5,0,0,0,0,0,0,0,0,0,0,0,0,0,0,0,0,0,0,0,0,0,
0,0,0,0,0,0,0,0,0,0,0,0,0,0,0,0,5,5,5,5,5,5,5,5,0,0,0,0,0,0,0,0,0,0,0,0,0,0,0,0,
0,0,0,0,0,0,0,0,0,0,0,0,0,0,5,5,5,5,5,6,5,5,5,5,5,5,0,0,0,0,0,0,0,0,0,0,0,0,0,0,
5,5,5,5,5,5,5,5,5,5,5,5,5,5,5,5,5,5,5,5,5,5,5,5,5,5,0,0,0,0,0,0,0,0,0,0,0,0,0,0,
5,5,5,5,5,5,5,5,5,5,5,5,5,5,5,5,5,7,5,5,5,5,5,5,5,5,5,5,5,5,5,5,5,5,5,5,5,5,5,5,
5,5,5,5,5,5,5,5,5,5,5,5,5,5,5,5,5,5,5,5,5,5,6,5,5,5,5,6,5,5,5,5,5,5,5,5,5,5,5,5,
5,5,5,5,5,5,5,5,5,5,5,5,5,5,5,6,5,5,5,5,5,5,5,5,5,5,9,9,9,9,9,9,9,9,9,9,9,9,9,9,
5,5,5,5,5,5,5,5,5,5,5,5,5,5,5,5,5,5,5,5,5,6,5,5,5,5,19,19,19,19,19,19,19,19,19,19,19,19,19,19,
9,9,9,9,9,9,9,9,9,9,9,9,9,9,5,5,5,5,5,5,5,5,5,5,7,5,29,29,29,29,29,29,29,29,29,29,29,29,29,29,
19,19,19,19,19,19,19,19,19,19,19,19,19,19,9,5,5,5,5,5,5,5,5,5,5,9,39,39,39,39,39,39,39,39,39,39,39,39,39,39,
29,29,29,29,29,29,29,29,29,29,29,29,29,29,19,9,5,5,6,5,5,5,5,9,9,29,49,49,49,49,49,49,49,49,49,49,49,49,49,49,
39,39,39,39,39,39,39,39,39,39,39,39,39,39,29,19,9,9,9,9,9,9,9,29,29,39,59,59,59,59,59,59,59,59,59,59,59,59,59,59,
49,49,49,49,49,49,49,49,49,49,49,49,49,49,39,29,29,29,29,29,29,29,29,39,39,49,0,0,0,0,0,0,0,0,0,0,0,0,0,0,
59,59,59,59,59,59,59,59,59,59,59,59,59,59,49,39,39,39,39,39,39,39,39,49,49,59,0,0,0,0,0,0,0,0,0,0,0,0,0,0,
0,0,0,0,0,0,0,0,0,0,0,0,0,0,59,49,49,49,49,49,49,49,49,59,59,0,0,0,0,0,0,0,0,0,0,0,0,0,0,0,
0,0,0,0,0,0,0,0,0,0,0,0,0,0,0,59,59,59,59,59,59,59,59,0,0,0,0,0,0,0,0,0,0,0,0,0,0,0,0,0,
0,0,0,0,0,0,0,0,0,0,0,0,0,0,0,0,0,0,0,0,0,0,0,0,0,0,0,0,0,0,0,0,0,0,0,0,0,0,0,0
</data>
 </layer>
 <objectgroup color="#ff007f" id="4" name="objects">
  <object id="9" gid="148" x="186" y="464.333" width="354" height="205"/>
  <object id="35" gid="159" x="30" y="478.667" width="131.667" height="238.438"/>
  <object id="39" gid="210" x="680" y="240" width="40" height="60"/>
  <object id="40" gid="210" x="880" y="280" width="40" height="60"/>
  <object id="41" gid="210" x="920" y="440" width="40" height="60"/>
  <object id="42" gid="210" x="760" y="520" width="40" height="60"/>
 </objectgroup>
 <objectgroup color="#ffff00" id="5" name="controllers">
  <object id="13" name="toggle" x="468" y="86.6667">
   <properties>
    <property name="flag" value="firstPaperBag"/>
    <property name="inverted" type="bool" value="true"/>
    <property name="target1" type="object" value="8"/>
    <property name="target2" type="object" value="9"/>
   </properties>
   <point/>
  </object>
  <object id="14" name="toggle" x="702.667" y="82.6667">
   <properties>
    <property name="flag" value="weight1"/>
    <property name="inverted" type="bool" value="true"/>
    <property name="target1" type="object" value="10"/>
    <property name="target2" type="object" value="39"/>
   </properties>
   <point/>
  </object>
  <object id="15" name="toggle" x="926.667" y="54.6667">
   <properties>
    <property name="flag" value="weight2"/>
    <property name="inverted" type="bool" value="true"/>
    <property name="target1" type="object" value="11"/>
    <property name="target2" type="object" value="40"/>
   </properties>
   <point/>
  </object>
  <object id="16" name="toggle" x="1082.67" y="665.333">
   <properties>
    <property name="flag" value="weight3"/>
    <property name="inverted" type="bool" value="true"/>
    <property name="target1" type="object" value="12"/>
    <property name="target2" type="object" value="42"/>
   </properties>
   <point/>
  </object>
  <object id="19" name="toggle" x="1149" y="531">
   <properties>
    <property name="flag" value="weight4"/>
    <property name="inverted" type="bool" value="true"/>
    <property name="target1" type="object" value="18"/>
    <property name="target2" type="object" value="41"/>
   </properties>
   <point/>
  </object>
  <object id="38" name="toggle" x="248" y="80">
   <properties>
    <property name="flag" value="pickedUpJoylessDevice"/>
    <property name="inverted" type="bool" value="true"/>
    <property name="target1" type="object" value="37"/>
    <property name="target2" type="object" value="35"/>
   </properties>
   <point/>
  </object>
 </objectgroup>
 <objectgroup color="#0000ff" id="6" name="collisions">
  <object id="17" x="1040" y="200" width="561.833" height="79.5"/>
  <object id="20" x="960" y="120" width="78.833" height="79.5"/>
  <object id="21" x="760" y="80" width="203.833" height="79.5"/>
  <object id="22" x="720" y="40" width="40.083" height="79.5"/>
  <object id="23" x="520" y="80" width="199.333" height="79.5"/>
  <object id="24" x="-6" y="160" width="565.833" height="79.5"/>
  <object id="25" x="560" y="160" width="81.833" height="39.5"/>
  <object id="26" x="1040" y="400" width="561.833" height="79.5"/>
  <object id="27" x="1040" y="480" width="78.833" height="79.5"/>
  <object id="28" x="1000" y="520" width="38.833" height="79.5"/>
  <object id="29" x="560" y="520" width="38.833" height="79.5"/>
  <object id="30" x="0" y="480" width="565.833" height="79.5"/>
  <object id="31" x="920" y="560" width="78.833" height="79.5"/>
  <object id="32" x="640" y="600" width="286.833" height="79.5"/>
  <object id="33" x="600" y="560" width="38.833" height="79.5"/>
  <object id="34" x="-80" y="220" width="81.833" height="259.5"/>
 </objectgroup>
 <objectgroup color="#ff007f" id="2" name="objects_party">
  <object id="1" name="transition" x="1600" y="280" width="40" height="120">
   <properties>
    <property name="map" value="chapter1/farm_world/garden_treasurehunt"/>
    <property name="marker" value="to_weights"/>
   </properties>
  </object>
  <object id="8" name="interactable" x="181" y="240" width="358.666" height="236.167">
   <properties>
    <property name="cutscene" value="chapter1/treasures.firstPaperBag"/>
    <property name="solid" type="bool" value="true"/>
   </properties>
  </object>
  <object id="10" name="interactable" x="680" y="200" width="40" height="40">
   <properties>
    <property name="cutscene" value="chapter1/treasures.pickupWeight"/>
    <property name="setflag" value="weight1"/>
    <property name="solid" type="bool" value="true"/>
   </properties>
  </object>
  <object id="11" name="interactable" x="880" y="240" width="40" height="40">
   <properties>
    <property name="cutscene" value="chapter1/treasures.pickupWeight"/>
    <property name="setflag" value="weight2"/>
    <property name="solid" type="bool" value="true"/>
   </properties>
  </object>
  <object id="12" name="interactable" x="760" y="480" width="40" height="40">
   <properties>
    <property name="cutscene" value="chapter1/treasures.pickupWeight"/>
    <property name="setflag" value="weight3"/>
    <property name="solid" type="bool" value="true"/>
   </properties>
  </object>
  <object id="18" name="interactable" x="920" y="400" width="40" height="40">
   <properties>
    <property name="cutscene" value="chapter1/treasures.pickupWeight"/>
    <property name="setflag" value="weight4"/>
    <property name="solid" type="bool" value="true"/>
   </properties>
  </object>
  <object id="37" name="interactable" x="34" y="240" width="127.666" height="236.167">
   <properties>
    <property name="cutscene" value="chapter1/treasures.pickupJoylessDevice"/>
    <property name="solid" type="bool" value="true"/>
   </properties>
  </object>
 </objectgroup>
 <objectgroup color="#aa00ff" id="3" name="markers">
  <object id="3" name="to_treasure" x="1560" y="341.333">
   <point/>
  </object>
 </objectgroup>
</map>
