<?xml version="1.0" encoding="UTF-8"?>
<map version="1.11" tiledversion="1.12.2" orientation="orthogonal" renderorder="right-down" width="16" height="12" tilewidth="40" tileheight="40" infinite="0" nextlayerid="5" nextobjectid="13">
 <editorsettings>
  <export target="garden_shop.lua" format="lua"/>
 </editorsettings>
 <properties>
  <property name="name" value="Garden - Shop"/>
 </properties>
 <tileset firstgid="1" source="../../../tilesets/garden.tsx"/>
 <tileset firstgid="101" source="../../../tilesets/garden_slide.tsx"/>
 <tileset firstgid="201" source="../../../tilesets/garden_extras.tsx"/>
 <layer id="1" name="Tile Layer 1" width="16" height="12">
  <data encoding="csv">
0,0,0,0,0,0,0,0,0,0,0,0,0,0,0,0,
0,0,0,0,0,0,0,0,0,0,0,0,0,0,0,0,
0,0,0,0,0,0,104,103,104,104,0,0,0,0,0,0,
0,0,0,0,0,104,102,102,102,102,104,0,0,0,0,0,
0,0,0,0,104,102,102,102,102,102,102,103,0,0,0,0,
0,0,0,103,102,102,102,102,102,102,102,102,103,0,0,0,
0,0,103,102,102,102,102,102,102,102,102,102,102,104,0,0,
7,6,114,114,114,114,114,114,114,114,114,114,114,5,5,6,
5,5,5,5,5,6,7,5,7,5,5,5,6,5,5,5,
9,9,9,9,9,9,9,9,9,9,9,9,9,9,9,9,
19,19,19,19,19,19,19,19,19,19,19,19,19,19,19,19,
29,29,29,29,29,29,29,29,29,29,29,29,29,29,29,29
</data>
 </layer>
 <objectgroup color="#0000ff" id="2" name="collision">
  <object id="1" x="0" y="400" width="640" height="40"/>
  <object id="2" x="0" y="240" width="280" height="40"/>
  <object id="3" x="360" y="240" width="280" height="40"/>
 </objectgroup>
 <objectgroup color="#ff007f" id="3" name="objects_party">
  <object id="4" gid="241" x="284" y="280" width="72" height="98"/>
  <object id="5" gid="242" x="284" y="170" width="72" height="32"/>
  <object id="6" name="transition" x="-40" y="280" width="40" height="120">
   <properties>
    <property name="map" value="chapter1/farm_world/garden_manorladders"/>
    <property name="marker" value="to_shop"/>
   </properties>
  </object>
  <object id="8" name="transition" x="280" y="240" width="80" height="40">
   <properties>
    <property name="facing" value="down"/>
    <property name="marker" value="shop"/>
    <property name="shop" value="zobate"/>
   </properties>
  </object>
  <object id="11" name="savepoint" x="140" y="280" width="40" height="40">
   <properties>
    <property name="heals" type="bool" value="true"/>
    <property name="marker" value="spawn"/>
    <property name="text1" value="* (The power of this shop shines bright,[wait:5] like the light of a thousand suns.)"/>
    <property name="text2" value="* (Your [color:yellow]DARK WALLET[color:reset] quivers...)"/>
    <property name="text_once" type="bool" value="true"/>
   </properties>
  </object>
 </objectgroup>
 <objectgroup color="#aa00ff" id="4" name="markers">
  <object id="7" name="to_ladders" x="40" y="340">
   <point/>
  </object>
  <object id="9" name="shop" x="320" y="320">
   <point/>
  </object>
  <object id="12" name="spawn" x="210" y="310">
   <point/>
  </object>
 </objectgroup>
</map>
