<?xml version="1.0" encoding="UTF-8"?>
<map version="1.11" tiledversion="1.12.2" orientation="orthogonal" renderorder="right-down" width="30" height="40" tilewidth="40" tileheight="40" infinite="0" nextlayerid="4" nextobjectid="7">
 <editorsettings>
  <export target="garden_treasurehunt3.lua" format="lua"/>
 </editorsettings>
 <properties>
  <property name="music" value="garden"/>
  <property name="name" value="Garden - Weight Puzzle 2"/>
 </properties>
 <tileset firstgid="1" source="../../../tilesets/garden.tsx"/>
 <tileset firstgid="101" source="../../../tilesets/garden_extras.tsx"/>
 <layer id="1" name="Camada de Blocos 1" width="30" height="40">
  <data encoding="csv">
0,0,0,0,0,0,0,0,0,0,0,0,0,0,0,0,0,0,0,0,0,0,0,0,0,0,0,0,0,0,
0,0,0,0,0,0,0,0,0,0,0,5,5,0,0,0,0,0,0,0,0,0,0,0,0,0,0,0,0,0,
0,0,0,0,0,5,5,5,5,5,5,5,5,5,0,0,0,0,0,0,0,0,0,0,0,0,0,0,0,0,
5,5,5,5,5,5,5,5,5,5,5,5,5,5,5,48,47,15,0,0,0,0,0,0,0,0,0,0,0,0,
9,9,9,9,5,5,5,5,5,5,5,5,5,5,5,48,48,15,0,0,0,0,0,0,0,0,0,0,0,0,
19,19,19,19,5,5,5,6,6,7,5,5,5,5,5,48,47,15,15,15,15,0,0,0,48,48,48,48,0,0,
29,29,29,5,5,5,5,5,6,7,5,5,5,5,5,48,48,15,15,15,15,15,15,48,48,48,48,48,48,0,
39,39,5,5,5,5,5,5,5,5,5,5,5,5,5,48,48,15,15,16,16,15,15,15,48,48,48,47,48,0,
49,49,9,5,5,5,5,5,5,5,5,5,5,5,5,48,48,15,15,16,15,15,15,15,15,15,48,48,48,0,
59,59,19,9,5,5,5,5,5,5,5,5,5,5,5,47,48,15,15,15,15,15,15,15,15,15,15,15,15,0,
0,0,29,19,9,9,5,5,5,5,5,5,5,5,5,48,48,37,37,15,15,15,15,15,15,15,15,15,15,0,
0,0,39,29,19,19,5,5,5,5,5,5,5,5,5,0,0,19,19,48,48,48,15,15,15,15,15,15,15,0,
0,0,49,39,29,29,5,5,5,5,5,5,5,5,5,0,0,29,29,48,48,48,48,15,15,15,16,15,15,0,
0,0,59,49,5,5,5,5,5,5,5,5,5,5,7,5,5,39,39,48,48,48,48,15,15,15,16,16,15,0,
0,0,5,5,5,5,5,5,5,5,5,5,5,5,6,7,5,49,49,0,48,48,15,15,15,15,15,15,15,0,
0,0,5,5,5,5,5,5,5,5,5,5,5,5,6,5,5,59,59,0,15,15,15,15,15,15,15,15,15,0,
0,5,5,5,5,5,6,5,5,5,5,5,5,5,5,5,5,0,0,15,15,15,15,15,15,15,15,37,37,0,
0,5,5,5,5,7,6,5,5,5,5,5,5,5,5,5,5,15,15,15,16,15,15,15,15,15,37,19,19,0,
0,5,5,5,5,6,6,5,5,5,5,5,5,5,5,5,5,15,16,15,15,15,15,15,15,38,19,29,29,0,
0,9,5,5,5,5,5,5,5,5,5,5,5,5,5,5,5,15,15,15,15,15,15,15,15,19,29,39,39,0,
0,19,9,5,5,5,5,5,5,5,5,5,5,5,5,5,5,15,15,15,15,15,15,15,37,29,39,49,49,0,
0,29,19,9,9,9,5,5,5,5,5,5,5,5,5,9,9,37,37,37,38,37,37,37,19,39,49,59,59,0,
0,39,29,19,19,19,5,5,5,5,5,5,5,5,5,19,19,19,19,19,19,19,19,19,29,49,59,0,0,0,
0,49,39,29,29,29,5,5,5,5,5,5,5,5,5,29,29,29,29,29,29,29,29,29,39,59,0,0,0,0,
0,59,49,39,5,5,5,5,5,5,5,5,5,5,5,5,5,39,39,39,39,39,39,39,49,0,0,0,0,0,
0,0,59,5,5,5,5,5,5,5,5,5,5,5,5,5,5,49,49,49,49,49,49,49,59,0,0,0,0,0,
0,0,5,5,5,5,5,5,5,5,5,5,5,5,7,6,5,59,59,59,59,59,59,59,0,0,0,0,0,0,
0,0,5,5,5,5,7,6,6,5,5,5,5,6,7,5,5,5,0,0,0,0,0,0,0,0,0,0,0,0,
0,0,9,9,5,5,5,5,5,5,5,5,5,5,5,5,5,9,0,0,0,0,0,0,0,0,0,0,0,0,
0,0,19,19,9,9,9,9,5,5,5,5,5,5,9,9,9,19,0,0,0,0,0,0,0,0,0,0,0,0,
0,0,29,29,19,19,19,19,9,9,9,5,5,9,19,19,19,29,0,0,0,0,0,0,0,0,0,0,0,0,
0,0,39,39,29,29,29,29,19,19,19,9,9,19,29,29,29,39,0,0,0,0,0,0,0,0,0,0,0,0,
0,0,49,49,39,39,39,39,29,29,29,19,19,29,39,39,39,49,0,0,0,0,0,0,0,0,0,0,0,0,
0,0,59,59,49,49,49,49,39,39,39,29,29,39,49,49,49,59,0,0,0,0,0,0,0,0,0,0,0,0,
0,0,0,0,59,59,59,59,49,49,49,39,39,49,59,59,59,0,0,0,0,0,0,0,0,0,0,0,0,0,
0,0,0,0,0,0,0,0,59,59,59,49,49,59,0,0,0,0,0,0,0,0,0,0,0,0,0,0,0,0,
0,0,0,0,0,0,0,0,0,0,0,59,59,0,0,0,0,0,0,0,0,0,0,0,0,0,0,0,0,0,
0,0,0,0,0,0,0,0,0,0,0,0,0,0,0,0,0,0,0,0,0,0,0,0,0,0,0,0,0,0,
0,0,0,0,0,0,0,0,0,0,0,0,0,0,0,0,0,0,0,0,0,0,0,0,0,0,0,0,0,0,
0,0,0,0,0,0,0,0,0,0,0,0,0,0,0,0,0,0,0,0,0,0,0,0,0,0,0,0,0,0
</data>
 </layer>
 <objectgroup color="#aa00ff" id="2" name="markers">
  <object id="1" name="to_treasure" x="49.3333" y="162.667">
   <point/>
  </object>
 </objectgroup>
 <objectgroup color="#ff007f" id="3" name="objects_party">
  <object id="3" name="transition" x="-40" y="120" width="40" height="80.6667">
   <properties>
    <property name="map" value="chapter1/farm_world/garden_treasurehunt"/>
    <property name="marker" value="to_weight2"/>
   </properties>
  </object>
  <object id="4" gid="148" x="240" y="560" width="354" height="205"/>
  <object id="5" gid="148" x="240" y="1000" width="354" height="205"/>
  <object id="6" name="npc" x="440" y="280" width="40" height="40">
   <properties>
    <property name="actor" value="kipkip"/>
    <property name="text1_1" value="* (Come back later not doen yet)"/>
    <property name="text2_1" value="* (Stupid starwalker temporary NPCs and their cryptic Deltarune Related Theories.)"/>
    <property name="text2_2" value="* (I'm going to say cryptic Pikmin theories instead.)"/>
    <property name="text3_1" value="* (Umibozu Theory [sound:wheredidtheyhidetheza] [sound:wheredidtheyhidetheza]PNF-404 is Earth [sound:wheredidtheyhidetheza]Louie's Dark Secret [sound:wheredidtheyhidetheza]Pikmin 2 SPAM Email Every Pikmin 2 Cave is Personalized [sound:wheredidtheyhidetheza] Drake is Character D Hocotate is a corporate state [sound:wheredidtheyhidetheza]Bulbmin are parasite Pikmin [sound:wheredidtheyhidetheza] Louie is evil)"/>
   </properties>
  </object>
 </objectgroup>
</map>
