<?xml version="1.0" encoding="UTF-8"?>
<map version="1.11" tiledversion="1.12.2" orientation="orthogonal" renderorder="right-down" width="17" height="16" tilewidth="40" tileheight="40" infinite="0" nextlayerid="14" nextobjectid="62">
 <editorsettings>
  <export target="garden_ladder1.lua" format="lua"/>
 </editorsettings>
 <properties>
  <property name="music" value="garden"/>
  <property name="name" value="Garden - Ladder 1"/>
 </properties>
 <tileset firstgid="1" source="../../../tilesets/garden.tsx"/>
 <tileset firstgid="101" source="../../../tilesets/farm_world.tsx"/>
 <tileset firstgid="201" source="../../../tilesets/farm_world_extras.tsx"/>
 <tileset firstgid="229" source="../../../tilesets/garden_extras.tsx"/>
 <group id="11" name="deco" locked="1">
  <layer id="12" name="star" width="17" height="16" visible="0" parallaxx="0.5" parallaxy="0.5">
   <data encoding="csv">
4,3,3,3,3,3,3,3,3,3,1,3,14,3,1,3,3,
3,3,3,3,3,3,3,3,3,3,3,3,3,3,3,3,13,
3,3,3,3,3,3,3,3,3,3,3,3,3,2,3,3,3,
3,3,3,3,3,3,3,3,3,1,3,3,3,3,3,3,3,
4,3,3,3,3,3,3,3,3,3,3,3,14,2,3,3,3,
3,3,3,3,3,3,3,3,3,3,3,3,3,3,3,3,3,
3,3,3,3,3,3,3,3,3,3,3,2,3,3,3,4,3,
3,3,3,3,3,3,3,3,3,3,3,3,3,3,3,3,3,
3,3,3,3,3,3,3,3,3,3,3,3,3,3,3,3,3,
3,3,3,0,3,3,3,3,3,3,3,3,3,0,3,3,3,
3,3,3,0,3,3,3,3,3,3,3,3,3,0,3,3,3,
3,3,3,0,0,0,0,0,0,0,0,0,0,0,3,3,3,
3,3,3,0,0,0,0,0,0,0,0,0,0,0,3,3,3,
3,3,3,0,0,0,0,0,0,0,0,0,0,0,3,3,3,
3,3,3,0,0,0,0,0,0,0,0,0,0,0,3,3,3,
12,3,3,0,0,0,0,0,0,0,0,0,0,0,3,3,3
</data>
  </layer>
  <objectgroup id="13" name="objects_midground" parallaxx="0.7" parallaxy="0.7">
   <object id="51" gid="224" x="470" y="200" width="86" height="66"/>
   <object id="53" gid="224" x="70" y="90" width="86" height="66"/>
  </objectgroup>
 </group>
 <layer id="1" name="Tile Layer 1" width="17" height="16">
  <data encoding="csv">
0,0,0,0,0,0,0,0,0,0,0,0,0,0,0,0,0,
0,0,0,0,0,0,0,21,5,22,0,0,0,0,0,0,0,
0,0,0,0,0,0,0,5,5,6,0,0,0,0,0,0,0,
0,0,0,0,0,0,0,5,5,5,0,0,0,0,0,0,0,
0,0,21,5,22,0,0,6,6,5,0,0,21,5,22,0,0,
0,0,5,7,5,0,0,5,5,5,0,0,6,6,5,0,0,
0,0,9,7,9,0,0,5,5,5,0,0,9,5,9,0,0,
0,0,19,6,19,0,0,5,5,5,0,0,19,6,19,0,0,
0,0,59,7,59,0,0,5,5,5,0,0,59,5,59,0,0,
0,0,0,5,0,0,0,5,5,5,0,0,0,5,0,0,0,
0,0,21,5,5,5,5,5,5,5,6,5,5,5,22,0,0,
0,0,9,9,9,9,9,5,5,5,9,9,9,9,9,0,0,
0,0,19,19,19,19,19,5,5,5,19,19,19,19,19,0,0,
0,0,29,29,29,29,29,9,9,9,29,29,29,29,29,0,0,
0,0,39,39,39,39,39,19,19,19,39,39,39,39,39,0,0,
0,0,59,59,59,59,59,29,29,29,59,59,59,59,59,0,0
</data>
 </layer>
 <layer id="4" name="ladders" width="17" height="16">
  <data encoding="csv">
0,0,0,0,0,0,0,0,0,0,0,0,0,0,0,0,0,
0,0,0,0,0,0,0,0,0,0,0,0,0,0,0,0,0,
0,0,0,0,0,0,0,0,0,0,0,0,0,0,0,0,0,
0,0,0,0,0,0,0,0,0,0,0,0,0,0,0,0,0,
0,0,0,0,0,0,0,0,0,0,0,0,0,0,0,0,0,
0,0,0,0,0,0,0,0,0,0,0,0,0,0,0,0,0,
0,0,0,0,0,0,0,0,0,0,0,0,0,0,0,0,0,
0,0,0,0,0,0,0,0,0,0,0,0,0,0,0,0,0,
0,0,0,0,0,0,0,0,0,0,0,0,0,0,0,0,0,
0,0,0,0,0,0,0,0,0,0,0,0,0,0,0,0,0,
0,0,0,0,0,0,0,0,0,0,0,0,0,0,0,0,0,
0,0,0,0,0,0,0,0,0,0,0,0,0,0,0,0,0,
0,0,0,0,0,0,0,0,0,0,0,0,0,0,0,0,0,
0,0,0,0,0,0,0,0,0,0,0,0,0,0,0,0,0,
0,0,0,0,0,0,0,0,130,0,0,0,0,0,0,0,0,
0,0,0,0,0,0,0,0,130,0,0,0,0,0,0,0,0
</data>
 </layer>
 <objectgroup id="5" name="objects_ladders">
  <object id="4" name="climbarea" x="320" y="560" width="40" height="80"/>
 </objectgroup>
 <objectgroup id="6" name="objects_climb_entry">
  <object id="6" name="climbentry" x="320" y="560" width="40" height="40">
   <properties>
    <property name="target" type="object" value="9"/>
   </properties>
  </object>
 </objectgroup>
 <objectgroup id="7" name="objects_climb_exit">
  <object id="9" name="climbexit" x="320" y="560" width="40" height="40">
   <properties>
    <property name="target" type="object" value="11"/>
   </properties>
  </object>
 </objectgroup>
 <objectgroup id="9" name="objects_tilebutton">
  <object id="23" name="tilebutton" x="120" y="200" width="40" height="40">
   <properties>
    <property name="blocks" type="bool" value="false"/>
    <property name="cutscene" value="chapter1/garden.ladder1"/>
    <property name="group" type="int" value="1"/>
    <property name="keepdown" type="bool" value="true"/>
    <property name="once" type="bool" value="true"/>
    <property name="onsound" value="noise"/>
   </properties>
  </object>
  <object id="26" name="tilebutton" x="520" y="200" width="40" height="40">
   <properties>
    <property name="blocks" type="bool" value="false"/>
    <property name="cutscene" value="chapter1/garden.ladder1"/>
    <property name="group" type="int" value="1"/>
    <property name="keepdown" type="bool" value="true"/>
    <property name="once" type="bool" value="true"/>
    <property name="onsound" value="noise"/>
   </properties>
  </object>
 </objectgroup>
 <objectgroup color="#ff007f" id="2" name="objects_party">
  <object id="1" name="transition" x="280" y="620" width="120" height="40">
   <properties>
    <property name="map" value="chapter1/farm_world/garden_manorladders"/>
    <property name="marker" value="to_ladder1"/>
   </properties>
  </object>
  <object id="14" name="dirtflower" x="320" y="80" width="40" height="40">
   <properties>
    <property name="setflag" value="dirt1"/>
    <property name="setvalue" type="bool" value="true"/>
   </properties>
  </object>
  <object id="15" name="enemy" x="130" y="360">
   <properties>
    <property name="actor" value="kipkip"/>
    <property name="chase" type="bool" value="false"/>
    <property name="chasedist" type="int" value="200"/>
    <property name="encounter" value="kipkip"/>
    <property name="enemy" value="kipkip"/>
    <property name="once" type="bool" value="true"/>
   </properties>
   <point/>
  </object>
  <object id="16" name="enemy" x="530" y="360">
   <properties>
    <property name="actor" value="kipkip"/>
    <property name="chase" type="bool" value="false"/>
    <property name="chasedist" type="int" value="200"/>
    <property name="encounter" value="kipkip"/>
    <property name="enemy" value="kipkip"/>
    <property name="once" type="bool" value="true"/>
   </properties>
   <point/>
  </object>
  <object id="17" name="spike1" gid="213" x="280" y="200" width="40" height="40"/>
  <object id="18" name="spike2" gid="213" x="320" y="200" width="40" height="40"/>
  <object id="19" name="spike3" gid="213" x="360" y="200" width="40" height="40"/>
  <object id="20" name="interactable" x="280" y="160" width="120" height="40">
   <properties>
    <property name="cutscene" value="chapter1/garden.garden_warfare"/>
    <property name="solid" type="bool" value="true"/>
   </properties>
  </object>
  <object id="54" name="interactable" x="120" y="400" width="40" height="40">
   <properties>
    <property name="cutscene" value="chapter1/treasures.pickupWeight"/>
    <property name="setflag" value="weight14"/>
    <property name="solid" type="bool" value="true"/>
   </properties>
  </object>
  <object id="55" gid="277" x="120" y="440" width="40" height="60"/>
  <object id="58" name="interactable" x="80" y="440" width="40" height="40">
   <properties>
    <property name="cutscene" value="chapter1/treasures.pickupWeight"/>
    <property name="setflag" value="weight15"/>
    <property name="solid" type="bool" value="true"/>
   </properties>
  </object>
  <object id="59" gid="277" x="80" y="480" width="40" height="60"/>
 </objectgroup>
 <objectgroup color="#ffff00" id="8" name="controllers">
  <object id="21" name="toggle" x="230" y="-50">
   <properties>
    <property name="flag" value="garden_ladder1"/>
    <property name="inverted" type="bool" value="true"/>
    <property name="target1" type="object" value="21"/>
    <property name="target2" type="object" value="19"/>
    <property name="target3" type="object" value="18"/>
    <property name="target4" type="object" value="17"/>
    <property name="target5" type="object" value="20"/>
   </properties>
   <point/>
  </object>
  <object id="60" name="toggle" x="134.667" y="44">
   <properties>
    <property name="flag" value="weight14"/>
    <property name="inverted" type="bool" value="true"/>
    <property name="target1" type="object" value="54"/>
    <property name="target2" type="object" value="55"/>
   </properties>
   <point/>
  </object>
  <object id="61" name="toggle" x="58" y="54.6667">
   <properties>
    <property name="flag" value="weight15"/>
    <property name="inverted" type="bool" value="true"/>
    <property name="target1" type="object" value="59"/>
    <property name="target2" type="object" value="58"/>
   </properties>
   <point/>
  </object>
 </objectgroup>
 <objectgroup color="#0000ff" id="10" name="collision">
  <object id="28" x="80" y="480" width="200" height="40"/>
  <object id="29" x="240" y="520" width="40" height="120"/>
  <object id="30" x="400" y="480" width="40" height="160"/>
  <object id="31" x="440" y="480" width="160" height="40"/>
  <object id="32" x="600" y="400" width="40" height="80"/>
  <object id="33" x="40" y="400" width="40" height="80"/>
  <object id="34" x="80" y="280" width="40" height="120"/>
  <object id="35" x="160" y="280" width="40" height="120"/>
  <object id="36" x="200" y="360" width="80" height="40"/>
  <object id="37" x="400" y="360" width="120" height="40"/>
  <object id="38" x="560" y="280" width="40" height="120"/>
  <object id="39" x="480" y="280" width="40" height="80"/>
  <object id="40" x="400" y="40" width="40" height="320"/>
  <object id="41" x="280" y="0" width="120" height="40"/>
  <object id="42" x="240" y="40" width="40" height="320"/>
  <object id="43" x="200" y="160" width="40" height="120"/>
  <object id="44" x="80" y="120" width="120" height="40"/>
  <object id="45" x="40" y="160" width="40" height="120"/>
  <object id="46" x="440" y="160" width="40" height="120"/>
  <object id="47" x="480" y="120" width="120" height="40"/>
  <object id="48" x="600" y="160" width="40" height="120"/>
  <object id="49" x="280" y="560" width="40" height="80"/>
  <object id="50" x="360" y="560" width="40" height="80"/>
 </objectgroup>
 <objectgroup color="#aa00ff" id="3" name="markers">
  <object id="3" name="entry" x="340" y="600">
   <properties>
    <property name="player_state" value="CLIMB"/>
   </properties>
   <point/>
  </object>
  <object id="11" x="340" y="520">
   <point/>
  </object>
 </objectgroup>
</map>
